(Exported by FreeCAD)
(Post Processor: marlin_post.py, version: 2020-11-03)
(Output Time:2024-04-21 22:15:18.789873)
(Begin preamble)
(Default Configuration)
G90
G21
G17
(Begin operation: Fixture)
G54
(Begin operation: TC: 5mm Endmill)
(TC: 5mm Endmill)
(Begin toolchange)
(M6 T1.0)
(Begin operation: Drilling)
(Drilling)
(Begin Drilling)
G0 Z5.000
G90
(G99)
G0 X62.530 Y62.597
(G83 X62.530 Y62.597 Z-12.000 F60.000 Q1.000 R3.000)
G0 X62.530 Y62.597
G0 Z3.000
G1 Z2.000 F60.00
G0 Z3.000
G0 Z2.500
G1 Z1.000 F60.00
G0 Z3.000
G0 Z1.500
G1 Z0.000 F60.00
G0 Z3.000
G0 Z0.500
G1 Z-1.000 F60.00
G0 Z3.000
G0 Z-0.500
G1 Z-2.000 F60.00
G0 Z3.000
G0 Z-1.500
G1 Z-3.000 F60.00
G0 Z3.000
G0 Z-2.500
G1 Z-4.000 F60.00
G0 Z3.000
G0 Z-3.500
G1 Z-5.000 F60.00
G0 Z3.000
G0 Z-4.500
G1 Z-6.000 F60.00
G0 Z3.000
G0 Z-5.500
G1 Z-7.000 F60.00
G0 Z3.000
G0 Z-6.500
G1 Z-8.000 F60.00
G0 Z3.000
G0 Z-7.500
G1 Z-9.000 F60.00
G0 Z3.000
G0 Z-8.500
G1 Z-10.000 F60.00
G0 Z3.000
G0 Z-9.500
G1 Z-11.000 F60.00
G0 Z3.000
G0 Z-10.500
G1 Z-12.000 F60.00
G0 Z3.000
G0 X105.000 Y104.974
(G83 X105.000 Y104.974 Z-12.000 F60.000 Q1.000 R3.000)
G0 X105.000 Y104.974
G0 Z3.000
G1 Z2.000 F60.00
G0 Z3.000
G0 Z2.500
G1 Z1.000 F60.00
G0 Z3.000
G0 Z1.500
G1 Z0.000 F60.00
G0 Z3.000
G0 Z0.500
G1 Z-1.000 F60.00
G0 Z3.000
G0 Z-0.500
G1 Z-2.000 F60.00
G0 Z3.000
G0 Z-1.500
G1 Z-3.000 F60.00
G0 Z3.000
G0 Z-2.500
G1 Z-4.000 F60.00
G0 Z3.000
G0 Z-3.500
G1 Z-5.000 F60.00
G0 Z3.000
G0 Z-4.500
G1 Z-6.000 F60.00
G0 Z3.000
G0 Z-5.500
G1 Z-7.000 F60.00
G0 Z3.000
G0 Z-6.500
G1 Z-8.000 F60.00
G0 Z3.000
G0 Z-7.500
G1 Z-9.000 F60.00
G0 Z3.000
G0 Z-8.500
G1 Z-10.000 F60.00
G0 Z3.000
G0 Z-9.500
G1 Z-11.000 F60.00
G0 Z3.000
G0 Z-10.500
G1 Z-12.000 F60.00
G0 Z3.000
G0 X62.527 Y147.450
(G83 X62.527 Y147.450 Z-12.000 F60.000 Q1.000 R3.000)
G0 X62.527 Y147.450
G0 Z3.000
G1 Z2.000 F60.00
G0 Z3.000
G0 Z2.500
G1 Z1.000 F60.00
G0 Z3.000
G0 Z1.500
G1 Z0.000 F60.00
G0 Z3.000
G0 Z0.500
G1 Z-1.000 F60.00
G0 Z3.000
G0 Z-0.500
G1 Z-2.000 F60.00
G0 Z3.000
G0 Z-1.500
G1 Z-3.000 F60.00
G0 Z3.000
G0 Z-2.500
G1 Z-4.000 F60.00
G0 Z3.000
G0 Z-3.500
G1 Z-5.000 F60.00
G0 Z3.000
G0 Z-4.500
G1 Z-6.000 F60.00
G0 Z3.000
G0 Z-5.500
G1 Z-7.000 F60.00
G0 Z3.000
G0 Z-6.500
G1 Z-8.000 F60.00
G0 Z3.000
G0 Z-7.500
G1 Z-9.000 F60.00
G0 Z3.000
G0 Z-8.500
G1 Z-10.000 F60.00
G0 Z3.000
G0 Z-9.500
G1 Z-11.000 F60.00
G0 Z3.000
G0 Z-10.500
G1 Z-12.000 F60.00
G0 Z3.000
G0 X147.380 Y147.453
(G83 X147.380 Y147.453 Z-12.000 F60.000 Q1.000 R3.000)
G0 X147.380 Y147.453
G0 Z3.000
G1 Z2.000 F60.00
G0 Z3.000
G0 Z2.500
G1 Z1.000 F60.00
G0 Z3.000
G0 Z1.500
G1 Z0.000 F60.00
G0 Z3.000
G0 Z0.500
G1 Z-1.000 F60.00
G0 Z3.000
G0 Z-0.500
G1 Z-2.000 F60.00
G0 Z3.000
G0 Z-1.500
G1 Z-3.000 F60.00
G0 Z3.000
G0 Z-2.500
G1 Z-4.000 F60.00
G0 Z3.000
G0 Z-3.500
G1 Z-5.000 F60.00
G0 Z3.000
G0 Z-4.500
G1 Z-6.000 F60.00
G0 Z3.000
G0 Z-5.500
G1 Z-7.000 F60.00
G0 Z3.000
G0 Z-6.500
G1 Z-8.000 F60.00
G0 Z3.000
G0 Z-7.500
G1 Z-9.000 F60.00
G0 Z3.000
G0 Z-8.500
G1 Z-10.000 F60.00
G0 Z3.000
G0 Z-9.500
G1 Z-11.000 F60.00
G0 Z3.000
G0 Z-10.500
G1 Z-12.000 F60.00
G0 Z3.000
G0 X147.383 Y62.600
(G83 X147.383 Y62.600 Z-12.000 F60.000 Q1.000 R3.000)
G0 X147.383 Y62.600
G0 Z3.000
G1 Z2.000 F60.00
G0 Z3.000
G0 Z2.500
G1 Z1.000 F60.00
G0 Z3.000
G0 Z1.500
G1 Z0.000 F60.00
G0 Z3.000
G0 Z0.500
G1 Z-1.000 F60.00
G0 Z3.000
G0 Z-0.500
G1 Z-2.000 F60.00
G0 Z3.000
G0 Z-1.500
G1 Z-3.000 F60.00
G0 Z3.000
G0 Z-2.500
G1 Z-4.000 F60.00
G0 Z3.000
G0 Z-3.500
G1 Z-5.000 F60.00
G0 Z3.000
G0 Z-4.500
G1 Z-6.000 F60.00
G0 Z3.000
G0 Z-5.500
G1 Z-7.000 F60.00
G0 Z3.000
G0 Z-6.500
G1 Z-8.000 F60.00
G0 Z3.000
G0 Z-7.500
G1 Z-9.000 F60.00
G0 Z3.000
G0 Z-8.500
G1 Z-10.000 F60.00
G0 Z3.000
G0 Z-9.500
G1 Z-11.000 F60.00
G0 Z3.000
G0 Z-10.500
G1 Z-12.000 F60.00
G0 Z3.000
G0 X355.000 Y104.872
(G83 X355.000 Y104.872 Z-12.000 F60.000 Q1.000 R3.000)
G0 X355.000 Y104.872
G0 Z3.000
G1 Z2.000 F60.00
G0 Z3.000
G0 Z2.500
G1 Z1.000 F60.00
G0 Z3.000
G0 Z1.500
G1 Z0.000 F60.00
G0 Z3.000
G0 Z0.500
G1 Z-1.000 F60.00
G0 Z3.000
G0 Z-0.500
G1 Z-2.000 F60.00
G0 Z3.000
G0 Z-1.500
G1 Z-3.000 F60.00
G0 Z3.000
G0 Z-2.500
G1 Z-4.000 F60.00
G0 Z3.000
G0 Z-3.500
G1 Z-5.000 F60.00
G0 Z3.000
G0 Z-4.500
G1 Z-6.000 F60.00
G0 Z3.000
G0 Z-5.500
G1 Z-7.000 F60.00
G0 Z3.000
G0 Z-6.500
G1 Z-8.000 F60.00
G0 Z3.000
G0 Z-7.500
G1 Z-9.000 F60.00
G0 Z3.000
G0 Z-8.500
G1 Z-10.000 F60.00
G0 Z3.000
G0 Z-9.500
G1 Z-11.000 F60.00
G0 Z3.000
G0 Z-10.500
G1 Z-12.000 F60.00
G0 Z3.000
(G80)
G0 Z3.000
G0 Z5.000
(Begin operation: Adaptive)
(Adaptive)
G0 Z5.000
(Begin postamble)
M5
