(Exported by FreeCAD)
(Post Processor: marlin_post.py, version: 2020-11-03)
(Output Time:2023-11-10 16:14:10.739892)
(Begin preamble)
(Default Configuration)
G90
G21
G17
(Begin operation: TC: endmill D=12, H=20, S=8)
(TC: endmill D=12, H=20, S=8)
(Begin toolchange)
(M6 T14.0)
(Begin operation: Fixture)
G54
(Begin operation: Pocket_Shape)
(Pocket_Shape)
G0 Z5.000
G0 X348.250 Y49.750
G0 Z3.000
G1 X348.250 Y49.750 Z-2.000 F60.000
G1 X9.250 Y49.750 Z-2.000 F600.000
G1 X9.250 Y41.250 Z-2.000 F600.000
G1 X348.250 Y41.250 Z-2.000 F600.000
G1 X348.250 Y49.750 Z-2.000 F600.000
G0 Z5.000
G0 X345.625 Y47.125 Z5.000
G0 X345.625 Y47.125 Z3.000
G1 X345.625 Y47.125 Z-2.000 F60.000
G1 X11.875 Y47.125 Z-2.000 F600.000
G1 X11.875 Y43.875 Z-2.000 F600.000
G1 X345.625 Y43.875 Z-2.000 F600.000
G1 X345.625 Y47.125 Z-2.000 F600.000
G1 X345.625 Y47.125 Z-4.000 F60.000
G1 X11.875 Y47.125 Z-4.000 F600.000
G1 X11.875 Y43.875 Z-4.000 F600.000
G1 X345.625 Y43.875 Z-4.000 F600.000
G1 X345.625 Y47.125 Z-4.000 F600.000
G0 Z5.000
G0 X348.250 Z5.000
G0 X348.250 Z3.000
G1 X348.250 Y47.125 Z-4.000 F60.000
G1 X348.250 Y49.750 Z-4.000 F600.000
G1 X9.250 Y49.750 Z-4.000 F600.000
G1 X9.250 Y41.250 Z-4.000 F600.000
G1 X348.250 Y41.250 Z-4.000 F600.000
G1 X348.250 Y47.125 Z-4.000 F600.000
G1 X348.250 Y47.125 Z-6.000 F60.000
G1 X348.250 Y49.750 Z-6.000 F600.000
G1 X9.250 Y49.750 Z-6.000 F600.000
G1 X9.250 Y41.250 Z-6.000 F600.000
G1 X348.250 Y41.250 Z-6.000 F600.000
G1 X348.250 Y47.125 Z-6.000 F600.000
G0 Z5.000
G0 X345.625 Z5.000
G0 X345.625 Z3.000
G1 X345.625 Y47.125 Z-6.000 F60.000
G1 X11.875 Y47.125 Z-6.000 F600.000
G1 X11.875 Y43.875 Z-6.000 F600.000
G1 X345.625 Y43.875 Z-6.000 F600.000
G1 X345.625 Y47.125 Z-6.000 F600.000
G1 X345.625 Y47.125 Z-8.000 F60.000
G1 X11.875 Y47.125 Z-8.000 F600.000
G1 X11.875 Y43.875 Z-8.000 F600.000
G1 X345.625 Y43.875 Z-8.000 F600.000
G1 X345.625 Y47.125 Z-8.000 F600.000
G0 Z5.000
G0 X348.250 Z5.000
G0 X348.250 Z3.000
G1 X348.250 Y47.125 Z-8.000 F60.000
G1 X348.250 Y49.750 Z-8.000 F600.000
G1 X9.250 Y49.750 Z-8.000 F600.000
G1 X9.250 Y41.250 Z-8.000 F600.000
G1 X348.250 Y41.250 Z-8.000 F600.000
G1 X348.250 Y47.125 Z-8.000 F600.000
G1 X348.250 Y47.125 Z-10.000 F60.000
G1 X348.250 Y49.750 Z-10.000 F600.000
G1 X9.250 Y49.750 Z-10.000 F600.000
G1 X9.250 Y41.250 Z-10.000 F600.000
G1 X348.250 Y41.250 Z-10.000 F600.000
G1 X348.250 Y47.125 Z-10.000 F600.000
G0 Z5.000
G0 X345.625 Z5.000
G0 X345.625 Z3.000
G1 X345.625 Y47.125 Z-10.000 F60.000
G1 X11.875 Y47.125 Z-10.000 F600.000
G1 X11.875 Y43.875 Z-10.000 F600.000
G1 X345.625 Y43.875 Z-10.000 F600.000
G1 X345.625 Y47.125 Z-10.000 F600.000
G1 X345.625 Y47.125 Z-10.400 F60.000
G1 X11.875 Y47.125 Z-10.400 F600.000
G1 X11.875 Y43.875 Z-10.400 F600.000
G1 X345.625 Y43.875 Z-10.400 F600.000
G1 X345.625 Y47.125 Z-10.400 F600.000
G0 Z5.000
G0 X348.250 Z5.000
G0 X348.250 Z3.000
G1 X348.250 Y47.125 Z-10.400 F60.000
G1 X348.250 Y49.750 Z-10.400 F600.000
G1 X9.250 Y49.750 Z-10.400 F600.000
G1 X9.250 Y41.250 Z-10.400 F600.000
G1 X348.250 Y41.250 Z-10.400 F600.000
G1 X348.250 Y47.125 Z-10.400 F600.000
G0 Z5.000
G0 Z5.000
(Begin postamble)
M5
