(Exported by FreeCAD)
(Post Processor: marlin_post.py, version: 2020-11-03)
(Output Time:2023-11-07 18:48:09.943550)
(Begin preamble)
(Default Configuration)
G90
G21
G17
(Begin operation: Fixture)
G54
(Begin operation: TC: 6 mm endmill, D=6, H=45, L=80, S=6)
(TC: 6 mm endmill, D=6, H=45, L=80, S=6)
(Begin toolchange)
(M6 T17.0)
(Begin operation: slot_004)
G0 Z5.000
G0 X531.526 Y272.191 Z5.000
G0 X531.526 Y272.191 Z3.000
G1 X531.526 Y272.191 Z-2.000 F60.000
G2 X535.333 Y262.948 Z-2.000 I-9.192 J-9.192 K0.000 F600.000
G1 X535.333 Y83.052 Z-2.000 F600.000
G2 X523.692 Y70.073 Z-2.000 I-13.002 J-0.049 K0.000 F600.000
G2 X509.333 Y83.052 Z-2.000 I-1.358 J12.930 K0.000 F600.000
G1 X509.333 Y262.948 Z-2.000 F600.000
G2 X531.526 Y272.191 Z-2.000 I13.000 J0.050 K0.000 F600.000
G1 X531.526 Y272.191 Z-4.000 F60.000
G2 X535.333 Y262.948 Z-4.000 I-9.192 J-9.192 K0.000 F600.000
G1 X535.333 Y83.052 Z-4.000 F600.000
G2 X523.692 Y70.073 Z-4.000 I-13.002 J-0.049 K0.000 F600.000
G2 X509.333 Y83.052 Z-4.000 I-1.358 J12.930 K0.000 F600.000
G1 X509.333 Y262.948 Z-4.000 F600.000
G2 X531.526 Y272.191 Z-4.000 I13.000 J0.050 K0.000 F600.000
G1 X531.526 Y272.191 Z-6.000 F60.000
G2 X535.333 Y262.948 Z-6.000 I-9.192 J-9.192 K0.000 F600.000
G1 X535.333 Y83.052 Z-6.000 F600.000
G2 X523.692 Y70.073 Z-6.000 I-13.002 J-0.049 K0.000 F600.000
G2 X509.333 Y83.052 Z-6.000 I-1.358 J12.930 K0.000 F600.000
G1 X509.333 Y262.948 Z-6.000 F600.000
G2 X531.526 Y272.191 Z-6.000 I13.000 J0.050 K0.000 F600.000
G1 X531.526 Y272.191 Z-8.000 F60.000
G2 X535.333 Y262.948 Z-8.000 I-9.192 J-9.192 K0.000 F600.000
G1 X535.333 Y83.052 Z-8.000 F600.000
G2 X523.692 Y70.073 Z-8.000 I-13.002 J-0.049 K0.000 F600.000
G2 X509.333 Y83.052 Z-8.000 I-1.358 J12.930 K0.000 F600.000
G1 X509.333 Y262.948 Z-8.000 F600.000
G2 X531.526 Y272.191 Z-8.000 I13.000 J0.050 K0.000 F600.000
G1 X531.526 Y272.191 Z-10.000 F60.000
G2 X535.333 Y262.948 Z-10.000 I-9.192 J-9.192 K0.000 F600.000
G1 X535.333 Y83.052 Z-10.000 F600.000
G2 X523.692 Y70.073 Z-10.000 I-13.002 J-0.049 K0.000 F600.000
G2 X509.333 Y83.052 Z-10.000 I-1.358 J12.930 K0.000 F600.000
G1 X509.333 Y262.948 Z-10.000 F600.000
G2 X531.526 Y272.191 Z-10.000 I13.000 J0.050 K0.000 F600.000
G1 X531.526 Y272.191 Z-12.000 F60.000
G2 X535.333 Y262.948 Z-12.000 I-9.192 J-9.192 K0.000 F600.000
G1 X535.333 Y83.052 Z-12.000 F600.000
G2 X523.692 Y70.073 Z-12.000 I-13.002 J-0.049 K0.000 F600.000
G2 X509.333 Y83.052 Z-12.000 I-1.358 J12.930 K0.000 F600.000
G1 X509.333 Y262.948 Z-12.000 F600.000
G2 X531.526 Y272.191 Z-12.000 I13.000 J0.050 K0.000 F600.000
G1 X531.526 Y272.191 Z-14.000 F60.000
G2 X535.333 Y262.948 Z-14.000 I-9.192 J-9.192 K0.000 F600.000
G1 X535.333 Y83.052 Z-14.000 F600.000
G2 X523.692 Y70.073 Z-14.000 I-13.002 J-0.049 K0.000 F600.000
G2 X509.333 Y83.052 Z-14.000 I-1.358 J12.930 K0.000 F600.000
G1 X509.333 Y262.948 Z-14.000 F600.000
G2 X531.526 Y272.191 Z-14.000 I13.000 J0.050 K0.000 F600.000
G1 X531.526 Y272.191 Z-16.000 F60.000
G2 X535.333 Y262.948 Z-16.000 I-9.192 J-9.192 K0.000 F600.000
G1 X535.333 Y176.440 Z-16.000 F600.000
G1 X535.333 Y174.440 Z-14.000 F330.000
G1 X535.333 Y171.560 Z-14.000 F600.000
G1 X535.333 Y169.560 Z-16.000 F330.000
G1 X535.333 Y83.052 Z-16.000 F600.000
G2 X523.692 Y70.073 Z-16.000 I-13.002 J-0.049 K0.000 F600.000
G2 X509.333 Y83.052 Z-16.000 I-1.358 J12.930 K0.000 F600.000
G1 X509.333 Y169.560 Z-16.000 F600.000
G1 X509.333 Y171.560 Z-14.000 F330.000
G1 X509.333 Y174.440 Z-14.000 F600.000
G1 X509.333 Y176.440 Z-16.000 F330.000
G1 X509.333 Y262.948 Z-16.000 F600.000
G2 X531.526 Y272.191 Z-16.000 I13.000 J0.050 K0.000 F600.000
G1 X531.526 Y272.191 Z-18.000 F60.000
G2 X535.333 Y262.948 Z-18.000 I-9.192 J-9.192 K0.000 F600.000
G1 X535.333 Y178.440 Z-18.000 F600.000
G1 X535.333 Y174.440 Z-14.000 F330.000
G1 X535.333 Y171.560 Z-14.000 F600.000
G1 X535.333 Y167.560 Z-18.000 F330.000
G1 X535.333 Y83.052 Z-18.000 F600.000
G2 X523.692 Y70.073 Z-18.000 I-13.002 J-0.049 K0.000 F600.000
G2 X509.333 Y83.052 Z-18.000 I-1.358 J12.930 K0.000 F600.000
G1 X509.333 Y167.560 Z-18.000 F600.000
G1 X509.333 Y171.560 Z-14.000 F330.000
G1 X509.333 Y174.440 Z-14.000 F600.000
G1 X509.333 Y178.440 Z-18.000 F330.000
G1 X509.333 Y262.948 Z-18.000 F600.000
G2 X531.526 Y272.191 Z-18.000 I13.000 J0.050 K0.000 F600.000
G1 X531.526 Y272.191 Z-20.000 F60.000
G2 X535.333 Y262.948 Z-20.000 I-9.192 J-9.192 K0.000 F600.000
G1 X535.333 Y180.440 Z-20.000 F600.000
G1 X535.333 Y174.440 Z-14.000 F330.000
G1 X535.333 Y171.560 Z-14.000 F600.000
G1 X535.333 Y165.560 Z-20.000 F330.000
G1 X535.333 Y83.052 Z-20.000 F600.000
G2 X523.692 Y70.073 Z-20.000 I-13.002 J-0.049 K0.000 F600.000
G2 X509.333 Y83.052 Z-20.000 I-1.358 J12.930 K0.000 F600.000
G1 X509.333 Y165.560 Z-20.000 F600.000
G1 X509.333 Y171.560 Z-14.000 F330.000
G1 X509.333 Y174.440 Z-14.000 F600.000
G1 X509.333 Y180.440 Z-20.000 F330.000
G1 X509.333 Y262.948 Z-20.000 F600.000
G2 X531.526 Y272.191 Z-20.000 I13.000 J0.050 K0.000 F600.000
G0 X531.526 Y272.191 Z5.000
(Begin operation: slot_005)
G0 Z5.000
G0 X669.192 Y272.191 Z5.000
G0 X669.192 Y272.191 Z3.000
G1 X669.192 Y272.191 Z-2.000 F60.000
G2 X673.000 Y262.949 Z-2.000 I-9.192 J-9.192 K0.000 F600.000
G1 X673.000 Y83.052 Z-2.000 F600.000
G2 X662.257 Y70.199 Z-2.000 I-13.002 J-0.049 K0.000 F600.000
G2 X647.000 Y83.052 Z-2.000 I-2.256 J12.803 K0.000 F600.000
G1 X647.000 Y262.949 Z-2.000 F600.000
G2 X669.192 Y272.191 Z-2.000 I13.000 J0.049 K0.000 F600.000
G1 X669.192 Y272.191 Z-4.000 F60.000
G2 X673.000 Y262.949 Z-4.000 I-9.192 J-9.192 K0.000 F600.000
G1 X673.000 Y83.052 Z-4.000 F600.000
G2 X662.257 Y70.199 Z-4.000 I-13.002 J-0.049 K0.000 F600.000
G2 X647.000 Y83.052 Z-4.000 I-2.256 J12.803 K0.000 F600.000
G1 X647.000 Y262.949 Z-4.000 F600.000
G2 X669.192 Y272.191 Z-4.000 I13.000 J0.049 K0.000 F600.000
G1 X669.192 Y272.191 Z-6.000 F60.000
G2 X673.000 Y262.949 Z-6.000 I-9.192 J-9.192 K0.000 F600.000
G1 X673.000 Y83.052 Z-6.000 F600.000
G2 X662.257 Y70.199 Z-6.000 I-13.002 J-0.049 K0.000 F600.000
G2 X647.000 Y83.052 Z-6.000 I-2.256 J12.803 K0.000 F600.000
G1 X647.000 Y262.949 Z-6.000 F600.000
G2 X669.192 Y272.191 Z-6.000 I13.000 J0.049 K0.000 F600.000
G1 X669.192 Y272.191 Z-8.000 F60.000
G2 X673.000 Y262.949 Z-8.000 I-9.192 J-9.192 K0.000 F600.000
G1 X673.000 Y83.052 Z-8.000 F600.000
G2 X662.257 Y70.199 Z-8.000 I-13.002 J-0.049 K0.000 F600.000
G2 X647.000 Y83.052 Z-8.000 I-2.256 J12.803 K0.000 F600.000
G1 X647.000 Y262.949 Z-8.000 F600.000
G2 X669.192 Y272.191 Z-8.000 I13.000 J0.049 K0.000 F600.000
G1 X669.192 Y272.191 Z-10.000 F60.000
G2 X673.000 Y262.949 Z-10.000 I-9.192 J-9.192 K0.000 F600.000
G1 X673.000 Y83.052 Z-10.000 F600.000
G2 X662.257 Y70.199 Z-10.000 I-13.002 J-0.049 K0.000 F600.000
G2 X647.000 Y83.052 Z-10.000 I-2.256 J12.803 K0.000 F600.000
G1 X647.000 Y262.949 Z-10.000 F600.000
G2 X669.192 Y272.191 Z-10.000 I13.000 J0.049 K0.000 F600.000
G1 X669.192 Y272.191 Z-12.000 F60.000
G2 X673.000 Y262.949 Z-12.000 I-9.192 J-9.192 K0.000 F600.000
G1 X673.000 Y83.052 Z-12.000 F600.000
G2 X662.257 Y70.199 Z-12.000 I-13.002 J-0.049 K0.000 F600.000
G2 X647.000 Y83.052 Z-12.000 I-2.256 J12.803 K0.000 F600.000
G1 X647.000 Y262.949 Z-12.000 F600.000
G2 X669.192 Y272.191 Z-12.000 I13.000 J0.049 K0.000 F600.000
G1 X669.192 Y272.191 Z-14.000 F60.000
G2 X673.000 Y262.949 Z-14.000 I-9.192 J-9.192 K0.000 F600.000
G1 X673.000 Y83.052 Z-14.000 F600.000
G2 X662.257 Y70.199 Z-14.000 I-13.002 J-0.049 K0.000 F600.000
G2 X647.000 Y83.052 Z-14.000 I-2.256 J12.803 K0.000 F600.000
G1 X647.000 Y262.949 Z-14.000 F600.000
G2 X669.192 Y272.191 Z-14.000 I13.000 J0.049 K0.000 F600.000
G1 X669.192 Y272.191 Z-16.000 F60.000
G2 X673.000 Y262.949 Z-16.000 I-9.192 J-9.192 K0.000 F600.000
G1 X673.000 Y176.441 Z-16.000 F600.000
G1 X673.000 Y174.441 Z-14.000 F330.000
G1 X673.000 Y171.561 Z-14.000 F600.000
G1 X673.000 Y169.561 Z-16.000 F330.000
G1 X673.000 Y83.052 Z-16.000 F600.000
G2 X662.257 Y70.199 Z-16.000 I-13.002 J-0.049 K0.000 F600.000
G2 X647.000 Y83.052 Z-16.000 I-2.256 J12.803 K0.000 F600.000
G1 X647.000 Y169.561 Z-16.000 F600.000
G1 X647.000 Y171.561 Z-14.000 F330.000
G1 X647.000 Y174.441 Z-14.000 F600.000
G1 X647.000 Y176.441 Z-16.000 F330.000
G1 X647.000 Y262.949 Z-16.000 F600.000
G2 X669.192 Y272.191 Z-16.000 I13.000 J0.049 K0.000 F600.000
G1 X669.192 Y272.191 Z-18.000 F60.000
G2 X673.000 Y262.949 Z-18.000 I-9.192 J-9.192 K0.000 F600.000
G1 X673.000 Y178.441 Z-18.000 F600.000
G1 X673.000 Y174.441 Z-14.000 F330.000
G1 X673.000 Y171.561 Z-14.000 F600.000
G1 X673.000 Y167.561 Z-18.000 F330.000
G1 X673.000 Y83.052 Z-18.000 F600.000
G2 X662.257 Y70.199 Z-18.000 I-13.002 J-0.049 K0.000 F600.000
G2 X647.000 Y83.052 Z-18.000 I-2.256 J12.803 K0.000 F600.000
G1 X647.000 Y167.561 Z-18.000 F600.000
G1 X647.000 Y171.561 Z-14.000 F330.000
G1 X647.000 Y174.441 Z-14.000 F600.000
G1 X647.000 Y178.441 Z-18.000 F330.000
G1 X647.000 Y262.949 Z-18.000 F600.000
G2 X669.192 Y272.191 Z-18.000 I13.000 J0.049 K0.000 F600.000
G1 X669.192 Y272.191 Z-20.000 F60.000
G2 X673.000 Y262.949 Z-20.000 I-9.192 J-9.192 K0.000 F600.000
G1 X673.000 Y180.441 Z-20.000 F600.000
G1 X673.000 Y174.441 Z-14.000 F330.000
G1 X673.000 Y171.561 Z-14.000 F600.000
G1 X673.000 Y165.561 Z-20.000 F330.000
G1 X673.000 Y83.052 Z-20.000 F600.000
G2 X662.257 Y70.199 Z-20.000 I-13.002 J-0.049 K0.000 F600.000
G2 X647.000 Y83.052 Z-20.000 I-2.256 J12.803 K0.000 F600.000
G1 X647.000 Y165.561 Z-20.000 F600.000
G1 X647.000 Y171.561 Z-14.000 F330.000
G1 X647.000 Y174.441 Z-14.000 F600.000
G1 X647.000 Y180.441 Z-20.000 F330.000
G1 X647.000 Y262.949 Z-20.000 F600.000
G2 X669.192 Y272.191 Z-20.000 I13.000 J0.049 K0.000 F600.000
G0 X669.192 Y272.191 Z5.000
(Begin operation: obrys)
G0 Z5.000
G0 X732.121 Y432.121 Z5.000
G0 X732.121 Y432.121 Z3.000
G1 X732.121 Y432.121 Z-2.000 F60.000
G2 X733.000 Y430.000 Z-2.000 I-2.121 J-2.121 K0.000 F600.000
G1 X733.000 Y46.000 Z-2.000 F600.000
G2 X694.069 Y7.001 Z-2.000 I-39.001 J0.001 K0.000 F600.000
G1 X46.000 Y7.000 Z-2.000 F600.000
G2 X7.001 Y45.931 Z-2.000 I0.001 J39.001 K0.000 F600.000
G1 X7.000 Y430.000 Z-2.000 F600.000
G2 X10.000 Y433.000 Z-2.000 I3.000 J-0.000 K0.000 F600.000
G1 X730.000 Y433.000 Z-2.000 F600.000
G2 X732.121 Y432.121 Z-2.000 I-0.000 J-3.000 K0.000 F600.000
G1 X732.121 Y432.121 Z-4.000 F60.000
G2 X733.000 Y430.000 Z-4.000 I-2.121 J-2.121 K0.000 F600.000
G1 X733.000 Y46.000 Z-4.000 F600.000
G2 X694.069 Y7.001 Z-4.000 I-39.001 J0.001 K0.000 F600.000
G1 X46.000 Y7.000 Z-4.000 F600.000
G2 X7.001 Y45.931 Z-4.000 I0.001 J39.001 K0.000 F600.000
G1 X7.000 Y430.000 Z-4.000 F600.000
G2 X10.000 Y433.000 Z-4.000 I3.000 J-0.000 K0.000 F600.000
G1 X730.000 Y433.000 Z-4.000 F600.000
G2 X732.121 Y432.121 Z-4.000 I-0.000 J-3.000 K0.000 F600.000
G1 X732.121 Y432.121 Z-6.000 F60.000
G2 X733.000 Y430.000 Z-6.000 I-2.121 J-2.121 K0.000 F600.000
G1 X733.000 Y46.000 Z-6.000 F600.000
G2 X694.069 Y7.001 Z-6.000 I-39.001 J0.001 K0.000 F600.000
G1 X46.000 Y7.000 Z-6.000 F600.000
G2 X7.001 Y45.931 Z-6.000 I0.001 J39.001 K0.000 F600.000
G1 X7.000 Y430.000 Z-6.000 F600.000
G2 X10.000 Y433.000 Z-6.000 I3.000 J-0.000 K0.000 F600.000
G1 X730.000 Y433.000 Z-6.000 F600.000
G2 X732.121 Y432.121 Z-6.000 I-0.000 J-3.000 K0.000 F600.000
G1 X732.121 Y432.121 Z-8.000 F60.000
G2 X733.000 Y430.000 Z-8.000 I-2.121 J-2.121 K0.000 F600.000
G1 X733.000 Y46.000 Z-8.000 F600.000
G2 X694.069 Y7.001 Z-8.000 I-39.001 J0.001 K0.000 F600.000
G1 X46.000 Y7.000 Z-8.000 F600.000
G2 X7.001 Y45.931 Z-8.000 I0.001 J39.001 K0.000 F600.000
G1 X7.000 Y430.000 Z-8.000 F600.000
G2 X10.000 Y433.000 Z-8.000 I3.000 J-0.000 K0.000 F600.000
G1 X730.000 Y433.000 Z-8.000 F600.000
G2 X732.121 Y432.121 Z-8.000 I-0.000 J-3.000 K0.000 F600.000
G1 X732.121 Y432.121 Z-10.000 F60.000
G2 X733.000 Y430.000 Z-10.000 I-2.121 J-2.121 K0.000 F600.000
G1 X733.000 Y46.000 Z-10.000 F600.000
G2 X694.069 Y7.001 Z-10.000 I-39.001 J0.001 K0.000 F600.000
G1 X46.000 Y7.000 Z-10.000 F600.000
G2 X7.001 Y45.931 Z-10.000 I0.001 J39.001 K0.000 F600.000
G1 X7.000 Y430.000 Z-10.000 F600.000
G2 X10.000 Y433.000 Z-10.000 I3.000 J-0.000 K0.000 F600.000
G1 X730.000 Y433.000 Z-10.000 F600.000
G2 X732.121 Y432.121 Z-10.000 I-0.000 J-3.000 K0.000 F600.000
G1 X732.121 Y432.121 Z-12.000 F60.000
G2 X733.000 Y430.000 Z-12.000 I-2.121 J-2.121 K0.000 F600.000
G1 X733.000 Y46.000 Z-12.000 F600.000
G2 X694.069 Y7.001 Z-12.000 I-39.001 J0.001 K0.000 F600.000
G1 X46.000 Y7.000 Z-12.000 F600.000
G2 X7.001 Y45.931 Z-12.000 I0.001 J39.001 K0.000 F600.000
G1 X7.000 Y430.000 Z-12.000 F600.000
G2 X10.000 Y433.000 Z-12.000 I3.000 J-0.000 K0.000 F600.000
G1 X730.000 Y433.000 Z-12.000 F600.000
G2 X732.121 Y432.121 Z-12.000 I-0.000 J-3.000 K0.000 F600.000
G1 X732.121 Y432.121 Z-14.000 F60.000
G2 X733.000 Y430.000 Z-14.000 I-2.121 J-2.121 K0.000 F600.000
G1 X733.000 Y46.000 Z-14.000 F600.000
G2 X694.069 Y7.001 Z-14.000 I-39.001 J0.001 K0.000 F600.000
G1 X46.000 Y7.000 Z-14.000 F600.000
G2 X7.001 Y45.931 Z-14.000 I0.001 J39.001 K0.000 F600.000
G1 X7.000 Y430.000 Z-14.000 F600.000
G2 X10.000 Y433.000 Z-14.000 I3.000 J-0.000 K0.000 F600.000
G1 X730.000 Y433.000 Z-14.000 F600.000
G2 X732.121 Y432.121 Z-14.000 I-0.000 J-3.000 K0.000 F600.000
G1 X732.121 Y432.121 Z-16.000 F60.000
G2 X733.000 Y430.000 Z-16.000 I-2.121 J-2.121 K0.000 F600.000
G1 X733.000 Y241.940 Z-16.000 F600.000
G1 X733.000 Y239.940 Z-14.000 F330.000
G1 X733.000 Y236.060 Z-14.000 F600.000
G1 X733.000 Y234.060 Z-16.000 F330.000
G1 X733.000 Y46.000 Z-16.000 F600.000
G2 X694.069 Y7.001 Z-16.000 I-39.001 J0.001 K0.000 F600.000
G1 X535.992 Y7.001 Z-16.000 F600.000
G1 X533.992 Y7.001 Z-14.000 F330.000
G1 X530.112 Y7.001 Z-14.000 F600.000
G1 X528.112 Y7.001 Z-16.000 F330.000
G1 X211.957 Y7.000 Z-16.000 F600.000
G1 X209.957 Y7.000 Z-14.000 F330.000
G1 X206.077 Y7.000 Z-14.000 F600.000
G1 X204.077 Y7.000 Z-16.000 F330.000
G1 X46.000 Y7.000 Z-16.000 F600.000
G2 X7.001 Y45.931 Z-16.000 I0.001 J39.001 K0.000 F600.000
G1 X7.000 Y234.025 Z-16.000 F600.000
G1 X7.000 Y236.025 Z-14.000 F330.000
G1 X7.000 Y239.905 Z-14.000 F600.000
G1 X7.000 Y241.905 Z-16.000 F330.000
G1 X7.000 Y430.000 Z-16.000 F600.000
G2 X10.000 Y433.000 Z-16.000 I3.000 J-0.000 K0.000 F600.000
G1 X186.060 Y433.000 Z-16.000 F600.000
G1 X188.060 Y433.000 Z-14.000 F330.000
G1 X191.940 Y433.000 Z-14.000 F600.000
G1 X193.940 Y433.000 Z-16.000 F330.000
G1 X546.060 Y433.000 Z-16.000 F600.000
G1 X548.060 Y433.000 Z-14.000 F330.000
G1 X551.940 Y433.000 Z-14.000 F600.000
G1 X553.940 Y433.000 Z-16.000 F330.000
G1 X730.000 Y433.000 Z-16.000 F600.000
G2 X732.121 Y432.121 Z-16.000 I-0.000 J-3.000 K0.000 F600.000
G1 X732.121 Y432.121 Z-18.000 F60.000
G2 X733.000 Y430.000 Z-18.000 I-2.121 J-2.121 K0.000 F600.000
G1 X733.000 Y243.940 Z-18.000 F600.000
G1 X733.000 Y239.940 Z-14.000 F330.000
G1 X733.000 Y236.060 Z-14.000 F600.000
G1 X733.000 Y232.060 Z-18.000 F330.000
G1 X733.000 Y46.000 Z-18.000 F600.000
G2 X694.069 Y7.001 Z-18.000 I-39.001 J0.001 K0.000 F600.000
G1 X537.992 Y7.001 Z-18.000 F600.000
G1 X533.992 Y7.001 Z-14.000 F330.000
G1 X530.112 Y7.001 Z-14.000 F600.000
G1 X526.112 Y7.001 Z-18.000 F330.000
G1 X213.957 Y7.000 Z-18.000 F600.000
G1 X209.957 Y7.000 Z-14.000 F330.000
G1 X206.077 Y7.000 Z-14.000 F600.000
G1 X202.077 Y7.000 Z-18.000 F330.000
G1 X46.000 Y7.000 Z-18.000 F600.000
G2 X7.001 Y45.931 Z-18.000 I0.001 J39.001 K0.000 F600.000
G1 X7.000 Y232.025 Z-18.000 F600.000
G1 X7.000 Y236.025 Z-14.000 F330.000
G1 X7.000 Y239.905 Z-14.000 F600.000
G1 X7.000 Y243.905 Z-18.000 F330.000
G1 X7.000 Y430.000 Z-18.000 F600.000
G2 X10.000 Y433.000 Z-18.000 I3.000 J-0.000 K0.000 F600.000
G1 X184.060 Y433.000 Z-18.000 F600.000
G1 X188.060 Y433.000 Z-14.000 F330.000
G1 X191.940 Y433.000 Z-14.000 F600.000
G1 X195.940 Y433.000 Z-18.000 F330.000
G1 X544.060 Y433.000 Z-18.000 F600.000
G1 X548.060 Y433.000 Z-14.000 F330.000
G1 X551.940 Y433.000 Z-14.000 F600.000
G1 X555.940 Y433.000 Z-18.000 F330.000
G1 X730.000 Y433.000 Z-18.000 F600.000
G2 X732.121 Y432.121 Z-18.000 I-0.000 J-3.000 K0.000 F600.000
G1 X732.121 Y432.121 Z-20.000 F60.000
G2 X733.000 Y430.000 Z-20.000 I-2.121 J-2.121 K0.000 F600.000
G1 X733.000 Y245.940 Z-20.000 F600.000
G1 X733.000 Y239.940 Z-14.000 F330.000
G1 X733.000 Y236.060 Z-14.000 F600.000
G1 X733.000 Y230.060 Z-20.000 F330.000
G1 X733.000 Y46.000 Z-20.000 F600.000
G2 X694.069 Y7.001 Z-20.000 I-39.001 J0.001 K0.000 F600.000
G1 X539.992 Y7.001 Z-20.000 F600.000
G1 X533.992 Y7.001 Z-14.000 F330.000
G1 X530.112 Y7.001 Z-14.000 F600.000
G1 X524.112 Y7.001 Z-20.000 F330.000
G1 X215.957 Y7.000 Z-20.000 F600.000
G1 X209.957 Y7.000 Z-14.000 F330.000
G1 X206.077 Y7.000 Z-14.000 F600.000
G1 X200.077 Y7.000 Z-20.000 F330.000
G1 X46.000 Y7.000 Z-20.000 F600.000
G2 X7.001 Y45.931 Z-20.000 I0.001 J39.001 K0.000 F600.000
G1 X7.000 Y230.025 Z-20.000 F600.000
G1 X7.000 Y236.025 Z-14.000 F330.000
G1 X7.000 Y239.905 Z-14.000 F600.000
G1 X7.000 Y245.905 Z-20.000 F330.000
G1 X7.000 Y430.000 Z-20.000 F600.000
G2 X10.000 Y433.000 Z-20.000 I3.000 J-0.000 K0.000 F600.000
G1 X182.060 Y433.000 Z-20.000 F600.000
G1 X188.060 Y433.000 Z-14.000 F330.000
G1 X191.940 Y433.000 Z-14.000 F600.000
G1 X197.940 Y433.000 Z-20.000 F330.000
G1 X542.060 Y433.000 Z-20.000 F600.000
G1 X548.060 Y433.000 Z-14.000 F330.000
G1 X551.940 Y433.000 Z-14.000 F600.000
G1 X557.940 Y433.000 Z-20.000 F330.000
G1 X730.000 Y433.000 Z-20.000 F600.000
G2 X732.121 Y432.121 Z-20.000 I-0.000 J-3.000 K0.000 F600.000
G0 X732.121 Y432.121 Z5.000
(Begin postamble)
M5
