(Exported by FreeCAD)
(Post Processor: marlin_post.py, version: 2020-11-03)
(Output Time:2023-11-10 15:59:17.863171)
(Begin preamble)
(Default Configuration)
G90
G21
G17
(Begin operation: TC: 6 mm endmill, D=6, H=45, L=80, S=6)
(TC: 6 mm endmill, D=6, H=45, L=80, S=6)
(Begin toolchange)
(M6 T17.0)
(Begin operation: Fixture)
G54
(Begin operation: DressupTag)
G0 Z5.000
G0 X344.348 Y71.848 Z5.000
G0 X344.348 Y71.848 Z3.000
G1 X344.348 Y71.848 Z-2.000 F60.000
G2 X350.498 Y57.098 Z-2.000 I-14.850 J-14.849 K0.000 F600.000
G1 X350.500 Y10.000 Z-2.000 F600.000
G2 X347.500 Y7.000 Z-2.000 I-3.000 J0.000 K0.000 F600.000
G1 X10.000 Y7.000 Z-2.000 F600.000
G2 X7.000 Y10.000 Z-2.000 I0.000 J3.000 K0.000 F600.000
G1 X7.000 Y57.000 Z-2.000 F600.000
G2 X27.902 Y77.998 Z-2.000 I21.001 J-0.002 K0.000 F600.000
G1 X329.500 Y78.000 Z-2.000 F600.000
G2 X344.348 Y71.848 Z-2.000 I-0.002 J-21.001 K0.000 F600.000
G1 X344.348 Y71.848 Z-4.000 F60.000
G2 X350.498 Y57.098 Z-4.000 I-14.850 J-14.849 K0.000 F600.000
G1 X350.500 Y10.000 Z-4.000 F600.000
G2 X347.500 Y7.000 Z-4.000 I-3.000 J0.000 K0.000 F600.000
G1 X10.000 Y7.000 Z-4.000 F600.000
G2 X7.000 Y10.000 Z-4.000 I0.000 J3.000 K0.000 F600.000
G1 X7.000 Y57.000 Z-4.000 F600.000
G2 X27.902 Y77.998 Z-4.000 I21.001 J-0.002 K0.000 F600.000
G1 X329.500 Y78.000 Z-4.000 F600.000
G2 X344.348 Y71.848 Z-4.000 I-0.002 J-21.001 K0.000 F600.000
G1 X344.348 Y71.848 Z-6.000 F60.000
G2 X350.498 Y57.098 Z-6.000 I-14.850 J-14.849 K0.000 F600.000
G1 X350.500 Y10.000 Z-6.000 F600.000
G2 X347.500 Y7.000 Z-6.000 I-3.000 J0.000 K0.000 F600.000
G1 X10.000 Y7.000 Z-6.000 F600.000
G2 X7.000 Y10.000 Z-6.000 I0.000 J3.000 K0.000 F600.000
G1 X7.000 Y57.000 Z-6.000 F600.000
G2 X27.902 Y77.998 Z-6.000 I21.001 J-0.002 K0.000 F600.000
G1 X329.500 Y78.000 Z-6.000 F600.000
G2 X344.348 Y71.848 Z-6.000 I-0.002 J-21.001 K0.000 F600.000
G1 X344.348 Y71.848 Z-8.000 F60.000
G2 X350.498 Y57.098 Z-8.000 I-14.850 J-14.849 K0.000 F600.000
G1 X350.500 Y10.000 Z-8.000 F600.000
G2 X347.500 Y7.000 Z-8.000 I-3.000 J0.000 K0.000 F600.000
G1 X10.000 Y7.000 Z-8.000 F600.000
G2 X7.000 Y10.000 Z-8.000 I0.000 J3.000 K0.000 F600.000
G1 X7.000 Y57.000 Z-8.000 F600.000
G2 X27.902 Y77.998 Z-8.000 I21.001 J-0.002 K0.000 F600.000
G1 X329.500 Y78.000 Z-8.000 F600.000
G2 X344.348 Y71.848 Z-8.000 I-0.002 J-21.001 K0.000 F600.000
G1 X344.348 Y71.848 Z-10.000 F60.000
G2 X350.498 Y57.098 Z-10.000 I-14.850 J-14.849 K0.000 F600.000
G1 X350.500 Y10.000 Z-10.000 F600.000
G2 X347.500 Y7.000 Z-10.000 I-3.000 J0.000 K0.000 F600.000
G1 X10.000 Y7.000 Z-10.000 F600.000
G2 X7.000 Y10.000 Z-10.000 I0.000 J3.000 K0.000 F600.000
G1 X7.000 Y57.000 Z-10.000 F600.000
G2 X27.902 Y77.998 Z-10.000 I21.001 J-0.002 K0.000 F600.000
G1 X329.500 Y78.000 Z-10.000 F600.000
G2 X344.348 Y71.848 Z-10.000 I-0.002 J-21.001 K0.000 F600.000
G1 X344.348 Y71.848 Z-12.000 F60.000
G2 X350.498 Y57.098 Z-12.000 I-14.850 J-14.849 K0.000 F600.000
G1 X350.500 Y10.000 Z-12.000 F600.000
G2 X347.500 Y7.000 Z-12.000 I-3.000 J0.000 K0.000 F600.000
G1 X10.000 Y7.000 Z-12.000 F600.000
G2 X7.000 Y10.000 Z-12.000 I0.000 J3.000 K0.000 F600.000
G1 X7.000 Y57.000 Z-12.000 F600.000
G2 X27.902 Y77.998 Z-12.000 I21.001 J-0.002 K0.000 F600.000
G1 X329.500 Y78.000 Z-12.000 F600.000
G2 X344.348 Y71.848 Z-12.000 I-0.002 J-21.001 K0.000 F600.000
G1 X344.348 Y71.848 Z-14.000 F60.000
G2 X350.498 Y57.098 Z-14.000 I-14.850 J-14.849 K0.000 F600.000
G1 X350.500 Y10.000 Z-14.000 F600.000
G2 X347.500 Y7.000 Z-14.000 I-3.000 J0.000 K0.000 F600.000
G1 X10.000 Y7.000 Z-14.000 F600.000
G2 X7.000 Y10.000 Z-14.000 I0.000 J3.000 K0.000 F600.000
G1 X7.000 Y57.000 Z-14.000 F600.000
G2 X27.902 Y77.998 Z-14.000 I21.001 J-0.002 K0.000 F600.000
G1 X329.500 Y78.000 Z-14.000 F600.000
G2 X344.348 Y71.848 Z-14.000 I-0.002 J-21.001 K0.000 F600.000
G1 X344.348 Y71.848 Z-16.000 F60.000
G2 X350.498 Y57.098 Z-16.000 I-14.850 J-14.849 K0.000 F600.000
G1 X350.500 Y10.000 Z-16.000 F600.000
G2 X347.500 Y7.000 Z-16.000 I-3.000 J0.000 K0.000 F600.000
G1 X10.000 Y7.000 Z-16.000 F600.000
G2 X7.000 Y10.000 Z-16.000 I0.000 J3.000 K0.000 F600.000
G1 X7.000 Y57.000 Z-16.000 F600.000
G2 X27.902 Y77.998 Z-16.000 I21.001 J-0.002 K0.000 F600.000
G1 X329.500 Y78.000 Z-16.000 F600.000
G2 X344.348 Y71.848 Z-16.000 I-0.002 J-21.001 K0.000 F600.000
G1 X344.348 Y71.848 Z-18.000 F60.000
G2 X350.498 Y57.098 Z-18.000 I-14.850 J-14.849 K0.000 F600.000
G1 X350.500 Y10.000 Z-18.000 F600.000
G2 X347.500 Y7.000 Z-18.000 I-3.000 J0.000 K0.000 F600.000
G1 X10.000 Y7.000 Z-18.000 F600.000
G2 X7.000 Y10.000 Z-18.000 I0.000 J3.000 K0.000 F600.000
G1 X7.000 Y57.000 Z-18.000 F600.000
G2 X27.902 Y77.998 Z-18.000 I21.001 J-0.002 K0.000 F600.000
G1 X329.500 Y78.000 Z-18.000 F600.000
G2 X344.348 Y71.848 Z-18.000 I-0.002 J-21.001 K0.000 F600.000
G1 X344.348 Y71.848 Z-20.000 F60.000
G2 X350.498 Y57.098 Z-20.000 I-14.850 J-14.849 K0.000 F600.000
G1 X350.500 Y10.000 Z-20.000 F600.000
G2 X347.500 Y7.000 Z-20.000 I-3.000 J0.000 K0.000 F600.000
G1 X10.000 Y7.000 Z-20.000 F600.000
G2 X7.000 Y10.000 Z-20.000 I0.000 J3.000 K0.000 F600.000
G1 X7.000 Y57.000 Z-20.000 F600.000
G2 X27.902 Y77.998 Z-20.000 I21.001 J-0.002 K0.000 F600.000
G1 X329.500 Y78.000 Z-20.000 F600.000
G2 X344.348 Y71.848 Z-20.000 I-0.002 J-21.001 K0.000 F600.000
G1 X344.348 Y71.848 Z-22.000 F60.000
G2 X350.498 Y57.098 Z-22.000 I-14.850 J-14.849 K0.000 F600.000
G1 X350.500 Y10.000 Z-22.000 F600.000
G2 X347.500 Y7.000 Z-22.000 I-3.000 J0.000 K0.000 F600.000
G1 X10.000 Y7.000 Z-22.000 F600.000
G2 X7.000 Y10.000 Z-22.000 I0.000 J3.000 K0.000 F600.000
G1 X7.000 Y57.000 Z-22.000 F600.000
G2 X27.902 Y77.998 Z-22.000 I21.001 J-0.002 K0.000 F600.000
G1 X329.500 Y78.000 Z-22.000 F600.000
G2 X344.348 Y71.848 Z-22.000 I-0.002 J-21.001 K0.000 F600.000
G1 X344.348 Y71.848 Z-24.000 F60.000
G2 X350.498 Y57.098 Z-24.000 I-14.850 J-14.849 K0.000 F600.000
G1 X350.500 Y10.000 Z-24.000 F600.000
G2 X347.500 Y7.000 Z-24.000 I-3.000 J0.000 K0.000 F600.000
G1 X10.000 Y7.000 Z-24.000 F600.000
G2 X7.000 Y10.000 Z-24.000 I0.000 J3.000 K0.000 F600.000
G1 X7.000 Y57.000 Z-24.000 F600.000
G2 X27.902 Y77.998 Z-24.000 I21.001 J-0.002 K0.000 F600.000
G1 X329.500 Y78.000 Z-24.000 F600.000
G2 X344.348 Y71.848 Z-24.000 I-0.002 J-21.001 K0.000 F600.000
G1 X344.348 Y71.848 Z-26.000 F60.000
G2 X350.498 Y57.098 Z-26.000 I-14.850 J-14.849 K0.000 F600.000
G1 X350.500 Y10.000 Z-26.000 F600.000
G2 X347.500 Y7.000 Z-26.000 I-3.000 J0.000 K0.000 F600.000
G1 X10.000 Y7.000 Z-26.000 F600.000
G2 X7.000 Y10.000 Z-26.000 I0.000 J3.000 K0.000 F600.000
G1 X7.000 Y57.000 Z-26.000 F600.000
G2 X27.902 Y77.998 Z-26.000 I21.001 J-0.002 K0.000 F600.000
G1 X329.500 Y78.000 Z-26.000 F600.000
G2 X344.348 Y71.848 Z-26.000 I-0.002 J-21.001 K0.000 F600.000
G1 X344.348 Y71.848 Z-28.000 F60.000
G2 X350.498 Y57.098 Z-28.000 I-14.850 J-14.849 K0.000 F600.000
G1 X350.500 Y10.000 Z-28.000 F600.000
G2 X347.500 Y7.000 Z-28.000 I-3.000 J0.000 K0.000 F600.000
G1 X267.045 Y7.000 Z-28.000 F600.000
G1 X265.045 Y7.000 Z-26.000 F330.000
G1 X261.205 Y7.000 Z-26.000 F600.000
G1 X259.205 Y7.000 Z-28.000 F330.000
G1 X98.295 Y7.000 Z-28.000 F600.000
G1 X96.295 Y7.000 Z-26.000 F330.000
G1 X92.455 Y7.000 Z-26.000 F600.000
G1 X90.455 Y7.000 Z-28.000 F330.000
G1 X10.000 Y7.000 Z-28.000 F600.000
G2 X7.000 Y10.000 Z-28.000 I0.000 J3.000 K0.000 F600.000
G1 X7.000 Y57.000 Z-28.000 F600.000
G2 X27.902 Y77.998 Z-28.000 I21.001 J-0.002 K0.000 F600.000
G1 X99.381 Y77.999 Z-28.000 F600.000
G1 X101.381 Y77.999 Z-26.000 F330.000
G1 X105.221 Y77.999 Z-26.000 F600.000
G1 X107.221 Y77.999 Z-28.000 F330.000
G1 X250.180 Y78.000 Z-28.000 F600.000
G1 X252.180 Y78.000 Z-26.000 F330.000
G1 X256.020 Y78.000 Z-26.000 F600.000
G1 X258.020 Y78.000 Z-28.000 F330.000
G1 X329.500 Y78.000 Z-28.000 F600.000
G2 X344.348 Y71.848 Z-28.000 I-0.002 J-21.001 K0.000 F600.000
G1 X344.348 Y71.848 Z-30.000 F60.000
G2 X350.498 Y57.098 Z-30.000 I-14.850 J-14.849 K0.000 F600.000
G1 X350.500 Y10.000 Z-30.000 F600.000
G2 X347.500 Y7.000 Z-30.000 I-3.000 J0.000 K0.000 F600.000
G1 X269.045 Y7.000 Z-30.000 F600.000
G1 X265.045 Y7.000 Z-26.000 F330.000
G1 X261.205 Y7.000 Z-26.000 F600.000
G1 X257.205 Y7.000 Z-30.000 F330.000
G1 X100.295 Y7.000 Z-30.000 F600.000
G1 X96.295 Y7.000 Z-26.000 F330.000
G1 X92.455 Y7.000 Z-26.000 F600.000
G1 X88.455 Y7.000 Z-30.000 F330.000
G1 X10.000 Y7.000 Z-30.000 F600.000
G2 X7.000 Y10.000 Z-30.000 I0.000 J3.000 K0.000 F600.000
G1 X7.000 Y57.000 Z-30.000 F600.000
G2 X27.902 Y77.998 Z-30.000 I21.001 J-0.002 K0.000 F600.000
G1 X97.381 Y77.999 Z-30.000 F600.000
G1 X101.381 Y77.999 Z-26.000 F330.000
G1 X105.221 Y77.999 Z-26.000 F600.000
G1 X109.221 Y77.999 Z-30.000 F330.000
G1 X248.180 Y78.000 Z-30.000 F600.000
G1 X252.180 Y78.000 Z-26.000 F330.000
G1 X256.020 Y78.000 Z-26.000 F600.000
G1 X260.020 Y78.000 Z-30.000 F330.000
G1 X329.500 Y78.000 Z-30.000 F600.000
G2 X344.348 Y71.848 Z-30.000 I-0.002 J-21.001 K0.000 F600.000
G1 X344.348 Y71.848 Z-32.000 F60.000
G2 X350.498 Y57.098 Z-32.000 I-14.850 J-14.849 K0.000 F600.000
G1 X350.500 Y10.000 Z-32.000 F600.000
G2 X347.500 Y7.000 Z-32.000 I-3.000 J0.000 K0.000 F600.000
G1 X271.045 Y7.000 Z-32.000 F600.000
G1 X265.045 Y7.000 Z-26.000 F330.000
G1 X261.205 Y7.000 Z-26.000 F600.000
G1 X255.205 Y7.000 Z-32.000 F330.000
G1 X102.295 Y7.000 Z-32.000 F600.000
G1 X96.295 Y7.000 Z-26.000 F330.000
G1 X92.455 Y7.000 Z-26.000 F600.000
G1 X86.455 Y7.000 Z-32.000 F330.000
G1 X10.000 Y7.000 Z-32.000 F600.000
G2 X7.000 Y10.000 Z-32.000 I0.000 J3.000 K0.000 F600.000
G1 X7.000 Y57.000 Z-32.000 F600.000
G2 X27.902 Y77.998 Z-32.000 I21.001 J-0.002 K0.000 F600.000
G1 X95.381 Y77.999 Z-32.000 F600.000
G1 X101.381 Y77.999 Z-26.000 F330.000
G1 X105.221 Y77.999 Z-26.000 F600.000
G1 X111.221 Y77.999 Z-32.000 F330.000
G1 X246.180 Y78.000 Z-32.000 F600.000
G1 X252.180 Y78.000 Z-26.000 F330.000
G1 X256.020 Y78.000 Z-26.000 F600.000
G1 X262.020 Y78.000 Z-32.000 F330.000
G1 X329.500 Y78.000 Z-32.000 F600.000
G2 X344.348 Y71.848 Z-32.000 I-0.002 J-21.001 K0.000 F600.000
G1 X344.348 Y71.848 Z-34.000 F60.000
G2 X350.498 Y57.098 Z-34.000 I-14.850 J-14.849 K0.000 F600.000
G1 X350.500 Y10.000 Z-34.000 F600.000
G2 X347.500 Y7.000 Z-34.000 I-3.000 J0.000 K0.000 F600.000
G1 X273.045 Y7.000 Z-34.000 F600.000
G1 X265.045 Y7.000 Z-26.000 F330.000
G1 X261.205 Y7.000 Z-26.000 F600.000
G1 X253.205 Y7.000 Z-34.000 F330.000
G1 X104.295 Y7.000 Z-34.000 F600.000
G1 X96.295 Y7.000 Z-26.000 F330.000
G1 X92.455 Y7.000 Z-26.000 F600.000
G1 X84.455 Y7.000 Z-34.000 F330.000
G1 X10.000 Y7.000 Z-34.000 F600.000
G2 X7.000 Y10.000 Z-34.000 I0.000 J3.000 K0.000 F600.000
G1 X7.000 Y57.000 Z-34.000 F600.000
G2 X27.902 Y77.998 Z-34.000 I21.001 J-0.002 K0.000 F600.000
G1 X93.381 Y77.999 Z-34.000 F600.000
G1 X101.381 Y77.999 Z-26.000 F330.000
G1 X105.221 Y77.999 Z-26.000 F600.000
G1 X113.221 Y77.999 Z-34.000 F330.000
G1 X244.180 Y78.000 Z-34.000 F600.000
G1 X252.180 Y78.000 Z-26.000 F330.000
G1 X256.020 Y78.000 Z-26.000 F600.000
G1 X264.020 Y78.000 Z-34.000 F330.000
G1 X329.500 Y78.000 Z-34.000 F600.000
G2 X344.348 Y71.848 Z-34.000 I-0.002 J-21.001 K0.000 F600.000
G0 X344.348 Y71.848 Z5.000
(Begin postamble)
M5
