(Exported by FreeCAD)
(Post Processor: marlin_post.py, version: 2020-11-03)
(Output Time:2023-11-11 16:07:14.855962)
(Begin preamble)
(Default Configuration)
G90
G21
G17
(Begin operation: Fixture)
G54
(Begin operation: TC: 6 mm endmill)
(TC: 6 mm endmill)
(Begin toolchange)
(M6 T16.0)
(Begin operation: Pocket_Shape)
(Pocket_Shape)
G0 Z5.000
G0 X26.000 Y86.000
G0 Z3.000
G1 X26.000 Y86.000 Z-2.000 F60.000
G1 X10.037 Y86.000 Z-2.000 F1200.000
G3 X9.000 Y84.922 Z-2.000 I-0.027 J-1.012 K0.000 F1200.000
G3 X9.001 Y9.962 Z-2.000 I82087.998 J-35.962 K0.000 F1200.000
G3 X10.078 Y9.000 Z-2.000 I1.009 J0.047 K0.000 F1200.000
G1 X26.000 Y9.000 Z-2.000 F1200.000
G1 X26.000 Y86.000 Z-2.000 F1200.000
G0 Z5.000
G0 X21.200 Y81.200 Z5.000
G0 X21.200 Y81.200 Z3.000
G1 X21.200 Y81.200 Z-2.000 F60.000
G1 X13.800 Y81.200 Z-2.000 F1200.000
G1 X13.800 Y13.800 Z-2.000 F1200.000
G1 X21.200 Y13.800 Z-2.000 F1200.000
G1 X21.200 Y81.200 Z-2.000 F1200.000
G0 Z5.000
G0 X20.200 Y80.200 Z5.000
G0 X20.200 Y80.200 Z3.000
G1 X20.200 Y80.200 Z-2.000 F60.000
G1 X14.800 Y80.200 Z-2.000 F1200.000
G1 X14.800 Y14.800 Z-2.000 F1200.000
G1 X20.200 Y14.800 Z-2.000 F1200.000
G1 X20.200 Y80.200 Z-2.000 F1200.000
G0 Z5.000
G0 X19.200 Y79.200 Z5.000
G0 X19.200 Y79.200 Z3.000
G1 X19.200 Y79.200 Z-2.000 F60.000
G1 X15.800 Y79.200 Z-2.000 F1200.000
G1 X15.800 Y15.800 Z-2.000 F1200.000
G1 X19.200 Y15.800 Z-2.000 F1200.000
G1 X19.200 Y79.200 Z-2.000 F1200.000
G0 Z5.000
G0 X18.200 Y78.200 Z5.000
G0 X18.200 Y78.200 Z3.000
G1 X18.200 Y78.200 Z-2.000 F60.000
G1 X16.800 Y78.200 Z-2.000 F1200.000
G1 X16.800 Y16.800 Z-2.000 F1200.000
G1 X18.200 Y16.800 Z-2.000 F1200.000
G1 X18.200 Y78.200 Z-2.000 F1200.000
G1 X18.200 Y78.200 Z-4.000 F60.000
G1 X16.800 Y78.200 Z-4.000 F1200.000
G1 X16.800 Y16.800 Z-4.000 F1200.000
G1 X18.200 Y16.800 Z-4.000 F1200.000
G1 X18.200 Y78.200 Z-4.000 F1200.000
G0 Z5.000
G0 X19.200 Z5.000
G0 X19.200 Z3.000
G1 X19.200 Y78.200 Z-4.000 F60.000
G1 X19.200 Y79.200 Z-4.000 F1200.000
G1 X15.800 Y79.200 Z-4.000 F1200.000
G1 X15.800 Y15.800 Z-4.000 F1200.000
G1 X19.200 Y15.800 Z-4.000 F1200.000
G1 X19.200 Y78.200 Z-4.000 F1200.000
G0 Z5.000
G0 X20.200 Z5.000
G0 X20.200 Z3.000
G1 X20.200 Y78.200 Z-4.000 F60.000
G1 X20.200 Y80.200 Z-4.000 F1200.000
G1 X14.800 Y80.200 Z-4.000 F1200.000
G1 X14.800 Y14.800 Z-4.000 F1200.000
G1 X20.200 Y14.800 Z-4.000 F1200.000
G1 X20.200 Y78.200 Z-4.000 F1200.000
G0 Z5.000
G0 X21.200 Z5.000
G0 X21.200 Z3.000
G1 X21.200 Y78.200 Z-4.000 F60.000
G1 X21.200 Y81.200 Z-4.000 F1200.000
G1 X13.800 Y81.200 Z-4.000 F1200.000
G1 X13.800 Y13.800 Z-4.000 F1200.000
G1 X21.200 Y13.800 Z-4.000 F1200.000
G1 X21.200 Y78.200 Z-4.000 F1200.000
G0 Z5.000
G0 X26.000 Z5.000
G0 X26.000 Z3.000
G1 X26.000 Y78.200 Z-4.000 F60.000
G1 X26.000 Y86.000 Z-4.000 F1200.000
G1 X10.037 Y86.000 Z-4.000 F1200.000
G3 X9.000 Y84.922 Z-4.000 I-0.027 J-1.012 K0.000 F1200.000
G3 X9.001 Y9.962 Z-4.000 I82087.998 J-35.962 K0.000 F1200.000
G3 X10.078 Y9.000 Z-4.000 I1.009 J0.047 K0.000 F1200.000
G1 X26.000 Y9.000 Z-4.000 F1200.000
G1 X26.000 Y78.200 Z-4.000 F1200.000
G1 X26.000 Y78.200 Z-6.000 F60.000
G1 X26.000 Y86.000 Z-6.000 F1200.000
G1 X10.037 Y86.000 Z-6.000 F1200.000
G3 X9.000 Y84.922 Z-6.000 I-0.027 J-1.012 K0.000 F1200.000
G3 X9.001 Y9.962 Z-6.000 I82087.998 J-35.962 K0.000 F1200.000
G3 X10.078 Y9.000 Z-6.000 I1.009 J0.047 K0.000 F1200.000
G1 X26.000 Y9.000 Z-6.000 F1200.000
G1 X26.000 Y78.200 Z-6.000 F1200.000
G0 Z5.000
G0 X21.200 Z5.000
G0 X21.200 Z3.000
G1 X21.200 Y78.200 Z-6.000 F60.000
G1 X21.200 Y81.200 Z-6.000 F1200.000
G1 X13.800 Y81.200 Z-6.000 F1200.000
G1 X13.800 Y13.800 Z-6.000 F1200.000
G1 X21.200 Y13.800 Z-6.000 F1200.000
G1 X21.200 Y78.200 Z-6.000 F1200.000
G0 Z5.000
G0 X20.200 Z5.000
G0 X20.200 Z3.000
G1 X20.200 Y78.200 Z-6.000 F60.000
G1 X20.200 Y80.200 Z-6.000 F1200.000
G1 X14.800 Y80.200 Z-6.000 F1200.000
G1 X14.800 Y14.800 Z-6.000 F1200.000
G1 X20.200 Y14.800 Z-6.000 F1200.000
G1 X20.200 Y78.200 Z-6.000 F1200.000
G0 Z5.000
G0 X19.200 Z5.000
G0 X19.200 Z3.000
G1 X19.200 Y78.200 Z-6.000 F60.000
G1 X19.200 Y79.200 Z-6.000 F1200.000
G1 X15.800 Y79.200 Z-6.000 F1200.000
G1 X15.800 Y15.800 Z-6.000 F1200.000
G1 X19.200 Y15.800 Z-6.000 F1200.000
G1 X19.200 Y78.200 Z-6.000 F1200.000
G0 Z5.000
G0 X18.200 Z5.000
G0 X18.200 Z3.000
G1 X18.200 Y78.200 Z-6.000 F60.000
G1 X16.800 Y78.200 Z-6.000 F1200.000
G1 X16.800 Y16.800 Z-6.000 F1200.000
G1 X18.200 Y16.800 Z-6.000 F1200.000
G1 X18.200 Y78.200 Z-6.000 F1200.000
G1 X18.200 Y78.200 Z-6.500 F60.000
G1 X16.800 Y78.200 Z-6.500 F1200.000
G1 X16.800 Y16.800 Z-6.500 F1200.000
G1 X18.200 Y16.800 Z-6.500 F1200.000
G1 X18.200 Y78.200 Z-6.500 F1200.000
G0 Z5.000
G0 X19.200 Z5.000
G0 X19.200 Z3.000
G1 X19.200 Y78.200 Z-6.500 F60.000
G1 X19.200 Y79.200 Z-6.500 F1200.000
G1 X15.800 Y79.200 Z-6.500 F1200.000
G1 X15.800 Y15.800 Z-6.500 F1200.000
G1 X19.200 Y15.800 Z-6.500 F1200.000
G1 X19.200 Y78.200 Z-6.500 F1200.000
G0 Z5.000
G0 X20.200 Z5.000
G0 X20.200 Z3.000
G1 X20.200 Y78.200 Z-6.500 F60.000
G1 X20.200 Y80.200 Z-6.500 F1200.000
G1 X14.800 Y80.200 Z-6.500 F1200.000
G1 X14.800 Y14.800 Z-6.500 F1200.000
G1 X20.200 Y14.800 Z-6.500 F1200.000
G1 X20.200 Y78.200 Z-6.500 F1200.000
G0 Z5.000
G0 X21.200 Z5.000
G0 X21.200 Z3.000
G1 X21.200 Y78.200 Z-6.500 F60.000
G1 X21.200 Y81.200 Z-6.500 F1200.000
G1 X13.800 Y81.200 Z-6.500 F1200.000
G1 X13.800 Y13.800 Z-6.500 F1200.000
G1 X21.200 Y13.800 Z-6.500 F1200.000
G1 X21.200 Y78.200 Z-6.500 F1200.000
G0 Z5.000
G0 X26.000 Z5.000
G0 X26.000 Z3.000
G1 X26.000 Y78.200 Z-6.500 F60.000
G1 X26.000 Y86.000 Z-6.500 F1200.000
G1 X10.037 Y86.000 Z-6.500 F1200.000
G3 X9.000 Y84.922 Z-6.500 I-0.027 J-1.012 K0.000 F1200.000
G3 X9.001 Y9.962 Z-6.500 I82087.998 J-35.962 K0.000 F1200.000
G3 X10.078 Y9.000 Z-6.500 I1.009 J0.047 K0.000 F1200.000
G1 X26.000 Y9.000 Z-6.500 F1200.000
G1 X26.000 Y78.200 Z-6.500 F1200.000
G0 Z5.000
G0 Z5.000
(Begin operation: Pocket_Shape001)
(Pocket_Shape001)
G0 Z5.000
G0 X311.800 Y10.800
G0 Z3.000
G1 X311.800 Y10.800 Z-2.000 F60.000
G1 X8.200 Y10.800 Z-2.000 F1200.000
G3 X8.238 Y9.637 Z-2.000 I4.241 J-0.445 K0.000 F1200.000
G3 X10.024 Y8.200 Z-2.000 I1.772 J0.373 K0.000 F1200.000
G3 X310.073 Y8.203 Z-2.000 I97.539 J5556847.927 K0.000 F1200.000
G1 X310.281 Y8.225 Z-2.000 F1200.000
G3 X311.800 Y10.031 Z-2.000 I-0.280 J1.777 K0.000 F1200.000
G1 X311.800 Y10.800 Z-2.000 F1200.000
G0 Z5.000
G0 X310.631 Y9.700 Z5.000
G0 X310.631 Y9.700 Z3.000
G1 X310.631 Y9.700 Z-2.000 F60.000
G1 X9.370 Y9.700 Z-2.000 F1200.000
G3 X10.043 Y9.300 Z-2.000 I0.634 J0.301 K0.000 F1200.000
G3 X310.109 Y9.313 Z-2.000 I97.490 J1225288.898 K0.000 F1200.000
G3 X310.631 Y9.700 Z-2.000 I-0.097 J0.676 K0.000 F1200.000
G1 X310.631 Y9.700 Z-4.000 F60.000
G1 X9.370 Y9.700 Z-4.000 F1200.000
G3 X10.043 Y9.300 Z-4.000 I0.634 J0.301 K0.000 F1200.000
G3 X310.109 Y9.313 Z-4.000 I97.490 J1225288.898 K0.000 F1200.000
G3 X310.631 Y9.700 Z-4.000 I-0.097 J0.676 K0.000 F1200.000
G0 Z5.000
G0 Y10.800 Z5.000
G0 Y10.800 Z3.000
G1 X310.631 Y10.800 Z-4.000 F60.000
G1 X8.200 Y10.800 Z-4.000 F1200.000
G3 X8.238 Y9.637 Z-4.000 I4.241 J-0.445 K0.000 F1200.000
G3 X10.024 Y8.200 Z-4.000 I1.772 J0.373 K0.000 F1200.000
G3 X310.073 Y8.203 Z-4.000 I97.539 J5556847.927 K0.000 F1200.000
G1 X310.281 Y8.225 Z-4.000 F1200.000
G3 X311.800 Y10.031 Z-4.000 I-0.280 J1.777 K0.000 F1200.000
G1 X311.800 Y10.800 Z-4.000 F1200.000
G1 X310.631 Y10.800 Z-4.000 F1200.000
G1 X310.631 Y10.800 Z-6.000 F60.000
G1 X8.200 Y10.800 Z-6.000 F1200.000
G3 X8.238 Y9.637 Z-6.000 I4.241 J-0.445 K0.000 F1200.000
G3 X10.024 Y8.200 Z-6.000 I1.772 J0.373 K0.000 F1200.000
G3 X310.073 Y8.203 Z-6.000 I97.539 J5556847.927 K0.000 F1200.000
G1 X310.281 Y8.225 Z-6.000 F1200.000
G3 X311.800 Y10.031 Z-6.000 I-0.280 J1.777 K0.000 F1200.000
G1 X311.800 Y10.800 Z-6.000 F1200.000
G1 X310.631 Y10.800 Z-6.000 F1200.000
G0 Z5.000
G0 Y9.700 Z5.000
G0 Y9.700 Z3.000
G1 X310.631 Y9.700 Z-6.000 F60.000
G1 X9.370 Y9.700 Z-6.000 F1200.000
G3 X10.043 Y9.300 Z-6.000 I0.634 J0.301 K0.000 F1200.000
G3 X310.109 Y9.313 Z-6.000 I97.490 J1225288.898 K0.000 F1200.000
G3 X310.631 Y9.700 Z-6.000 I-0.097 J0.676 K0.000 F1200.000
G1 X310.631 Y9.700 Z-6.500 F60.000
G1 X9.370 Y9.700 Z-6.500 F1200.000
G3 X10.043 Y9.300 Z-6.500 I0.634 J0.301 K0.000 F1200.000
G3 X310.109 Y9.313 Z-6.500 I97.490 J1225288.898 K0.000 F1200.000
G3 X310.631 Y9.700 Z-6.500 I-0.097 J0.676 K0.000 F1200.000
G0 Z5.000
G0 Y10.800 Z5.000
G0 Y10.800 Z3.000
G1 X310.631 Y10.800 Z-6.500 F60.000
G1 X8.200 Y10.800 Z-6.500 F1200.000
G3 X8.238 Y9.637 Z-6.500 I4.241 J-0.445 K0.000 F1200.000
G3 X10.024 Y8.200 Z-6.500 I1.772 J0.373 K0.000 F1200.000
G3 X310.073 Y8.203 Z-6.500 I97.539 J5556847.927 K0.000 F1200.000
G1 X310.281 Y8.225 Z-6.500 F1200.000
G3 X311.800 Y10.031 Z-6.500 I-0.280 J1.777 K0.000 F1200.000
G1 X311.800 Y10.800 Z-6.500 F1200.000
G1 X310.631 Y10.800 Z-6.500 F1200.000
G0 Z5.000
G0 Z5.000
(Begin operation: Pocket_Shape002)
(Pocket_Shape002)
G0 Z5.000
G0 X307.600 Y70.600
G0 Z3.000
G1 X307.600 Y70.600 Z-2.000 F60.000
G1 X12.400 Y70.600 Z-2.000 F1200.000
G1 X12.400 Y69.400 Z-2.000 F1200.000
G1 X88.000 Y69.400 Z-2.000 F1200.000
G2 X90.400 Y67.000 Z-2.000 I0.000 J-2.400 K0.000 F1200.000
G1 X90.400 Y9.400 Z-2.000 F1200.000
G1 X97.600 Y9.400 Z-2.000 F1200.000
G1 X97.600 Y67.000 Z-2.000 F1200.000
G2 X100.000 Y69.400 Z-2.000 I2.400 J0.000 K0.000 F1200.000
G1 X307.600 Y69.400 Z-2.000 F1200.000
G1 X307.600 Y70.600 Z-2.000 F1200.000
G0 Z5.000
G0 X97.317 Y69.400 Z5.000
G0 X97.317 Y69.400 Z3.000
G1 X97.317 Y69.400 Z-2.000 F60.000
G1 X90.673 Y69.400 Z-2.000 F1200.000
G2 X91.600 Y67.000 Z-2.000 I-2.613 J-2.388 K0.000 F1200.000
G1 X91.600 Y10.600 Z-2.000 F1200.000
G1 X96.400 Y10.600 Z-2.000 F1200.000
G1 X96.400 Y67.000 Z-2.000 F1200.000
G2 X97.317 Y69.400 Z-2.000 I3.598 J0.000 K0.000 F1200.000
G0 Z5.000
G0 X95.354 Y68.200 Z5.000
G0 X95.354 Y68.200 Z3.000
G1 X95.354 Y68.200 Z-2.000 F60.000
G1 X92.639 Y68.200 Z-2.000 F1200.000
G2 X92.800 Y67.000 Z-2.000 I-4.050 J-1.153 K0.000 F1200.000
G1 X92.800 Y11.800 Z-2.000 F1200.000
G1 X95.200 Y11.800 Z-2.000 F1200.000
G1 X95.200 Y67.000 Z-2.000 F1200.000
G2 X95.354 Y68.200 Z-2.000 I4.730 J0.004 K0.000 F1200.000
G1 X95.354 Y68.200 Z-4.000 F60.000
G1 X92.639 Y68.200 Z-4.000 F1200.000
G2 X92.800 Y67.000 Z-4.000 I-4.050 J-1.153 K0.000 F1200.000
G1 X92.800 Y11.800 Z-4.000 F1200.000
G1 X95.200 Y11.800 Z-4.000 F1200.000
G1 X95.200 Y67.000 Z-4.000 F1200.000
G2 X95.354 Y68.200 Z-4.000 I4.730 J0.004 K0.000 F1200.000
G0 Z5.000
G0 X96.514 Y67.900 Z5.000
G0 X96.514 Y67.900 Z3.000
G1 X96.514 Y67.900 Z-4.000 F60.000
G2 X97.317 Y69.400 Z-4.000 I3.484 J-0.900 K0.000 F1200.000
G1 X90.673 Y69.400 Z-4.000 F1200.000
G2 X91.600 Y67.000 Z-4.000 I-2.613 J-2.388 K0.000 F1200.000
G1 X91.600 Y10.600 Z-4.000 F1200.000
G1 X96.400 Y10.600 Z-4.000 F1200.000
G1 X96.400 Y67.000 Z-4.000 F1200.000
G2 X96.514 Y67.900 Z-4.000 I3.598 J0.000 K0.000 F1200.000
G0 Z5.000
G0 X97.676 Y67.600 Z5.000
G0 X97.676 Y67.600 Z3.000
G1 X97.676 Y67.600 Z-4.000 F60.000
G2 X100.000 Y69.400 Z-4.000 I2.324 J-0.600 K0.000 F1200.000
G1 X307.600 Y69.400 Z-4.000 F1200.000
G1 X307.600 Y70.600 Z-4.000 F1200.000
G1 X12.400 Y70.600 Z-4.000 F1200.000
G1 X12.400 Y69.400 Z-4.000 F1200.000
G1 X88.000 Y69.400 Z-4.000 F1200.000
G2 X90.400 Y67.000 Z-4.000 I0.000 J-2.400 K0.000 F1200.000
G1 X90.400 Y9.400 Z-4.000 F1200.000
G1 X97.600 Y9.400 Z-4.000 F1200.000
G1 X97.600 Y67.000 Z-4.000 F1200.000
G2 X97.676 Y67.600 Z-4.000 I2.400 J0.000 K0.000 F1200.000
G1 X97.676 Y67.600 Z-6.000 F60.000
G2 X100.000 Y69.400 Z-6.000 I2.324 J-0.600 K0.000 F1200.000
G1 X307.600 Y69.400 Z-6.000 F1200.000
G1 X307.600 Y70.600 Z-6.000 F1200.000
G1 X12.400 Y70.600 Z-6.000 F1200.000
G1 X12.400 Y69.400 Z-6.000 F1200.000
G1 X88.000 Y69.400 Z-6.000 F1200.000
G2 X90.400 Y67.000 Z-6.000 I0.000 J-2.400 K0.000 F1200.000
G1 X90.400 Y9.400 Z-6.000 F1200.000
G1 X97.600 Y9.400 Z-6.000 F1200.000
G1 X97.600 Y67.000 Z-6.000 F1200.000
G2 X97.676 Y67.600 Z-6.000 I2.400 J0.000 K0.000 F1200.000
G0 Z5.000
G0 X96.514 Y67.900 Z5.000
G0 X96.514 Y67.900 Z3.000
G1 X96.514 Y67.900 Z-6.000 F60.000
G2 X97.317 Y69.400 Z-6.000 I3.484 J-0.900 K0.000 F1200.000
G1 X90.673 Y69.400 Z-6.000 F1200.000
G2 X91.600 Y67.000 Z-6.000 I-2.613 J-2.388 K0.000 F1200.000
G1 X91.600 Y10.600 Z-6.000 F1200.000
G1 X96.400 Y10.600 Z-6.000 F1200.000
G1 X96.400 Y67.000 Z-6.000 F1200.000
G2 X96.514 Y67.900 Z-6.000 I3.598 J0.000 K0.000 F1200.000
G0 Z5.000
G0 X95.354 Y68.200 Z5.000
G0 X95.354 Y68.200 Z3.000
G1 X95.354 Y68.200 Z-6.000 F60.000
G1 X92.639 Y68.200 Z-6.000 F1200.000
G2 X92.800 Y67.000 Z-6.000 I-4.050 J-1.153 K0.000 F1200.000
G1 X92.800 Y11.800 Z-6.000 F1200.000
G1 X95.200 Y11.800 Z-6.000 F1200.000
G1 X95.200 Y67.000 Z-6.000 F1200.000
G2 X95.354 Y68.200 Z-6.000 I4.730 J0.004 K0.000 F1200.000
G1 X95.354 Y68.200 Z-6.500 F60.000
G1 X92.639 Y68.200 Z-6.500 F1200.000
G2 X92.800 Y67.000 Z-6.500 I-4.050 J-1.153 K0.000 F1200.000
G1 X92.800 Y11.800 Z-6.500 F1200.000
G1 X95.200 Y11.800 Z-6.500 F1200.000
G1 X95.200 Y67.000 Z-6.500 F1200.000
G2 X95.354 Y68.200 Z-6.500 I4.730 J0.004 K0.000 F1200.000
G0 Z5.000
G0 X96.514 Y67.900 Z5.000
G0 X96.514 Y67.900 Z3.000
G1 X96.514 Y67.900 Z-6.500 F60.000
G2 X97.317 Y69.400 Z-6.500 I3.484 J-0.900 K0.000 F1200.000
G1 X90.673 Y69.400 Z-6.500 F1200.000
G2 X91.600 Y67.000 Z-6.500 I-2.613 J-2.388 K0.000 F1200.000
G1 X91.600 Y10.600 Z-6.500 F1200.000
G1 X96.400 Y10.600 Z-6.500 F1200.000
G1 X96.400 Y67.000 Z-6.500 F1200.000
G2 X96.514 Y67.900 Z-6.500 I3.598 J0.000 K0.000 F1200.000
G0 Z5.000
G0 X97.676 Y67.600 Z5.000
G0 X97.676 Y67.600 Z3.000
G1 X97.676 Y67.600 Z-6.500 F60.000
G2 X100.000 Y69.400 Z-6.500 I2.324 J-0.600 K0.000 F1200.000
G1 X307.600 Y69.400 Z-6.500 F1200.000
G1 X307.600 Y70.600 Z-6.500 F1200.000
G1 X12.400 Y70.600 Z-6.500 F1200.000
G1 X12.400 Y69.400 Z-6.500 F1200.000
G1 X88.000 Y69.400 Z-6.500 F1200.000
G2 X90.400 Y67.000 Z-6.500 I0.000 J-2.400 K0.000 F1200.000
G1 X90.400 Y9.400 Z-6.500 F1200.000
G1 X97.600 Y9.400 Z-6.500 F1200.000
G1 X97.600 Y67.000 Z-6.500 F1200.000
G2 X97.676 Y67.600 Z-6.500 I2.400 J0.000 K0.000 F1200.000
G0 Z5.000
G0 Z5.000
(Begin operation: DressupTag)
G0 Z5.000
G0 X73.556 Y57.056 Z5.000
G0 X73.556 Y57.056 Z3.000
G1 X73.556 Y57.056 Z-2.000 F60.000
G2 X60.659 Y19.662 Z-2.000 I-15.556 J-15.556 K0.000 F1200.000
G2 X36.161 Y38.854 Z-2.000 I-2.659 J21.838 K0.000 F1200.000
G2 X55.367 Y63.341 Z-2.000 I21.839 J2.646 K0.000 F1200.000
G2 X73.556 Y57.056 Z-2.000 I2.633 J-21.841 K0.000 F1200.000
G1 X73.556 Y57.056 Z-4.000 F60.000
G2 X60.659 Y19.662 Z-4.000 I-15.556 J-15.556 K0.000 F1200.000
G2 X36.161 Y38.854 Z-4.000 I-2.659 J21.838 K0.000 F1200.000
G2 X55.367 Y63.341 Z-4.000 I21.839 J2.646 K0.000 F1200.000
G2 X73.556 Y57.056 Z-4.000 I2.633 J-21.841 K0.000 F1200.000
G1 X73.556 Y57.056 Z-6.000 F60.000
G2 X60.659 Y19.662 Z-6.000 I-15.556 J-15.556 K0.000 F1200.000
G2 X36.161 Y38.854 Z-6.000 I-2.659 J21.838 K0.000 F1200.000
G2 X55.367 Y63.341 Z-6.000 I21.839 J2.646 K0.000 F1200.000
G2 X73.556 Y57.056 Z-6.000 I2.633 J-21.841 K0.000 F1200.000
G1 X73.556 Y57.056 Z-8.000 F60.000
G2 X60.659 Y19.662 Z-8.000 I-15.556 J-15.556 K0.000 F1200.000
G2 X36.161 Y38.854 Z-8.000 I-2.659 J21.838 K0.000 F1200.000
G2 X55.367 Y63.341 Z-8.000 I21.839 J2.646 K0.000 F1200.000
G2 X73.556 Y57.056 Z-8.000 I2.633 J-21.841 K0.000 F1200.000
G1 X73.556 Y57.056 Z-10.000 F60.000
G2 X60.659 Y19.662 Z-10.000 I-15.556 J-15.556 K0.000 F1200.000
G2 X36.161 Y38.854 Z-10.000 I-2.659 J21.838 K0.000 F1200.000
G2 X55.367 Y63.341 Z-10.000 I21.839 J2.646 K0.000 F1200.000
G2 X73.556 Y57.056 Z-10.000 I2.633 J-21.841 K0.000 F1200.000
G1 X73.556 Y57.056 Z-12.000 F60.000
G2 X60.659 Y19.662 Z-12.000 I-15.556 J-15.556 K0.000 F1200.000
G2 X36.161 Y38.854 Z-12.000 I-2.659 J21.838 K0.000 F1200.000
G2 X55.367 Y63.341 Z-12.000 I21.839 J2.646 K0.000 F1200.000
G2 X73.556 Y57.056 Z-12.000 I2.633 J-21.841 K0.000 F1200.000
G1 X73.556 Y57.056 Z-14.000 F60.000
G2 X60.659 Y19.662 Z-14.000 I-15.556 J-15.556 K0.000 F1200.000
G2 X36.161 Y38.854 Z-14.000 I-2.659 J21.838 K0.000 F1200.000
G2 X55.367 Y63.341 Z-14.000 I21.839 J2.646 K0.000 F1200.000
G2 X73.556 Y57.056 Z-14.000 I2.633 J-21.841 K0.000 F1200.000
G1 X73.556 Y57.056 Z-16.000 F60.000
G2 X79.348 Y36.188 Z-16.000 I-15.556 J-15.556 K0.000 F1200.000
G1 X79.092 Y35.249 Z-15.018 F626.565
G1 X78.949 Y34.787 Z-14.529 F626.433
G1 X78.875 Y34.558 Z-14.286 F626.400
G1 X78.836 Y34.442 Z-14.163 F626.392
G1 X78.817 Y34.385 Z-14.102 F626.390
G1 X78.807 Y34.358 Z-14.074 F626.390
G1 X78.797 Y34.328 Z-14.041 F626.389
G1 X78.356 Y33.158 Z-15.303 F626.389
G1 X78.084 Y32.523 Z-16.000 F626.617
G2 X60.659 Y19.662 Z-16.000 I-20.084 J8.977 K0.000 F1200.000
G2 X36.161 Y38.854 Z-16.000 I-2.659 J21.838 K0.000 F1200.000
G2 X39.562 Y53.499 Z-16.000 I21.839 J2.646 K0.000 F1200.000
G1 X40.110 Y54.302 Z-15.018 F626.565
G1 X40.396 Y54.693 Z-14.529 F626.433
G1 X40.542 Y54.885 Z-14.286 F626.400
G1 X40.616 Y54.981 Z-14.163 F626.392
G1 X40.653 Y55.029 Z-14.102 F626.390
G1 X40.670 Y55.051 Z-14.074 F626.390
G1 X40.691 Y55.077 Z-14.041 F626.389
G1 X41.490 Y56.038 Z-15.303 F626.389
G1 X41.954 Y56.549 Z-16.000 F626.617
G2 X55.367 Y63.341 Z-16.000 I16.046 J-15.049 K0.000 F1200.000
G2 X73.556 Y57.056 Z-16.000 I2.633 J-21.841 K0.000 F1200.000
G1 X73.556 Y57.056 Z-18.000 F60.000
G2 X79.740 Y38.133 Z-18.000 I-15.556 J-15.556 K0.000 F1200.000
G1 X79.567 Y37.163 Z-17.008 F627.472
G1 X79.352 Y36.205 Z-16.018 F626.929
G1 X79.095 Y35.258 Z-15.027 F626.569
G1 X78.951 Y34.791 Z-14.534 F626.434
G1 X78.874 Y34.557 Z-14.285 F626.400
G1 X78.836 Y34.443 Z-14.163 F626.392
G1 X78.816 Y34.384 Z-14.101 F626.390
G1 X78.807 Y34.357 Z-14.072 F626.390
G1 X78.797 Y34.328 Z-14.041 F626.389
G1 X78.276 Y32.965 Z-15.513 F626.389
G1 X77.752 Y31.814 Z-16.790 F626.762
G1 X77.193 Y30.750 Z-18.000 F627.393
G2 X60.659 Y19.662 Z-18.000 I-19.193 J10.750 K0.000 F1200.000
G2 X36.161 Y38.854 Z-18.000 I-2.659 J21.838 K0.000 F1200.000
G2 X38.556 Y51.789 Z-18.000 I21.839 J2.646 K0.000 F1200.000
G1 X39.036 Y52.649 Z-17.008 F627.472
G1 X39.552 Y53.484 Z-16.018 F626.929
G1 X40.105 Y54.295 Z-15.027 F626.569
G1 X40.394 Y54.690 Z-14.534 F626.434
G1 X40.542 Y54.886 Z-14.285 F626.400
G1 X40.616 Y54.981 Z-14.163 F626.392
G1 X40.654 Y55.030 Z-14.101 F626.390
G1 X40.672 Y55.053 Z-14.072 F626.390
G1 X40.691 Y55.077 Z-14.041 F626.389
G1 X41.628 Y56.194 Z-15.513 F626.389
G1 X42.500 Y57.111 Z-16.790 F626.762
G1 X43.375 Y57.934 Z-18.000 F627.393
G2 X55.367 Y63.341 Z-18.000 I14.625 J-16.434 K0.000 F1200.000
G2 X73.556 Y57.056 Z-18.000 I2.633 J-21.841 K0.000 F1200.000
G1 X73.556 Y57.056 Z-19.500 F60.000
G2 X79.918 Y39.615 Z-19.500 I-15.556 J-15.556 K0.000 F1200.000
G1 X79.760 Y38.269 Z-18.139 F628.457
G1 X79.520 Y36.935 Z-16.774 F627.422
G1 X79.198 Y35.618 Z-15.406 F626.733
G1 X79.007 Y34.970 Z-14.723 F626.475
G1 X78.904 Y34.646 Z-14.380 F626.411
G1 X78.851 Y34.487 Z-14.211 F626.395
G1 X78.824 Y34.408 Z-14.127 F626.391
G1 X78.811 Y34.369 Z-14.085 F626.390
G1 X78.797 Y34.328 Z-14.041 F626.389
G1 X78.382 Y33.222 Z-15.233 F626.389
G1 X77.872 Y32.064 Z-16.510 F626.660
G1 X77.297 Y30.937 Z-17.785 F627.241
G1 X76.873 Y30.197 Z-18.643 F627.980
G1 X76.420 Y29.473 Z-19.500 F628.713
G2 X60.659 Y19.662 Z-19.500 I-18.420 J12.027 K0.000 F1200.000
G2 X36.161 Y38.854 Z-19.500 I-2.659 J21.838 K0.000 F1200.000
G2 X37.902 Y50.446 Z-19.500 I21.839 J2.646 K0.000 F1200.000
G1 X38.492 Y51.667 Z-18.139 F628.457
G1 X39.155 Y52.849 Z-16.774 F627.422
G1 X39.889 Y53.988 Z-15.406 F626.733
G1 X40.282 Y54.539 Z-14.723 F626.475
G1 X40.485 Y54.811 Z-14.380 F626.411
G1 X40.587 Y54.944 Z-14.211 F626.395
G1 X40.638 Y55.010 Z-14.127 F626.391
G1 X40.664 Y55.042 Z-14.085 F626.390
G1 X40.691 Y55.077 Z-14.041 F626.389
G1 X41.444 Y55.986 Z-15.233 F626.389
G1 X42.304 Y56.914 Z-16.510 F626.660
G1 X43.216 Y57.791 Z-17.785 F627.241
G1 X43.859 Y58.352 Z-18.643 F627.980
G1 X44.524 Y58.888 Z-19.500 F628.713
G2 X55.367 Y63.341 Z-19.500 I13.476 J-17.388 K0.000 F1200.000
G2 X73.556 Y57.056 Z-19.500 I2.633 J-21.841 K0.000 F1200.000
G0 X73.556 Y57.056 Z5.000
(Begin operation: DressupTag001)
G0 Z5.000
G0 X312.121 Y87.121 Z5.000
G0 X312.121 Y87.121 Z3.000
G1 X312.121 Y87.121 Z-2.000 F60.000
G2 X313.000 Y85.000 Z-2.000 I-2.121 J-2.121 K0.000 F1200.000
G1 X313.000 Y10.000 Z-2.000 F1200.000
G2 X310.000 Y7.000 Z-2.000 I-3.000 J0.000 K0.000 F1200.000
G1 X10.000 Y7.000 Z-2.000 F1200.000
G2 X7.000 Y10.000 Z-2.000 I0.000 J3.000 K0.000 F1200.000
G1 X7.000 Y85.000 Z-2.000 F1200.000
G2 X10.000 Y88.000 Z-2.000 I3.000 J-0.000 K0.000 F1200.000
G1 X310.000 Y88.000 Z-2.000 F1200.000
G2 X312.121 Y87.121 Z-2.000 I-0.000 J-3.000 K0.000 F1200.000
G1 X312.121 Y87.121 Z-4.000 F60.000
G2 X313.000 Y85.000 Z-4.000 I-2.121 J-2.121 K0.000 F1200.000
G1 X313.000 Y10.000 Z-4.000 F1200.000
G2 X310.000 Y7.000 Z-4.000 I-3.000 J0.000 K0.000 F1200.000
G1 X10.000 Y7.000 Z-4.000 F1200.000
G2 X7.000 Y10.000 Z-4.000 I0.000 J3.000 K0.000 F1200.000
G1 X7.000 Y85.000 Z-4.000 F1200.000
G2 X10.000 Y88.000 Z-4.000 I3.000 J-0.000 K0.000 F1200.000
G1 X310.000 Y88.000 Z-4.000 F1200.000
G2 X312.121 Y87.121 Z-4.000 I-0.000 J-3.000 K0.000 F1200.000
G1 X312.121 Y87.121 Z-6.000 F60.000
G2 X313.000 Y85.000 Z-6.000 I-2.121 J-2.121 K0.000 F1200.000
G1 X313.000 Y10.000 Z-6.000 F1200.000
G2 X310.000 Y7.000 Z-6.000 I-3.000 J0.000 K0.000 F1200.000
G1 X10.000 Y7.000 Z-6.000 F1200.000
G2 X7.000 Y10.000 Z-6.000 I0.000 J3.000 K0.000 F1200.000
G1 X7.000 Y85.000 Z-6.000 F1200.000
G2 X10.000 Y88.000 Z-6.000 I3.000 J-0.000 K0.000 F1200.000
G1 X310.000 Y88.000 Z-6.000 F1200.000
G2 X312.121 Y87.121 Z-6.000 I-0.000 J-3.000 K0.000 F1200.000
G1 X312.121 Y87.121 Z-8.000 F60.000
G2 X313.000 Y85.000 Z-8.000 I-2.121 J-2.121 K0.000 F1200.000
G1 X313.000 Y10.000 Z-8.000 F1200.000
G2 X310.000 Y7.000 Z-8.000 I-3.000 J0.000 K0.000 F1200.000
G1 X10.000 Y7.000 Z-8.000 F1200.000
G2 X7.000 Y10.000 Z-8.000 I0.000 J3.000 K0.000 F1200.000
G1 X7.000 Y85.000 Z-8.000 F1200.000
G2 X10.000 Y88.000 Z-8.000 I3.000 J-0.000 K0.000 F1200.000
G1 X310.000 Y88.000 Z-8.000 F1200.000
G2 X312.121 Y87.121 Z-8.000 I-0.000 J-3.000 K0.000 F1200.000
G1 X312.121 Y87.121 Z-10.000 F60.000
G2 X313.000 Y85.000 Z-10.000 I-2.121 J-2.121 K0.000 F1200.000
G1 X313.000 Y10.000 Z-10.000 F1200.000
G2 X310.000 Y7.000 Z-10.000 I-3.000 J0.000 K0.000 F1200.000
G1 X10.000 Y7.000 Z-10.000 F1200.000
G2 X7.000 Y10.000 Z-10.000 I0.000 J3.000 K0.000 F1200.000
G1 X7.000 Y85.000 Z-10.000 F1200.000
G2 X10.000 Y88.000 Z-10.000 I3.000 J-0.000 K0.000 F1200.000
G1 X310.000 Y88.000 Z-10.000 F1200.000
G2 X312.121 Y87.121 Z-10.000 I-0.000 J-3.000 K0.000 F1200.000
G1 X312.121 Y87.121 Z-12.000 F60.000
G2 X313.000 Y85.000 Z-12.000 I-2.121 J-2.121 K0.000 F1200.000
G1 X313.000 Y10.000 Z-12.000 F1200.000
G2 X310.000 Y7.000 Z-12.000 I-3.000 J0.000 K0.000 F1200.000
G1 X236.420 Y7.000 Z-12.000 F1200.000
G1 X235.920 Y7.000 Z-11.500 F630.000
G1 X234.080 Y7.000 Z-11.500 F1200.000
G1 X233.580 Y7.000 Z-12.000 F630.000
G1 X86.420 Y7.000 Z-12.000 F1200.000
G1 X85.920 Y7.000 Z-11.500 F630.000
G1 X84.080 Y7.000 Z-11.500 F1200.000
G1 X83.580 Y7.000 Z-12.000 F630.000
G1 X10.000 Y7.000 Z-12.000 F1200.000
G2 X7.000 Y10.000 Z-12.000 I0.000 J3.000 K0.000 F1200.000
G1 X7.000 Y85.000 Z-12.000 F1200.000
G2 X10.000 Y88.000 Z-12.000 I3.000 J-0.000 K0.000 F1200.000
G1 X83.580 Y88.000 Z-12.000 F1200.000
G1 X84.080 Y88.000 Z-11.500 F630.000
G1 X85.920 Y88.000 Z-11.500 F1200.000
G1 X86.420 Y88.000 Z-12.000 F630.000
G1 X233.580 Y88.000 Z-12.000 F1200.000
G1 X234.080 Y88.000 Z-11.500 F630.000
G1 X235.920 Y88.000 Z-11.500 F1200.000
G1 X236.420 Y88.000 Z-12.000 F630.000
G1 X310.000 Y88.000 Z-12.000 F1200.000
G2 X312.121 Y87.121 Z-12.000 I-0.000 J-3.000 K0.000 F1200.000
G1 X312.121 Y87.121 Z-14.000 F60.000
G2 X313.000 Y85.000 Z-14.000 I-2.121 J-2.121 K0.000 F1200.000
G1 X313.000 Y10.000 Z-14.000 F1200.000
G2 X310.000 Y7.000 Z-14.000 I-3.000 J0.000 K0.000 F1200.000
G1 X238.420 Y7.000 Z-14.000 F1200.000
G1 X235.920 Y7.000 Z-11.500 F630.000
G1 X234.080 Y7.000 Z-11.500 F1200.000
G1 X231.580 Y7.000 Z-14.000 F630.000
G1 X88.420 Y7.000 Z-14.000 F1200.000
G1 X85.920 Y7.000 Z-11.500 F630.000
G1 X84.080 Y7.000 Z-11.500 F1200.000
G1 X81.580 Y7.000 Z-14.000 F630.000
G1 X10.000 Y7.000 Z-14.000 F1200.000
G2 X7.000 Y10.000 Z-14.000 I0.000 J3.000 K0.000 F1200.000
G1 X7.000 Y85.000 Z-14.000 F1200.000
G2 X10.000 Y88.000 Z-14.000 I3.000 J-0.000 K0.000 F1200.000
G1 X81.580 Y88.000 Z-14.000 F1200.000
G1 X84.080 Y88.000 Z-11.500 F630.000
G1 X85.920 Y88.000 Z-11.500 F1200.000
G1 X88.420 Y88.000 Z-14.000 F630.000
G1 X231.580 Y88.000 Z-14.000 F1200.000
G1 X234.080 Y88.000 Z-11.500 F630.000
G1 X235.920 Y88.000 Z-11.500 F1200.000
G1 X238.420 Y88.000 Z-14.000 F630.000
G1 X310.000 Y88.000 Z-14.000 F1200.000
G2 X312.121 Y87.121 Z-14.000 I-0.000 J-3.000 K0.000 F1200.000
G1 X312.121 Y87.121 Z-16.000 F60.000
G2 X313.000 Y85.000 Z-16.000 I-2.121 J-2.121 K0.000 F1200.000
G1 X313.000 Y10.000 Z-16.000 F1200.000
G2 X310.000 Y7.000 Z-16.000 I-3.000 J0.000 K0.000 F1200.000
G1 X240.420 Y7.000 Z-16.000 F1200.000
G1 X235.920 Y7.000 Z-11.500 F630.000
G1 X234.080 Y7.000 Z-11.500 F1200.000
G1 X229.580 Y7.000 Z-16.000 F630.000
G1 X90.420 Y7.000 Z-16.000 F1200.000
G1 X85.920 Y7.000 Z-11.500 F630.000
G1 X84.080 Y7.000 Z-11.500 F1200.000
G1 X79.580 Y7.000 Z-16.000 F630.000
G1 X10.000 Y7.000 Z-16.000 F1200.000
G2 X7.000 Y10.000 Z-16.000 I0.000 J3.000 K0.000 F1200.000
G1 X7.000 Y85.000 Z-16.000 F1200.000
G2 X10.000 Y88.000 Z-16.000 I3.000 J-0.000 K0.000 F1200.000
G1 X79.580 Y88.000 Z-16.000 F1200.000
G1 X84.080 Y88.000 Z-11.500 F630.000
G1 X85.920 Y88.000 Z-11.500 F1200.000
G1 X90.420 Y88.000 Z-16.000 F630.000
G1 X229.580 Y88.000 Z-16.000 F1200.000
G1 X234.080 Y88.000 Z-11.500 F630.000
G1 X235.920 Y88.000 Z-11.500 F1200.000
G1 X240.420 Y88.000 Z-16.000 F630.000
G1 X310.000 Y88.000 Z-16.000 F1200.000
G2 X312.121 Y87.121 Z-16.000 I-0.000 J-3.000 K0.000 F1200.000
G1 X312.121 Y87.121 Z-18.000 F60.000
G2 X313.000 Y85.000 Z-18.000 I-2.121 J-2.121 K0.000 F1200.000
G1 X313.000 Y10.000 Z-18.000 F1200.000
G2 X310.000 Y7.000 Z-18.000 I-3.000 J0.000 K0.000 F1200.000
G1 X242.420 Y7.000 Z-18.000 F1200.000
G1 X235.920 Y7.000 Z-11.500 F630.000
G1 X234.080 Y7.000 Z-11.500 F1200.000
G1 X227.580 Y7.000 Z-18.000 F630.000
G1 X92.420 Y7.000 Z-18.000 F1200.000
G1 X85.920 Y7.000 Z-11.500 F630.000
G1 X84.080 Y7.000 Z-11.500 F1200.000
G1 X77.580 Y7.000 Z-18.000 F630.000
G1 X10.000 Y7.000 Z-18.000 F1200.000
G2 X7.000 Y10.000 Z-18.000 I0.000 J3.000 K0.000 F1200.000
G1 X7.000 Y85.000 Z-18.000 F1200.000
G2 X10.000 Y88.000 Z-18.000 I3.000 J-0.000 K0.000 F1200.000
G1 X77.580 Y88.000 Z-18.000 F1200.000
G1 X84.080 Y88.000 Z-11.500 F630.000
G1 X85.920 Y88.000 Z-11.500 F1200.000
G1 X92.420 Y88.000 Z-18.000 F630.000
G1 X227.580 Y88.000 Z-18.000 F1200.000
G1 X234.080 Y88.000 Z-11.500 F630.000
G1 X235.920 Y88.000 Z-11.500 F1200.000
G1 X242.420 Y88.000 Z-18.000 F630.000
G1 X310.000 Y88.000 Z-18.000 F1200.000
G2 X312.121 Y87.121 Z-18.000 I-0.000 J-3.000 K0.000 F1200.000
G1 X312.121 Y87.121 Z-19.500 F60.000
G2 X313.000 Y85.000 Z-19.500 I-2.121 J-2.121 K0.000 F1200.000
G1 X313.000 Y10.000 Z-19.500 F1200.000
G2 X310.000 Y7.000 Z-19.500 I-3.000 J0.000 K0.000 F1200.000
G1 X243.920 Y7.000 Z-19.500 F1200.000
G1 X235.920 Y7.000 Z-11.500 F630.000
G1 X234.080 Y7.000 Z-11.500 F1200.000
G1 X226.080 Y7.000 Z-19.500 F630.000
G1 X93.920 Y7.000 Z-19.500 F1200.000
G1 X85.920 Y7.000 Z-11.500 F630.000
G1 X84.080 Y7.000 Z-11.500 F1200.000
G1 X76.080 Y7.000 Z-19.500 F630.000
G1 X10.000 Y7.000 Z-19.500 F1200.000
G2 X7.000 Y10.000 Z-19.500 I0.000 J3.000 K0.000 F1200.000
G1 X7.000 Y85.000 Z-19.500 F1200.000
G2 X10.000 Y88.000 Z-19.500 I3.000 J-0.000 K0.000 F1200.000
G1 X76.080 Y88.000 Z-19.500 F1200.000
G1 X84.080 Y88.000 Z-11.500 F630.000
G1 X85.920 Y88.000 Z-11.500 F1200.000
G1 X93.920 Y88.000 Z-19.500 F630.000
G1 X226.080 Y88.000 Z-19.500 F1200.000
G1 X234.080 Y88.000 Z-11.500 F630.000
G1 X235.920 Y88.000 Z-11.500 F1200.000
G1 X243.920 Y88.000 Z-19.500 F630.000
G1 X310.000 Y88.000 Z-19.500 F1200.000
G2 X312.121 Y87.121 Z-19.500 I-0.000 J-3.000 K0.000 F1200.000
G0 X312.121 Y87.121 Z5.000
(Begin operation: Pocket_Shape003)
(Pocket_Shape003)
G0 Z5.000
G0 X379.420 Y69.420
G0 Z3.000
G1 X379.420 Y69.420 Z-2.000 F60.000
G3 X357.900 Y78.497 Z-2.000 I-21.920 J-21.920 K0.000 F1200.000
G3 X355.986 Y16.538 Z-2.000 I-0.400 J-30.997 K0.000 F1200.000
G1 X357.420 Y16.501 Z-2.000 F1200.000
G3 X379.420 Y69.420 Z-2.000 I0.080 J30.999 K0.000 F1200.000
G0 Z5.000
G0 X378.713 Y68.713 Z5.000
G0 X378.713 Y68.713 Z3.000
G1 X378.713 Y68.713 Z-2.000 F60.000
G3 X360.863 Y77.310 Z-2.000 I-21.212 J-21.213 K0.000 F1200.000
G3 X327.684 Y50.808 Z-2.000 I-3.363 J-29.810 K0.000 F1200.000
G3 X354.247 Y17.678 Z-2.000 I29.816 J-3.308 K0.000 F1200.000
G3 X378.713 Y68.713 Z-2.000 I3.253 J29.822 K0.000 F1200.000
G1 X378.713 Y68.713 Z-4.000 F60.000
G3 X360.863 Y77.310 Z-4.000 I-21.212 J-21.213 K0.000 F1200.000
G3 X327.684 Y50.808 Z-4.000 I-3.363 J-29.810 K0.000 F1200.000
G3 X354.247 Y17.678 Z-4.000 I29.816 J-3.308 K0.000 F1200.000
G3 X378.713 Y68.713 Z-4.000 I3.253 J29.822 K0.000 F1200.000
G0 Z5.000
G0 X379.420 Y69.420 Z5.000
G0 X379.420 Y69.420 Z3.000
G1 X379.420 Y69.420 Z-4.000 F60.000
G3 X357.900 Y78.497 Z-4.000 I-21.920 J-21.920 K0.000 F1200.000
G3 X355.986 Y16.538 Z-4.000 I-0.400 J-30.997 K0.000 F1200.000
G1 X357.420 Y16.501 Z-4.000 F1200.000
G3 X379.420 Y69.420 Z-4.000 I0.080 J30.999 K0.000 F1200.000
G1 X379.420 Y69.420 Z-4.000 F60.000
G3 X357.900 Y78.497 Z-4.000 I-21.920 J-21.920 K0.000 F1200.000
G3 X355.986 Y16.538 Z-4.000 I-0.400 J-30.997 K0.000 F1200.000
G1 X357.420 Y16.501 Z-4.000 F1200.000
G3 X379.420 Y69.420 Z-4.000 I0.080 J30.999 K0.000 F1200.000
G0 Z5.000
G0 X378.713 Y68.713 Z5.000
G0 X378.713 Y68.713 Z3.000
G1 X378.713 Y68.713 Z-4.000 F60.000
G3 X360.863 Y77.310 Z-4.000 I-21.212 J-21.213 K0.000 F1200.000
G3 X327.684 Y50.808 Z-4.000 I-3.363 J-29.810 K0.000 F1200.000
G3 X354.247 Y17.678 Z-4.000 I29.816 J-3.308 K0.000 F1200.000
G3 X378.713 Y68.713 Z-4.000 I3.253 J29.822 K0.000 F1200.000
G0 Z5.000
G0 Z5.000
(Begin operation: DressupTag002)
G0 Z5.000
G0 X376.591 Y66.591 Z5.000
G0 X376.591 Y66.591 Z3.000
G1 X376.591 Y66.591 Z-2.000 F60.000
G2 X384.499 Y47.386 Z-2.000 I-19.091 J-19.091 K0.000 F1200.000
G1 X384.457 Y46.001 Z-2.000 F1200.000
G2 X330.528 Y48.702 Z-2.000 I-26.957 J1.499 K0.000 F1200.000
G2 X376.591 Y66.591 Z-2.000 I26.972 J-1.202 K0.000 F1200.000
G1 X376.591 Y66.591 Z-4.000 F60.000
G2 X384.499 Y47.386 Z-4.000 I-19.091 J-19.091 K0.000 F1200.000
G1 X384.457 Y46.001 Z-4.000 F1200.000
G2 X330.528 Y48.702 Z-4.000 I-26.957 J1.499 K0.000 F1200.000
G2 X376.591 Y66.591 Z-4.000 I26.972 J-1.202 K0.000 F1200.000
G1 X376.591 Y66.591 Z-6.000 F60.000
G2 X384.499 Y47.386 Z-6.000 I-19.091 J-19.091 K0.000 F1200.000
G1 X384.457 Y46.001 Z-6.000 F1200.000
G2 X330.528 Y48.702 Z-6.000 I-26.957 J1.499 K0.000 F1200.000
G2 X376.591 Y66.591 Z-6.000 I26.972 J-1.202 K0.000 F1200.000
G1 X376.591 Y66.591 Z-8.000 F60.000
G2 X384.499 Y47.386 Z-8.000 I-19.091 J-19.091 K0.000 F1200.000
G1 X384.457 Y46.001 Z-8.000 F1200.000
G2 X330.528 Y48.702 Z-8.000 I-26.957 J1.499 K0.000 F1200.000
G2 X376.591 Y66.591 Z-8.000 I26.972 J-1.202 K0.000 F1200.000
G1 X376.591 Y66.591 Z-10.000 F60.000
G2 X384.499 Y47.386 Z-10.000 I-19.091 J-19.091 K0.000 F1200.000
G1 X384.457 Y46.001 Z-10.000 F1200.000
G2 X330.528 Y48.702 Z-10.000 I-26.957 J1.499 K0.000 F1200.000
G2 X376.591 Y66.591 Z-10.000 I26.972 J-1.202 K0.000 F1200.000
G1 X376.591 Y66.591 Z-12.000 F60.000
G2 X384.499 Y47.386 Z-12.000 I-19.091 J-19.091 K0.000 F1200.000
G1 X384.457 Y46.001 Z-12.000 F1200.000
G2 X330.528 Y48.702 Z-12.000 I-26.957 J1.499 K0.000 F1200.000
G2 X347.267 Y72.485 Z-12.000 I26.972 J-1.202 K0.000 F1200.000
G1 X347.495 Y72.577 Z-11.751 F626.397
G1 X347.609 Y72.622 Z-11.627 F626.391
G1 X347.669 Y72.645 Z-11.563 F626.390
G1 X347.696 Y72.656 Z-11.533 F626.389
G1 X347.726 Y72.668 Z-11.501 F626.389
G1 X348.188 Y72.842 Z-12.000 F626.389
G2 X376.591 Y66.591 Z-12.000 I9.312 J-25.342 K0.000 F1200.000
G1 X376.591 Y66.591 Z-14.000 F60.000
G2 X384.499 Y47.386 Z-14.000 I-19.091 J-19.091 K0.000 F1200.000
G1 X384.457 Y46.001 Z-14.000 F1200.000
G2 X330.528 Y48.702 Z-14.000 I-26.957 J1.499 K0.000 F1200.000
G2 X345.463 Y71.667 Z-14.000 I26.972 J-1.202 K0.000 F1200.000
G1 X346.585 Y72.194 Z-12.749 F626.580
G1 X347.619 Y72.626 Z-11.617 F626.398
G1 X347.675 Y72.648 Z-11.556 F626.390
G1 X347.700 Y72.658 Z-11.529 F626.389
G1 X347.726 Y72.668 Z-11.501 F626.389
G1 X348.706 Y73.027 Z-12.555 F626.389
G1 X350.071 Y73.457 Z-14.000 F626.550
G2 X376.591 Y66.591 Z-14.000 I7.429 J-25.957 K0.000 F1200.000
G1 X376.591 Y66.591 Z-16.000 F60.000
G2 X384.499 Y47.386 Z-16.000 I-19.091 J-19.091 K0.000 F1200.000
G1 X384.457 Y46.001 Z-16.000 F1200.000
G2 X330.528 Y48.702 Z-16.000 I-26.957 J1.499 K0.000 F1200.000
G2 X343.720 Y70.718 Z-16.000 I26.972 J-1.202 K0.000 F1200.000
G1 X344.695 Y71.269 Z-14.872 F627.317
G1 X345.687 Y71.778 Z-13.747 F626.852
G1 X346.700 Y72.245 Z-12.621 F626.543
G1 X347.212 Y72.462 Z-12.060 F626.428
G1 X347.471 Y72.567 Z-11.777 F626.399
G1 X347.595 Y72.617 Z-11.643 F626.392
G1 X347.659 Y72.642 Z-11.573 F626.390
G1 X347.692 Y72.655 Z-11.537 F626.390
G1 X347.726 Y72.668 Z-11.501 F626.389
G1 X349.334 Y73.234 Z-13.222 F626.389
G1 X350.680 Y73.623 Z-14.637 F626.719
G1 X351.997 Y73.932 Z-16.000 F627.252
G2 X376.591 Y66.591 Z-16.000 I5.503 J-26.432 K0.000 F1200.000
G1 X376.591 Y66.591 Z-18.000 F60.000
G2 X384.499 Y47.386 Z-18.000 I-19.091 J-19.091 K0.000 F1200.000
G1 X384.457 Y46.001 Z-18.000 F1200.000
G2 X330.528 Y48.702 Z-18.000 I-26.957 J1.499 K0.000 F1200.000
G2 X342.048 Y69.640 Z-18.000 I26.972 J-1.202 K0.000 F1200.000
G1 X343.402 Y70.526 Z-16.375 F628.332
G1 X344.806 Y71.329 Z-14.745 F627.357
G1 X346.256 Y72.046 Z-13.112 F626.709
G1 X346.997 Y72.372 Z-12.295 F626.467
G1 X347.370 Y72.527 Z-11.887 F626.408
G1 X347.550 Y72.599 Z-11.691 F626.394
G1 X347.638 Y72.633 Z-11.596 F626.390
G1 X347.681 Y72.650 Z-11.549 F626.390
G1 X347.726 Y72.668 Z-11.501 F626.389
G1 X348.969 Y73.116 Z-12.836 F626.389
G1 X350.310 Y73.524 Z-14.250 F626.613
G1 X351.670 Y73.862 Z-15.663 F627.089
G1 X353.047 Y74.129 Z-17.074 F627.810
G1 X353.959 Y74.266 Z-18.000 F628.613
G2 X376.591 Y66.591 Z-18.000 I3.541 J-26.766 K0.000 F1200.000
G1 X376.591 Y66.591 Z-19.500 F60.000
G2 X384.499 Y47.386 Z-19.500 I-19.091 J-19.091 K0.000 F1200.000
G1 X384.457 Y46.001 Z-19.500 F1200.000
G2 X330.528 Y48.702 Z-19.500 I-26.957 J1.499 K0.000 F1200.000
G2 X340.843 Y68.749 Z-19.500 I26.972 J-1.202 K0.000 F1200.000
G1 X341.637 Y69.348 Z-18.505 F629.840
G1 X342.453 Y69.917 Z-17.508 F628.974
G1 X343.288 Y70.456 Z-16.508 F628.234
G1 X344.140 Y70.962 Z-15.511 F627.619
G1 X345.013 Y71.438 Z-14.509 F627.127
G1 X345.903 Y71.882 Z-13.505 F626.758
G1 X346.809 Y72.292 Z-12.501 F626.512
G1 X347.266 Y72.484 Z-12.001 F626.420
G1 X347.495 Y72.577 Z-11.751 F626.397
G1 X347.610 Y72.623 Z-11.626 F626.391
G1 X347.666 Y72.644 Z-11.565 F626.390
G1 X347.696 Y72.656 Z-11.533 F626.389
G1 X347.726 Y72.668 Z-11.501 F626.389
G1 X349.252 Y73.208 Z-13.136 F626.389
G1 X350.598 Y73.602 Z-14.551 F626.694
G1 X351.962 Y73.925 Z-15.964 F627.222
G1 X353.341 Y74.177 Z-17.374 F627.995
G1 X354.732 Y74.357 Z-18.780 F629.016
G1 X355.449 Y74.421 Z-19.500 F629.976
G2 X376.591 Y66.591 Z-19.500 I2.051 J-26.921 K0.000 F1200.000
G0 X376.591 Y66.591 Z5.000
(Begin operation: DressupTag003)
G0 Z5.000
G0 X397.121 Y87.121 Z5.000
G0 X397.121 Y87.121 Z3.000
G1 X397.121 Y87.121 Z-2.000 F60.000
G2 X398.000 Y85.000 Z-2.000 I-2.121 J-2.121 K0.000 F1200.000
G1 X398.000 Y10.000 Z-2.000 F1200.000
G2 X395.000 Y7.000 Z-2.000 I-3.000 J0.000 K0.000 F1200.000
G1 X320.000 Y7.000 Z-2.000 F1200.000
G2 X317.000 Y10.000 Z-2.000 I-0.000 J3.000 K0.000 F1200.000
G1 X317.000 Y85.000 Z-2.000 F1200.000
G2 X320.000 Y88.000 Z-2.000 I3.000 J-0.000 K0.000 F1200.000
G1 X395.000 Y88.000 Z-2.000 F1200.000
G2 X397.121 Y87.121 Z-2.000 I-0.000 J-3.000 K0.000 F1200.000
G1 X397.121 Y87.121 Z-4.000 F60.000
G2 X398.000 Y85.000 Z-4.000 I-2.121 J-2.121 K0.000 F1200.000
G1 X398.000 Y10.000 Z-4.000 F1200.000
G2 X395.000 Y7.000 Z-4.000 I-3.000 J0.000 K0.000 F1200.000
G1 X320.000 Y7.000 Z-4.000 F1200.000
G2 X317.000 Y10.000 Z-4.000 I-0.000 J3.000 K0.000 F1200.000
G1 X317.000 Y85.000 Z-4.000 F1200.000
G2 X320.000 Y88.000 Z-4.000 I3.000 J-0.000 K0.000 F1200.000
G1 X395.000 Y88.000 Z-4.000 F1200.000
G2 X397.121 Y87.121 Z-4.000 I-0.000 J-3.000 K0.000 F1200.000
G1 X397.121 Y87.121 Z-6.000 F60.000
G2 X398.000 Y85.000 Z-6.000 I-2.121 J-2.121 K0.000 F1200.000
G1 X398.000 Y10.000 Z-6.000 F1200.000
G2 X395.000 Y7.000 Z-6.000 I-3.000 J0.000 K0.000 F1200.000
G1 X320.000 Y7.000 Z-6.000 F1200.000
G2 X317.000 Y10.000 Z-6.000 I-0.000 J3.000 K0.000 F1200.000
G1 X317.000 Y85.000 Z-6.000 F1200.000
G2 X320.000 Y88.000 Z-6.000 I3.000 J-0.000 K0.000 F1200.000
G1 X395.000 Y88.000 Z-6.000 F1200.000
G2 X397.121 Y87.121 Z-6.000 I-0.000 J-3.000 K0.000 F1200.000
G1 X397.121 Y87.121 Z-8.000 F60.000
G2 X398.000 Y85.000 Z-8.000 I-2.121 J-2.121 K0.000 F1200.000
G1 X398.000 Y10.000 Z-8.000 F1200.000
G2 X395.000 Y7.000 Z-8.000 I-3.000 J0.000 K0.000 F1200.000
G1 X320.000 Y7.000 Z-8.000 F1200.000
G2 X317.000 Y10.000 Z-8.000 I-0.000 J3.000 K0.000 F1200.000
G1 X317.000 Y85.000 Z-8.000 F1200.000
G2 X320.000 Y88.000 Z-8.000 I3.000 J-0.000 K0.000 F1200.000
G1 X395.000 Y88.000 Z-8.000 F1200.000
G2 X397.121 Y87.121 Z-8.000 I-0.000 J-3.000 K0.000 F1200.000
G1 X397.121 Y87.121 Z-10.000 F60.000
G2 X398.000 Y85.000 Z-10.000 I-2.121 J-2.121 K0.000 F1200.000
G1 X398.000 Y10.000 Z-10.000 F1200.000
G2 X395.000 Y7.000 Z-10.000 I-3.000 J0.000 K0.000 F1200.000
G1 X320.000 Y7.000 Z-10.000 F1200.000
G2 X317.000 Y10.000 Z-10.000 I-0.000 J3.000 K0.000 F1200.000
G1 X317.000 Y85.000 Z-10.000 F1200.000
G2 X320.000 Y88.000 Z-10.000 I3.000 J-0.000 K0.000 F1200.000
G1 X395.000 Y88.000 Z-10.000 F1200.000
G2 X397.121 Y87.121 Z-10.000 I-0.000 J-3.000 K0.000 F1200.000
G1 X397.121 Y87.121 Z-12.000 F60.000
G2 X398.000 Y85.000 Z-12.000 I-2.121 J-2.121 K0.000 F1200.000
G1 X398.000 Y10.000 Z-12.000 F1200.000
G2 X395.000 Y7.000 Z-12.000 I-3.000 J0.000 K0.000 F1200.000
G1 X320.000 Y7.000 Z-12.000 F1200.000
G2 X317.000 Y10.000 Z-12.000 I-0.000 J3.000 K0.000 F1200.000
G1 X317.000 Y85.000 Z-12.000 F1200.000
G2 X320.000 Y88.000 Z-12.000 I3.000 J-0.000 K0.000 F1200.000
G1 X395.000 Y88.000 Z-12.000 F1200.000
G2 X397.121 Y87.121 Z-12.000 I-0.000 J-3.000 K0.000 F1200.000
G1 X397.121 Y87.121 Z-14.000 F60.000
G2 X398.000 Y85.000 Z-14.000 I-2.121 J-2.121 K0.000 F1200.000
G1 X398.000 Y48.737 Z-14.000 F1200.000
G1 X398.000 Y47.500 Z-12.751 F626.389
G1 X398.000 Y46.263 Z-14.000 F626.389
G1 X398.000 Y10.000 Z-14.000 F1200.000
G2 X395.000 Y7.000 Z-14.000 I-3.000 J0.000 K0.000 F1200.000
G1 X358.737 Y7.000 Z-14.000 F1200.000
G1 X357.500 Y7.000 Z-12.751 F626.389
G1 X356.263 Y7.000 Z-14.000 F626.389
G1 X320.000 Y7.000 Z-14.000 F1200.000
G2 X317.000 Y10.000 Z-14.000 I-0.000 J3.000 K0.000 F1200.000
G1 X317.000 Y46.263 Z-14.000 F1200.000
G1 X317.000 Y47.500 Z-12.751 F626.389
G1 X317.000 Y48.737 Z-14.000 F626.389
G1 X317.000 Y85.000 Z-14.000 F1200.000
G2 X320.000 Y88.000 Z-14.000 I3.000 J-0.000 K0.000 F1200.000
G1 X356.263 Y88.000 Z-14.000 F1200.000
G1 X357.500 Y88.000 Z-12.751 F626.389
G1 X358.737 Y88.000 Z-14.000 F626.389
G1 X395.000 Y88.000 Z-14.000 F1200.000
G2 X397.121 Y87.121 Z-14.000 I-0.000 J-3.000 K0.000 F1200.000
G1 X397.121 Y87.121 Z-16.000 F60.000
G2 X398.000 Y85.000 Z-16.000 I-2.121 J-2.121 K0.000 F1200.000
G1 X398.000 Y50.717 Z-16.000 F1200.000
G1 X398.000 Y47.500 Z-12.751 F626.389
G1 X398.000 Y44.283 Z-16.000 F626.389
G1 X398.000 Y10.000 Z-16.000 F1200.000
G2 X395.000 Y7.000 Z-16.000 I-3.000 J0.000 K0.000 F1200.000
G1 X360.717 Y7.000 Z-16.000 F1200.000
G1 X357.500 Y7.000 Z-12.751 F626.389
G1 X354.283 Y7.000 Z-16.000 F626.389
G1 X320.000 Y7.000 Z-16.000 F1200.000
G2 X317.000 Y10.000 Z-16.000 I-0.000 J3.000 K0.000 F1200.000
G1 X317.000 Y44.283 Z-16.000 F1200.000
G1 X317.000 Y47.500 Z-12.751 F626.389
G1 X317.000 Y50.717 Z-16.000 F626.389
G1 X317.000 Y85.000 Z-16.000 F1200.000
G2 X320.000 Y88.000 Z-16.000 I3.000 J-0.000 K0.000 F1200.000
G1 X354.283 Y88.000 Z-16.000 F1200.000
G1 X357.500 Y88.000 Z-12.751 F626.389
G1 X360.717 Y88.000 Z-16.000 F626.389
G1 X395.000 Y88.000 Z-16.000 F1200.000
G2 X397.121 Y87.121 Z-16.000 I-0.000 J-3.000 K0.000 F1200.000
G1 X397.121 Y87.121 Z-18.000 F60.000
G2 X398.000 Y85.000 Z-18.000 I-2.121 J-2.121 K0.000 F1200.000
G1 X398.000 Y52.697 Z-18.000 F1200.000
G1 X398.000 Y47.500 Z-12.751 F626.389
G1 X398.000 Y42.303 Z-18.000 F626.389
G1 X398.000 Y10.000 Z-18.000 F1200.000
G2 X395.000 Y7.000 Z-18.000 I-3.000 J0.000 K0.000 F1200.000
G1 X362.697 Y7.000 Z-18.000 F1200.000
G1 X357.500 Y7.000 Z-12.751 F626.389
G1 X352.303 Y7.000 Z-18.000 F626.389
G1 X320.000 Y7.000 Z-18.000 F1200.000
G2 X317.000 Y10.000 Z-18.000 I-0.000 J3.000 K0.000 F1200.000
G1 X317.000 Y42.303 Z-18.000 F1200.000
G1 X317.000 Y47.500 Z-12.751 F626.389
G1 X317.000 Y52.697 Z-18.000 F626.389
G1 X317.000 Y85.000 Z-18.000 F1200.000
G2 X320.000 Y88.000 Z-18.000 I3.000 J-0.000 K0.000 F1200.000
G1 X352.303 Y88.000 Z-18.000 F1200.000
G1 X357.500 Y88.000 Z-12.751 F626.389
G1 X362.697 Y88.000 Z-18.000 F626.389
G1 X395.000 Y88.000 Z-18.000 F1200.000
G2 X397.121 Y87.121 Z-18.000 I-0.000 J-3.000 K0.000 F1200.000
G1 X397.121 Y87.121 Z-19.500 F60.000
G2 X398.000 Y85.000 Z-19.500 I-2.121 J-2.121 K0.000 F1200.000
G1 X398.000 Y54.182 Z-19.500 F1200.000
G1 X398.000 Y47.500 Z-12.751 F626.389
G1 X398.000 Y40.817 Z-19.500 F626.389
G1 X398.000 Y10.000 Z-19.500 F1200.000
G2 X395.000 Y7.000 Z-19.500 I-3.000 J0.000 K0.000 F1200.000
G1 X364.183 Y7.000 Z-19.500 F1200.000
G1 X357.500 Y7.000 Z-12.751 F626.389
G1 X350.818 Y7.000 Z-19.500 F626.389
G1 X320.000 Y7.000 Z-19.500 F1200.000
G2 X317.000 Y10.000 Z-19.500 I-0.000 J3.000 K0.000 F1200.000
G1 X317.000 Y40.817 Z-19.500 F1200.000
G1 X317.000 Y47.500 Z-12.751 F626.389
G1 X317.000 Y54.182 Z-19.500 F626.389
G1 X317.000 Y85.000 Z-19.500 F1200.000
G2 X320.000 Y88.000 Z-19.500 I3.000 J-0.000 K0.000 F1200.000
G1 X350.818 Y88.000 Z-19.500 F1200.000
G1 X357.500 Y88.000 Z-12.751 F626.389
G1 X364.183 Y88.000 Z-19.500 F626.389
G1 X395.000 Y88.000 Z-19.500 F1200.000
G2 X397.121 Y87.121 Z-19.500 I-0.000 J-3.000 K0.000 F1200.000
G0 X397.121 Y87.121 Z5.000
G0 Z5.000
G0 Z5.000
(Begin postamble)
M5
