(Exported by FreeCAD)
(Post Processor: marlin_post.py, version: 2020-11-03)
(Output Time:2023-11-12 17:36:40.827668)
(Begin preamble)
(Default Configuration)
G90
G21
G17
(Begin operation: Fixture)
G54
(Begin operation: TC: Endmill D=6, H=20, S=8)
(TC: Endmill D=6, H=20, S=8)
(Begin toolchange)
(M6 T16.0)
(Begin operation: Pocket_Shape)
(Pocket_Shape)
G0 Z5.000
G0 X46.118 Y75.118
G0 Z3.000
G1 X46.118 Y75.118 Z-2.000 F60.000
G3 X43.333 Y75.920 Z-2.000 I-2.118 J-2.118 K0.000 F900.000
G3 X44.667 Y70.080 Z-2.000 I0.667 J-2.920 K0.000 F900.000
G3 X46.118 Y75.118 Z-2.000 I-0.667 J2.920 K0.000 F900.000
G0 Z5.000
G0 X45.056 Y74.056 Z5.000
G0 X45.056 Y74.056 Z3.000
G1 X45.056 Y74.056 Z-2.000 F60.000
G3 X43.668 Y74.455 Z-2.000 I-1.056 J-1.056 K0.000 F900.000
G3 X44.332 Y71.545 Z-2.000 I0.332 J-1.455 K0.000 F900.000
G3 X45.056 Y74.056 Z-2.000 I-0.332 J1.455 K0.000 F900.000
G1 X45.056 Y74.056 Z-4.000 F60.000
G3 X43.668 Y74.455 Z-4.000 I-1.056 J-1.056 K0.000 F900.000
G3 X44.332 Y71.545 Z-4.000 I0.332 J-1.455 K0.000 F900.000
G3 X45.056 Y74.056 Z-4.000 I-0.332 J1.455 K0.000 F900.000
G0 Z5.000
G0 X46.118 Y75.118 Z5.000
G0 X46.118 Y75.118 Z3.000
G1 X46.118 Y75.118 Z-4.000 F60.000
G3 X43.333 Y75.920 Z-4.000 I-2.118 J-2.118 K0.000 F900.000
G3 X44.667 Y70.080 Z-4.000 I0.667 J-2.920 K0.000 F900.000
G3 X46.118 Y75.118 Z-4.000 I-0.667 J2.920 K0.000 F900.000
G1 X46.118 Y75.118 Z-6.000 F60.000
G3 X43.333 Y75.920 Z-6.000 I-2.118 J-2.118 K0.000 F900.000
G3 X44.667 Y70.080 Z-6.000 I0.667 J-2.920 K0.000 F900.000
G3 X46.118 Y75.118 Z-6.000 I-0.667 J2.920 K0.000 F900.000
G0 Z5.000
G0 X45.056 Y74.056 Z5.000
G0 X45.056 Y74.056 Z3.000
G1 X45.056 Y74.056 Z-6.000 F60.000
G3 X43.668 Y74.455 Z-6.000 I-1.056 J-1.056 K0.000 F900.000
G3 X44.332 Y71.545 Z-6.000 I0.332 J-1.455 K0.000 F900.000
G3 X45.056 Y74.056 Z-6.000 I-0.332 J1.455 K0.000 F900.000
G1 X45.056 Y74.056 Z-8.000 F60.000
G3 X43.668 Y74.455 Z-8.000 I-1.056 J-1.056 K0.000 F900.000
G3 X44.332 Y71.545 Z-8.000 I0.332 J-1.455 K0.000 F900.000
G3 X45.056 Y74.056 Z-8.000 I-0.332 J1.455 K0.000 F900.000
G0 Z5.000
G0 X46.118 Y75.118 Z5.000
G0 X46.118 Y75.118 Z3.000
G1 X46.118 Y75.118 Z-8.000 F60.000
G3 X43.333 Y75.920 Z-8.000 I-2.118 J-2.118 K0.000 F900.000
G3 X44.667 Y70.080 Z-8.000 I0.667 J-2.920 K0.000 F900.000
G3 X46.118 Y75.118 Z-8.000 I-0.667 J2.920 K0.000 F900.000
G1 X46.118 Y75.118 Z-10.000 F60.000
G3 X43.333 Y75.920 Z-10.000 I-2.118 J-2.118 K0.000 F900.000
G3 X44.667 Y70.080 Z-10.000 I0.667 J-2.920 K0.000 F900.000
G3 X46.118 Y75.118 Z-10.000 I-0.667 J2.920 K0.000 F900.000
G0 Z5.000
G0 X45.056 Y74.056 Z5.000
G0 X45.056 Y74.056 Z3.000
G1 X45.056 Y74.056 Z-10.000 F60.000
G3 X43.668 Y74.455 Z-10.000 I-1.056 J-1.056 K0.000 F900.000
G3 X44.332 Y71.545 Z-10.000 I0.332 J-1.455 K0.000 F900.000
G3 X45.056 Y74.056 Z-10.000 I-0.332 J1.455 K0.000 F900.000
G1 X45.056 Y74.056 Z-12.000 F60.000
G3 X43.668 Y74.455 Z-12.000 I-1.056 J-1.056 K0.000 F900.000
G3 X44.332 Y71.545 Z-12.000 I0.332 J-1.455 K0.000 F900.000
G3 X45.056 Y74.056 Z-12.000 I-0.332 J1.455 K0.000 F900.000
G0 Z5.000
G0 X46.118 Y75.118 Z5.000
G0 X46.118 Y75.118 Z3.000
G1 X46.118 Y75.118 Z-12.000 F60.000
G3 X43.333 Y75.920 Z-12.000 I-2.118 J-2.118 K0.000 F900.000
G3 X44.667 Y70.080 Z-12.000 I0.667 J-2.920 K0.000 F900.000
G3 X46.118 Y75.118 Z-12.000 I-0.667 J2.920 K0.000 F900.000
G1 X46.118 Y75.118 Z-14.000 F60.000
G3 X43.333 Y75.920 Z-14.000 I-2.118 J-2.118 K0.000 F900.000
G3 X44.667 Y70.080 Z-14.000 I0.667 J-2.920 K0.000 F900.000
G3 X46.118 Y75.118 Z-14.000 I-0.667 J2.920 K0.000 F900.000
G0 Z5.000
G0 X45.056 Y74.056 Z5.000
G0 X45.056 Y74.056 Z3.000
G1 X45.056 Y74.056 Z-14.000 F60.000
G3 X43.668 Y74.455 Z-14.000 I-1.056 J-1.056 K0.000 F900.000
G3 X44.332 Y71.545 Z-14.000 I0.332 J-1.455 K0.000 F900.000
G3 X45.056 Y74.056 Z-14.000 I-0.332 J1.455 K0.000 F900.000
G1 X45.056 Y74.056 Z-15.600 F60.000
G3 X43.668 Y74.455 Z-15.600 I-1.056 J-1.056 K0.000 F900.000
G3 X44.332 Y71.545 Z-15.600 I0.332 J-1.455 K0.000 F900.000
G3 X45.056 Y74.056 Z-15.600 I-0.332 J1.455 K0.000 F900.000
G0 Z5.000
G0 X46.118 Y75.118 Z5.000
G0 X46.118 Y75.118 Z3.000
G1 X46.118 Y75.118 Z-15.600 F60.000
G3 X43.333 Y75.920 Z-15.600 I-2.118 J-2.118 K0.000 F900.000
G3 X44.667 Y70.080 Z-15.600 I0.667 J-2.920 K0.000 F900.000
G3 X46.118 Y75.118 Z-15.600 I-0.667 J2.920 K0.000 F900.000
G0 Z5.000
G0 Z5.000
(Begin operation: Pocket_Shape001)
(Pocket_Shape001)
G0 Z5.000
G0 X216.118 Y75.118
G0 Z3.000
G1 X216.118 Y75.118 Z-2.000 F60.000
G3 X213.333 Y75.920 Z-2.000 I-2.118 J-2.118 K0.000 F900.000
G3 X214.667 Y70.080 Z-2.000 I0.667 J-2.920 K0.000 F900.000
G3 X216.118 Y75.118 Z-2.000 I-0.667 J2.920 K0.000 F900.000
G0 Z5.000
G0 X215.056 Y74.056 Z5.000
G0 X215.056 Y74.056 Z3.000
G1 X215.056 Y74.056 Z-2.000 F60.000
G3 X213.668 Y74.455 Z-2.000 I-1.056 J-1.056 K0.000 F900.000
G3 X214.332 Y71.545 Z-2.000 I0.332 J-1.455 K0.000 F900.000
G3 X215.056 Y74.056 Z-2.000 I-0.332 J1.455 K0.000 F900.000
G1 X215.056 Y74.056 Z-4.000 F60.000
G3 X213.668 Y74.455 Z-4.000 I-1.056 J-1.056 K0.000 F900.000
G3 X214.332 Y71.545 Z-4.000 I0.332 J-1.455 K0.000 F900.000
G3 X215.056 Y74.056 Z-4.000 I-0.332 J1.455 K0.000 F900.000
G0 Z5.000
G0 X216.118 Y75.118 Z5.000
G0 X216.118 Y75.118 Z3.000
G1 X216.118 Y75.118 Z-4.000 F60.000
G3 X213.333 Y75.920 Z-4.000 I-2.118 J-2.118 K0.000 F900.000
G3 X214.667 Y70.080 Z-4.000 I0.667 J-2.920 K0.000 F900.000
G3 X216.118 Y75.118 Z-4.000 I-0.667 J2.920 K0.000 F900.000
G1 X216.118 Y75.118 Z-6.000 F60.000
G3 X213.333 Y75.920 Z-6.000 I-2.118 J-2.118 K0.000 F900.000
G3 X214.667 Y70.080 Z-6.000 I0.667 J-2.920 K0.000 F900.000
G3 X216.118 Y75.118 Z-6.000 I-0.667 J2.920 K0.000 F900.000
G0 Z5.000
G0 X215.056 Y74.056 Z5.000
G0 X215.056 Y74.056 Z3.000
G1 X215.056 Y74.056 Z-6.000 F60.000
G3 X213.668 Y74.455 Z-6.000 I-1.056 J-1.056 K0.000 F900.000
G3 X214.332 Y71.545 Z-6.000 I0.332 J-1.455 K0.000 F900.000
G3 X215.056 Y74.056 Z-6.000 I-0.332 J1.455 K0.000 F900.000
G1 X215.056 Y74.056 Z-8.000 F60.000
G3 X213.668 Y74.455 Z-8.000 I-1.056 J-1.056 K0.000 F900.000
G3 X214.332 Y71.545 Z-8.000 I0.332 J-1.455 K0.000 F900.000
G3 X215.056 Y74.056 Z-8.000 I-0.332 J1.455 K0.000 F900.000
G0 Z5.000
G0 X216.118 Y75.118 Z5.000
G0 X216.118 Y75.118 Z3.000
G1 X216.118 Y75.118 Z-8.000 F60.000
G3 X213.333 Y75.920 Z-8.000 I-2.118 J-2.118 K0.000 F900.000
G3 X214.667 Y70.080 Z-8.000 I0.667 J-2.920 K0.000 F900.000
G3 X216.118 Y75.118 Z-8.000 I-0.667 J2.920 K0.000 F900.000
G1 X216.118 Y75.118 Z-10.000 F60.000
G3 X213.333 Y75.920 Z-10.000 I-2.118 J-2.118 K0.000 F900.000
G3 X214.667 Y70.080 Z-10.000 I0.667 J-2.920 K0.000 F900.000
G3 X216.118 Y75.118 Z-10.000 I-0.667 J2.920 K0.000 F900.000
G0 Z5.000
G0 X215.056 Y74.056 Z5.000
G0 X215.056 Y74.056 Z3.000
G1 X215.056 Y74.056 Z-10.000 F60.000
G3 X213.668 Y74.455 Z-10.000 I-1.056 J-1.056 K0.000 F900.000
G3 X214.332 Y71.545 Z-10.000 I0.332 J-1.455 K0.000 F900.000
G3 X215.056 Y74.056 Z-10.000 I-0.332 J1.455 K0.000 F900.000
G1 X215.056 Y74.056 Z-12.000 F60.000
G3 X213.668 Y74.455 Z-12.000 I-1.056 J-1.056 K0.000 F900.000
G3 X214.332 Y71.545 Z-12.000 I0.332 J-1.455 K0.000 F900.000
G3 X215.056 Y74.056 Z-12.000 I-0.332 J1.455 K0.000 F900.000
G0 Z5.000
G0 X216.118 Y75.118 Z5.000
G0 X216.118 Y75.118 Z3.000
G1 X216.118 Y75.118 Z-12.000 F60.000
G3 X213.333 Y75.920 Z-12.000 I-2.118 J-2.118 K0.000 F900.000
G3 X214.667 Y70.080 Z-12.000 I0.667 J-2.920 K0.000 F900.000
G3 X216.118 Y75.118 Z-12.000 I-0.667 J2.920 K0.000 F900.000
G1 X216.118 Y75.118 Z-14.000 F60.000
G3 X213.333 Y75.920 Z-14.000 I-2.118 J-2.118 K0.000 F900.000
G3 X214.667 Y70.080 Z-14.000 I0.667 J-2.920 K0.000 F900.000
G3 X216.118 Y75.118 Z-14.000 I-0.667 J2.920 K0.000 F900.000
G0 Z5.000
G0 X215.056 Y74.056 Z5.000
G0 X215.056 Y74.056 Z3.000
G1 X215.056 Y74.056 Z-14.000 F60.000
G3 X213.668 Y74.455 Z-14.000 I-1.056 J-1.056 K0.000 F900.000
G3 X214.332 Y71.545 Z-14.000 I0.332 J-1.455 K0.000 F900.000
G3 X215.056 Y74.056 Z-14.000 I-0.332 J1.455 K0.000 F900.000
G1 X215.056 Y74.056 Z-15.600 F60.000
G3 X213.668 Y74.455 Z-15.600 I-1.056 J-1.056 K0.000 F900.000
G3 X214.332 Y71.545 Z-15.600 I0.332 J-1.455 K0.000 F900.000
G3 X215.056 Y74.056 Z-15.600 I-0.332 J1.455 K0.000 F900.000
G0 Z5.000
G0 X216.118 Y75.118 Z5.000
G0 X216.118 Y75.118 Z3.000
G1 X216.118 Y75.118 Z-15.600 F60.000
G3 X213.333 Y75.920 Z-15.600 I-2.118 J-2.118 K0.000 F900.000
G3 X214.667 Y70.080 Z-15.600 I0.667 J-2.920 K0.000 F900.000
G3 X216.118 Y75.118 Z-15.600 I-0.667 J2.920 K0.000 F900.000
G0 Z5.000
G0 Z5.000
(Begin operation: Pocket_Shape002)
(Pocket_Shape002)
G0 Z5.000
G0 X216.118 Y245.118
G0 Z3.000
G1 X216.118 Y245.118 Z-2.000 F60.000
G3 X211.080 Y242.333 Z-2.000 I-2.118 J-2.118 K0.000 F900.000
G3 X216.920 Y243.667 Z-2.000 I2.920 J0.667 K0.000 F900.000
G3 X216.118 Y245.118 Z-2.000 I-2.920 J-0.667 K0.000 F900.000
G0 Z5.000
G0 X215.056 Y244.056 Z5.000
G0 X215.056 Y244.056 Z3.000
G1 X215.056 Y244.056 Z-2.000 F60.000
G3 X212.545 Y242.668 Z-2.000 I-1.056 J-1.056 K0.000 F900.000
G3 X215.455 Y243.332 Z-2.000 I1.455 J0.332 K0.000 F900.000
G3 X215.056 Y244.056 Z-2.000 I-1.455 J-0.332 K0.000 F900.000
G1 X215.056 Y244.056 Z-4.000 F60.000
G3 X212.545 Y242.668 Z-4.000 I-1.056 J-1.056 K0.000 F900.000
G3 X215.455 Y243.332 Z-4.000 I1.455 J0.332 K0.000 F900.000
G3 X215.056 Y244.056 Z-4.000 I-1.455 J-0.332 K0.000 F900.000
G0 Z5.000
G0 X216.118 Y245.118 Z5.000
G0 X216.118 Y245.118 Z3.000
G1 X216.118 Y245.118 Z-4.000 F60.000
G3 X211.080 Y242.333 Z-4.000 I-2.118 J-2.118 K0.000 F900.000
G3 X216.920 Y243.667 Z-4.000 I2.920 J0.667 K0.000 F900.000
G3 X216.118 Y245.118 Z-4.000 I-2.920 J-0.667 K0.000 F900.000
G1 X216.118 Y245.118 Z-6.000 F60.000
G3 X211.080 Y242.333 Z-6.000 I-2.118 J-2.118 K0.000 F900.000
G3 X216.920 Y243.667 Z-6.000 I2.920 J0.667 K0.000 F900.000
G3 X216.118 Y245.118 Z-6.000 I-2.920 J-0.667 K0.000 F900.000
G0 Z5.000
G0 X215.056 Y244.056 Z5.000
G0 X215.056 Y244.056 Z3.000
G1 X215.056 Y244.056 Z-6.000 F60.000
G3 X212.545 Y242.668 Z-6.000 I-1.056 J-1.056 K0.000 F900.000
G3 X215.455 Y243.332 Z-6.000 I1.455 J0.332 K0.000 F900.000
G3 X215.056 Y244.056 Z-6.000 I-1.455 J-0.332 K0.000 F900.000
G1 X215.056 Y244.056 Z-8.000 F60.000
G3 X212.545 Y242.668 Z-8.000 I-1.056 J-1.056 K0.000 F900.000
G3 X215.455 Y243.332 Z-8.000 I1.455 J0.332 K0.000 F900.000
G3 X215.056 Y244.056 Z-8.000 I-1.455 J-0.332 K0.000 F900.000
G0 Z5.000
G0 X216.118 Y245.118 Z5.000
G0 X216.118 Y245.118 Z3.000
G1 X216.118 Y245.118 Z-8.000 F60.000
G3 X211.080 Y242.333 Z-8.000 I-2.118 J-2.118 K0.000 F900.000
G3 X216.920 Y243.667 Z-8.000 I2.920 J0.667 K0.000 F900.000
G3 X216.118 Y245.118 Z-8.000 I-2.920 J-0.667 K0.000 F900.000
G1 X216.118 Y245.118 Z-10.000 F60.000
G3 X211.080 Y242.333 Z-10.000 I-2.118 J-2.118 K0.000 F900.000
G3 X216.920 Y243.667 Z-10.000 I2.920 J0.667 K0.000 F900.000
G3 X216.118 Y245.118 Z-10.000 I-2.920 J-0.667 K0.000 F900.000
G0 Z5.000
G0 X215.056 Y244.056 Z5.000
G0 X215.056 Y244.056 Z3.000
G1 X215.056 Y244.056 Z-10.000 F60.000
G3 X212.545 Y242.668 Z-10.000 I-1.056 J-1.056 K0.000 F900.000
G3 X215.455 Y243.332 Z-10.000 I1.455 J0.332 K0.000 F900.000
G3 X215.056 Y244.056 Z-10.000 I-1.455 J-0.332 K0.000 F900.000
G1 X215.056 Y244.056 Z-12.000 F60.000
G3 X212.545 Y242.668 Z-12.000 I-1.056 J-1.056 K0.000 F900.000
G3 X215.455 Y243.332 Z-12.000 I1.455 J0.332 K0.000 F900.000
G3 X215.056 Y244.056 Z-12.000 I-1.455 J-0.332 K0.000 F900.000
G0 Z5.000
G0 X216.118 Y245.118 Z5.000
G0 X216.118 Y245.118 Z3.000
G1 X216.118 Y245.118 Z-12.000 F60.000
G3 X211.080 Y242.333 Z-12.000 I-2.118 J-2.118 K0.000 F900.000
G3 X216.920 Y243.667 Z-12.000 I2.920 J0.667 K0.000 F900.000
G3 X216.118 Y245.118 Z-12.000 I-2.920 J-0.667 K0.000 F900.000
G1 X216.118 Y245.118 Z-14.000 F60.000
G3 X211.080 Y242.333 Z-14.000 I-2.118 J-2.118 K0.000 F900.000
G3 X216.920 Y243.667 Z-14.000 I2.920 J0.667 K0.000 F900.000
G3 X216.118 Y245.118 Z-14.000 I-2.920 J-0.667 K0.000 F900.000
G0 Z5.000
G0 X215.056 Y244.056 Z5.000
G0 X215.056 Y244.056 Z3.000
G1 X215.056 Y244.056 Z-14.000 F60.000
G3 X212.545 Y242.668 Z-14.000 I-1.056 J-1.056 K0.000 F900.000
G3 X215.455 Y243.332 Z-14.000 I1.455 J0.332 K0.000 F900.000
G3 X215.056 Y244.056 Z-14.000 I-1.455 J-0.332 K0.000 F900.000
G1 X215.056 Y244.056 Z-15.600 F60.000
G3 X212.545 Y242.668 Z-15.600 I-1.056 J-1.056 K0.000 F900.000
G3 X215.455 Y243.332 Z-15.600 I1.455 J0.332 K0.000 F900.000
G3 X215.056 Y244.056 Z-15.600 I-1.455 J-0.332 K0.000 F900.000
G0 Z5.000
G0 X216.118 Y245.118 Z5.000
G0 X216.118 Y245.118 Z3.000
G1 X216.118 Y245.118 Z-15.600 F60.000
G3 X211.080 Y242.333 Z-15.600 I-2.118 J-2.118 K0.000 F900.000
G3 X216.920 Y243.667 Z-15.600 I2.920 J0.667 K0.000 F900.000
G3 X216.118 Y245.118 Z-15.600 I-2.920 J-0.667 K0.000 F900.000
G0 Z5.000
G0 Z5.000
(Begin operation: Pocket_Shape003)
(Pocket_Shape003)
G0 Z5.000
G0 X46.118 Y245.118
G0 Z3.000
G1 X46.118 Y245.118 Z-2.000 F60.000
G3 X41.080 Y242.333 Z-2.000 I-2.118 J-2.118 K0.000 F900.000
G3 X46.920 Y243.667 Z-2.000 I2.920 J0.667 K0.000 F900.000
G3 X46.118 Y245.118 Z-2.000 I-2.920 J-0.667 K0.000 F900.000
G0 Z5.000
G0 X45.056 Y244.056 Z5.000
G0 X45.056 Y244.056 Z3.000
G1 X45.056 Y244.056 Z-2.000 F60.000
G3 X42.545 Y242.668 Z-2.000 I-1.056 J-1.056 K0.000 F900.000
G3 X45.455 Y243.332 Z-2.000 I1.455 J0.332 K0.000 F900.000
G3 X45.056 Y244.056 Z-2.000 I-1.455 J-0.332 K0.000 F900.000
G1 X45.056 Y244.056 Z-4.000 F60.000
G3 X42.545 Y242.668 Z-4.000 I-1.056 J-1.056 K0.000 F900.000
G3 X45.455 Y243.332 Z-4.000 I1.455 J0.332 K0.000 F900.000
G3 X45.056 Y244.056 Z-4.000 I-1.455 J-0.332 K0.000 F900.000
G0 Z5.000
G0 X46.118 Y245.118 Z5.000
G0 X46.118 Y245.118 Z3.000
G1 X46.118 Y245.118 Z-4.000 F60.000
G3 X41.080 Y242.333 Z-4.000 I-2.118 J-2.118 K0.000 F900.000
G3 X46.920 Y243.667 Z-4.000 I2.920 J0.667 K0.000 F900.000
G3 X46.118 Y245.118 Z-4.000 I-2.920 J-0.667 K0.000 F900.000
G1 X46.118 Y245.118 Z-6.000 F60.000
G3 X41.080 Y242.333 Z-6.000 I-2.118 J-2.118 K0.000 F900.000
G3 X46.920 Y243.667 Z-6.000 I2.920 J0.667 K0.000 F900.000
G3 X46.118 Y245.118 Z-6.000 I-2.920 J-0.667 K0.000 F900.000
G0 Z5.000
G0 X45.056 Y244.056 Z5.000
G0 X45.056 Y244.056 Z3.000
G1 X45.056 Y244.056 Z-6.000 F60.000
G3 X42.545 Y242.668 Z-6.000 I-1.056 J-1.056 K0.000 F900.000
G3 X45.455 Y243.332 Z-6.000 I1.455 J0.332 K0.000 F900.000
G3 X45.056 Y244.056 Z-6.000 I-1.455 J-0.332 K0.000 F900.000
G1 X45.056 Y244.056 Z-8.000 F60.000
G3 X42.545 Y242.668 Z-8.000 I-1.056 J-1.056 K0.000 F900.000
G3 X45.455 Y243.332 Z-8.000 I1.455 J0.332 K0.000 F900.000
G3 X45.056 Y244.056 Z-8.000 I-1.455 J-0.332 K0.000 F900.000
G0 Z5.000
G0 X46.118 Y245.118 Z5.000
G0 X46.118 Y245.118 Z3.000
G1 X46.118 Y245.118 Z-8.000 F60.000
G3 X41.080 Y242.333 Z-8.000 I-2.118 J-2.118 K0.000 F900.000
G3 X46.920 Y243.667 Z-8.000 I2.920 J0.667 K0.000 F900.000
G3 X46.118 Y245.118 Z-8.000 I-2.920 J-0.667 K0.000 F900.000
G1 X46.118 Y245.118 Z-10.000 F60.000
G3 X41.080 Y242.333 Z-10.000 I-2.118 J-2.118 K0.000 F900.000
G3 X46.920 Y243.667 Z-10.000 I2.920 J0.667 K0.000 F900.000
G3 X46.118 Y245.118 Z-10.000 I-2.920 J-0.667 K0.000 F900.000
G0 Z5.000
G0 X45.056 Y244.056 Z5.000
G0 X45.056 Y244.056 Z3.000
G1 X45.056 Y244.056 Z-10.000 F60.000
G3 X42.545 Y242.668 Z-10.000 I-1.056 J-1.056 K0.000 F900.000
G3 X45.455 Y243.332 Z-10.000 I1.455 J0.332 K0.000 F900.000
G3 X45.056 Y244.056 Z-10.000 I-1.455 J-0.332 K0.000 F900.000
G1 X45.056 Y244.056 Z-12.000 F60.000
G3 X42.545 Y242.668 Z-12.000 I-1.056 J-1.056 K0.000 F900.000
G3 X45.455 Y243.332 Z-12.000 I1.455 J0.332 K0.000 F900.000
G3 X45.056 Y244.056 Z-12.000 I-1.455 J-0.332 K0.000 F900.000
G0 Z5.000
G0 X46.118 Y245.118 Z5.000
G0 X46.118 Y245.118 Z3.000
G1 X46.118 Y245.118 Z-12.000 F60.000
G3 X41.080 Y242.333 Z-12.000 I-2.118 J-2.118 K0.000 F900.000
G3 X46.920 Y243.667 Z-12.000 I2.920 J0.667 K0.000 F900.000
G3 X46.118 Y245.118 Z-12.000 I-2.920 J-0.667 K0.000 F900.000
G1 X46.118 Y245.118 Z-14.000 F60.000
G3 X41.080 Y242.333 Z-14.000 I-2.118 J-2.118 K0.000 F900.000
G3 X46.920 Y243.667 Z-14.000 I2.920 J0.667 K0.000 F900.000
G3 X46.118 Y245.118 Z-14.000 I-2.920 J-0.667 K0.000 F900.000
G0 Z5.000
G0 X45.056 Y244.056 Z5.000
G0 X45.056 Y244.056 Z3.000
G1 X45.056 Y244.056 Z-14.000 F60.000
G3 X42.545 Y242.668 Z-14.000 I-1.056 J-1.056 K0.000 F900.000
G3 X45.455 Y243.332 Z-14.000 I1.455 J0.332 K0.000 F900.000
G3 X45.056 Y244.056 Z-14.000 I-1.455 J-0.332 K0.000 F900.000
G1 X45.056 Y244.056 Z-15.600 F60.000
G3 X42.545 Y242.668 Z-15.600 I-1.056 J-1.056 K0.000 F900.000
G3 X45.455 Y243.332 Z-15.600 I1.455 J0.332 K0.000 F900.000
G3 X45.056 Y244.056 Z-15.600 I-1.455 J-0.332 K0.000 F900.000
G0 Z5.000
G0 X46.118 Y245.118 Z5.000
G0 X46.118 Y245.118 Z3.000
G1 X46.118 Y245.118 Z-15.600 F60.000
G3 X41.080 Y242.333 Z-15.600 I-2.118 J-2.118 K0.000 F900.000
G3 X46.920 Y243.667 Z-15.600 I2.920 J0.667 K0.000 F900.000
G3 X46.118 Y245.118 Z-15.600 I-2.920 J-0.667 K0.000 F900.000
G0 Z5.000
G0 Z5.000
(Begin operation: Pocket_Shape004)
(Pocket_Shape004)
G0 Z5.000
G0 X247.995 Y298.002
G0 Z3.000
G1 X247.995 Y298.002 Z-2.000 F60.000
G3 X247.966 Y298.000 Z-2.000 I-0.014 J-0.013 K0.000 F900.000
G3 X10.003 Y298.000 Z-2.000 I-116.011 J-1552027.941 K0.000 F900.000
G3 X10.000 Y297.956 Z-2.000 I0.127 J-0.032 K0.000 F900.000
G1 X10.001 Y10.001 Z-2.000 F900.000
G3 X13.000 Y10.000 Z-2.000 I1.516 J65.822 K0.000 F900.000
G1 X13.000 Y292.000 Z-2.000 F900.000
G2 X16.000 Y295.000 Z-2.000 I3.000 J-0.000 K0.000 F900.000
G1 X242.000 Y295.000 Z-2.000 F900.000
G2 X245.000 Y292.000 Z-2.000 I-0.000 J-3.000 K0.000 F900.000
G1 X245.000 Y10.000 Z-2.000 F900.000
G3 X247.999 Y10.001 Z-2.000 I1.485 J76.344 K0.000 F900.000
G1 X247.999 Y10.002 Z-2.000 F900.000
G3 X248.000 Y10.035 Z-2.000 I-0.340 J0.026 K0.000 F900.000
G3 X248.000 Y297.984 Z-2.000 I-5249534.512 J141.075 K0.000 F900.000
G3 X247.995 Y298.002 Z-2.000 I-0.018 J0.005 K0.000 F900.000
G0 Z5.000
G0 X246.500 Y296.500 Z5.000
G0 X246.500 Y296.500 Z3.000
G1 X246.500 Y296.500 Z-2.000 F60.000
G1 X11.500 Y296.500 Z-2.000 F900.000
G1 X11.500 Y292.000 Z-2.000 F900.000
G2 X16.000 Y296.500 Z-2.000 I4.500 J-0.000 K0.000 F900.000
G1 X242.000 Y296.500 Z-2.000 F900.000
G2 X246.500 Y292.000 Z-2.000 I0.000 J-4.500 K0.000 F900.000
G1 X246.500 Y296.500 Z-2.000 F900.000
G1 X246.500 Y296.500 Z-4.000 F60.000
G1 X11.500 Y296.500 Z-4.000 F900.000
G1 X11.500 Y292.000 Z-4.000 F900.000
G2 X16.000 Y296.500 Z-4.000 I4.500 J-0.000 K0.000 F900.000
G1 X242.000 Y296.500 Z-4.000 F900.000
G2 X246.500 Y292.000 Z-4.000 I0.000 J-4.500 K0.000 F900.000
G1 X246.500 Y296.500 Z-4.000 F900.000
G0 Z5.000
G0 X248.000 Y296.500 Z5.000
G0 X248.000 Y296.500 Z3.000
G1 X248.000 Y296.500 Z-4.000 F60.000
G3 X248.000 Y297.984 Z-4.000 I-5249534.512 J-145.389 K0.000 F900.000
G3 X247.966 Y298.000 Z-4.000 I-0.018 J0.005 K0.000 F900.000
G3 X10.003 Y298.000 Z-4.000 I-116.011 J-1552027.941 K0.000 F900.000
G3 X10.000 Y297.956 Z-4.000 I0.127 J-0.032 K0.000 F900.000
G1 X10.001 Y10.001 Z-4.000 F900.000
G3 X13.000 Y10.000 Z-4.000 I1.516 J65.822 K0.000 F900.000
G1 X13.000 Y292.000 Z-4.000 F900.000
G2 X16.000 Y295.000 Z-4.000 I3.000 J-0.000 K0.000 F900.000
G1 X242.000 Y295.000 Z-4.000 F900.000
G2 X245.000 Y292.000 Z-4.000 I-0.000 J-3.000 K0.000 F900.000
G1 X245.000 Y10.000 Z-4.000 F900.000
G3 X247.999 Y10.001 Z-4.000 I1.485 J76.344 K0.000 F900.000
G1 X247.999 Y10.002 Z-4.000 F900.000
G3 X248.000 Y10.035 Z-4.000 I-0.340 J0.026 K0.000 F900.000
G3 X248.000 Y296.500 Z-4.000 I-5249534.512 J141.075 K0.000 F900.000
G1 X248.000 Y296.500 Z-6.000 F60.000
G3 X248.000 Y297.984 Z-6.000 I-5249534.512 J-145.389 K0.000 F900.000
G3 X247.966 Y298.000 Z-6.000 I-0.018 J0.005 K0.000 F900.000
G3 X10.003 Y298.000 Z-6.000 I-116.011 J-1552027.941 K0.000 F900.000
G3 X10.000 Y297.956 Z-6.000 I0.127 J-0.032 K0.000 F900.000
G1 X10.001 Y10.001 Z-6.000 F900.000
G3 X13.000 Y10.000 Z-6.000 I1.516 J65.822 K0.000 F900.000
G1 X13.000 Y292.000 Z-6.000 F900.000
G2 X16.000 Y295.000 Z-6.000 I3.000 J-0.000 K0.000 F900.000
G1 X242.000 Y295.000 Z-6.000 F900.000
G2 X245.000 Y292.000 Z-6.000 I-0.000 J-3.000 K0.000 F900.000
G1 X245.000 Y10.000 Z-6.000 F900.000
G3 X247.999 Y10.001 Z-6.000 I1.485 J76.344 K0.000 F900.000
G1 X247.999 Y10.002 Z-6.000 F900.000
G3 X248.000 Y10.035 Z-6.000 I-0.340 J0.026 K0.000 F900.000
G3 X248.000 Y296.500 Z-6.000 I-5249534.512 J141.075 K0.000 F900.000
G0 Z5.000
G0 X246.500 Y296.500 Z5.000
G0 X246.500 Y296.500 Z3.000
G1 X246.500 Y296.500 Z-6.000 F60.000
G1 X11.500 Y296.500 Z-6.000 F900.000
G1 X11.500 Y292.000 Z-6.000 F900.000
G2 X16.000 Y296.500 Z-6.000 I4.500 J-0.000 K0.000 F900.000
G1 X242.000 Y296.500 Z-6.000 F900.000
G2 X246.500 Y292.000 Z-6.000 I0.000 J-4.500 K0.000 F900.000
G1 X246.500 Y296.500 Z-6.000 F900.000
G1 X246.500 Y296.500 Z-8.000 F60.000
G1 X11.500 Y296.500 Z-8.000 F900.000
G1 X11.500 Y292.000 Z-8.000 F900.000
G2 X16.000 Y296.500 Z-8.000 I4.500 J-0.000 K0.000 F900.000
G1 X242.000 Y296.500 Z-8.000 F900.000
G2 X246.500 Y292.000 Z-8.000 I0.000 J-4.500 K0.000 F900.000
G1 X246.500 Y296.500 Z-8.000 F900.000
G0 Z5.000
G0 X248.000 Y296.500 Z5.000
G0 X248.000 Y296.500 Z3.000
G1 X248.000 Y296.500 Z-8.000 F60.000
G3 X248.000 Y297.984 Z-8.000 I-5249534.512 J-145.389 K0.000 F900.000
G3 X247.966 Y298.000 Z-8.000 I-0.018 J0.005 K0.000 F900.000
G3 X10.003 Y298.000 Z-8.000 I-116.011 J-1552027.941 K0.000 F900.000
G3 X10.000 Y297.956 Z-8.000 I0.127 J-0.032 K0.000 F900.000
G1 X10.001 Y10.001 Z-8.000 F900.000
G3 X13.000 Y10.000 Z-8.000 I1.516 J65.822 K0.000 F900.000
G1 X13.000 Y292.000 Z-8.000 F900.000
G2 X16.000 Y295.000 Z-8.000 I3.000 J-0.000 K0.000 F900.000
G1 X242.000 Y295.000 Z-8.000 F900.000
G2 X245.000 Y292.000 Z-8.000 I-0.000 J-3.000 K0.000 F900.000
G1 X245.000 Y10.000 Z-8.000 F900.000
G3 X247.999 Y10.001 Z-8.000 I1.485 J76.344 K0.000 F900.000
G1 X247.999 Y10.002 Z-8.000 F900.000
G3 X248.000 Y10.035 Z-8.000 I-0.340 J0.026 K0.000 F900.000
G3 X248.000 Y296.500 Z-8.000 I-5249534.512 J141.075 K0.000 F900.000
G1 X248.000 Y296.500 Z-10.000 F60.000
G3 X248.000 Y297.984 Z-10.000 I-5249534.512 J-145.389 K0.000 F900.000
G3 X247.966 Y298.000 Z-10.000 I-0.018 J0.005 K0.000 F900.000
G3 X10.003 Y298.000 Z-10.000 I-116.011 J-1552027.941 K0.000 F900.000
G3 X10.000 Y297.956 Z-10.000 I0.127 J-0.032 K0.000 F900.000
G1 X10.001 Y10.001 Z-10.000 F900.000
G3 X13.000 Y10.000 Z-10.000 I1.516 J65.822 K0.000 F900.000
G1 X13.000 Y292.000 Z-10.000 F900.000
G2 X16.000 Y295.000 Z-10.000 I3.000 J-0.000 K0.000 F900.000
G1 X242.000 Y295.000 Z-10.000 F900.000
G2 X245.000 Y292.000 Z-10.000 I-0.000 J-3.000 K0.000 F900.000
G1 X245.000 Y10.000 Z-10.000 F900.000
G3 X247.999 Y10.001 Z-10.000 I1.485 J76.344 K0.000 F900.000
G1 X247.999 Y10.002 Z-10.000 F900.000
G3 X248.000 Y10.035 Z-10.000 I-0.340 J0.026 K0.000 F900.000
G3 X248.000 Y296.500 Z-10.000 I-5249534.512 J141.075 K0.000 F900.000
G0 Z5.000
G0 X246.500 Y296.500 Z5.000
G0 X246.500 Y296.500 Z3.000
G1 X246.500 Y296.500 Z-10.000 F60.000
G1 X11.500 Y296.500 Z-10.000 F900.000
G1 X11.500 Y292.000 Z-10.000 F900.000
G2 X16.000 Y296.500 Z-10.000 I4.500 J-0.000 K0.000 F900.000
G1 X242.000 Y296.500 Z-10.000 F900.000
G2 X246.500 Y292.000 Z-10.000 I0.000 J-4.500 K0.000 F900.000
G1 X246.500 Y296.500 Z-10.000 F900.000
G1 X246.500 Y296.500 Z-12.000 F60.000
G1 X11.500 Y296.500 Z-12.000 F900.000
G1 X11.500 Y292.000 Z-12.000 F900.000
G2 X16.000 Y296.500 Z-12.000 I4.500 J-0.000 K0.000 F900.000
G1 X242.000 Y296.500 Z-12.000 F900.000
G2 X246.500 Y292.000 Z-12.000 I0.000 J-4.500 K0.000 F900.000
G1 X246.500 Y296.500 Z-12.000 F900.000
G0 Z5.000
G0 X248.000 Y296.500 Z5.000
G0 X248.000 Y296.500 Z3.000
G1 X248.000 Y296.500 Z-12.000 F60.000
G3 X248.000 Y297.984 Z-12.000 I-5249534.512 J-145.389 K0.000 F900.000
G3 X247.966 Y298.000 Z-12.000 I-0.018 J0.005 K0.000 F900.000
G3 X10.003 Y298.000 Z-12.000 I-116.011 J-1552027.941 K0.000 F900.000
G3 X10.000 Y297.956 Z-12.000 I0.127 J-0.032 K0.000 F900.000
G1 X10.001 Y10.001 Z-12.000 F900.000
G3 X13.000 Y10.000 Z-12.000 I1.516 J65.822 K0.000 F900.000
G1 X13.000 Y292.000 Z-12.000 F900.000
G2 X16.000 Y295.000 Z-12.000 I3.000 J-0.000 K0.000 F900.000
G1 X242.000 Y295.000 Z-12.000 F900.000
G2 X245.000 Y292.000 Z-12.000 I-0.000 J-3.000 K0.000 F900.000
G1 X245.000 Y10.000 Z-12.000 F900.000
G3 X247.999 Y10.001 Z-12.000 I1.485 J76.344 K0.000 F900.000
G1 X247.999 Y10.002 Z-12.000 F900.000
G3 X248.000 Y10.035 Z-12.000 I-0.340 J0.026 K0.000 F900.000
G3 X248.000 Y296.500 Z-12.000 I-5249534.512 J141.075 K0.000 F900.000
G1 X248.000 Y296.500 Z-12.500 F60.000
G3 X248.000 Y297.984 Z-12.500 I-5249534.512 J-145.389 K0.000 F900.000
G3 X247.966 Y298.000 Z-12.500 I-0.018 J0.005 K0.000 F900.000
G3 X10.003 Y298.000 Z-12.500 I-116.011 J-1552027.941 K0.000 F900.000
G3 X10.000 Y297.956 Z-12.500 I0.127 J-0.032 K0.000 F900.000
G1 X10.001 Y10.001 Z-12.500 F900.000
G3 X13.000 Y10.000 Z-12.500 I1.516 J65.822 K0.000 F900.000
G1 X13.000 Y292.000 Z-12.500 F900.000
G2 X16.000 Y295.000 Z-12.500 I3.000 J-0.000 K0.000 F900.000
G1 X242.000 Y295.000 Z-12.500 F900.000
G2 X245.000 Y292.000 Z-12.500 I-0.000 J-3.000 K0.000 F900.000
G1 X245.000 Y10.000 Z-12.500 F900.000
G3 X247.999 Y10.001 Z-12.500 I1.485 J76.344 K0.000 F900.000
G1 X247.999 Y10.002 Z-12.500 F900.000
G3 X248.000 Y10.035 Z-12.500 I-0.340 J0.026 K0.000 F900.000
G3 X248.000 Y296.500 Z-12.500 I-5249534.512 J141.075 K0.000 F900.000
G0 Z5.000
G0 X246.500 Y296.500 Z5.000
G0 X246.500 Y296.500 Z3.000
G1 X246.500 Y296.500 Z-12.500 F60.000
G1 X11.500 Y296.500 Z-12.500 F900.000
G1 X11.500 Y292.000 Z-12.500 F900.000
G2 X16.000 Y296.500 Z-12.500 I4.500 J-0.000 K0.000 F900.000
G1 X242.000 Y296.500 Z-12.500 F900.000
G2 X246.500 Y292.000 Z-12.500 I0.000 J-4.500 K0.000 F900.000
G1 X246.500 Y296.500 Z-12.500 F900.000
G0 Z5.000
G0 Z5.000
(Begin operation: DressupTag)
G0 Z5.000
G0 X250.121 Y300.121 Z5.000
G0 X250.121 Y300.121 Z3.000
G1 X250.121 Y300.121 Z-2.000 F60.000
G2 X251.000 Y298.000 Z-2.000 I-2.121 J-2.121 K0.000 F900.000
G1 X251.000 Y10.000 Z-2.000 F900.000
G2 X248.000 Y7.000 Z-2.000 I-3.000 J0.000 K0.000 F900.000
G1 X10.000 Y7.000 Z-2.000 F900.000
G2 X7.000 Y10.000 Z-2.000 I0.000 J3.000 K0.000 F900.000
G1 X7.000 Y298.000 Z-2.000 F900.000
G2 X10.000 Y301.000 Z-2.000 I3.000 J-0.000 K0.000 F900.000
G1 X248.000 Y301.000 Z-2.000 F900.000
G2 X250.121 Y300.121 Z-2.000 I-0.000 J-3.000 K0.000 F900.000
G1 X250.121 Y300.121 Z-4.000 F60.000
G2 X251.000 Y298.000 Z-4.000 I-2.121 J-2.121 K0.000 F900.000
G1 X251.000 Y10.000 Z-4.000 F900.000
G2 X248.000 Y7.000 Z-4.000 I-3.000 J0.000 K0.000 F900.000
G1 X10.000 Y7.000 Z-4.000 F900.000
G2 X7.000 Y10.000 Z-4.000 I0.000 J3.000 K0.000 F900.000
G1 X7.000 Y298.000 Z-4.000 F900.000
G2 X10.000 Y301.000 Z-4.000 I3.000 J-0.000 K0.000 F900.000
G1 X248.000 Y301.000 Z-4.000 F900.000
G2 X250.121 Y300.121 Z-4.000 I-0.000 J-3.000 K0.000 F900.000
G1 X250.121 Y300.121 Z-6.000 F60.000
G2 X251.000 Y298.000 Z-6.000 I-2.121 J-2.121 K0.000 F900.000
G1 X251.000 Y10.000 Z-6.000 F900.000
G2 X248.000 Y7.000 Z-6.000 I-3.000 J0.000 K0.000 F900.000
G1 X10.000 Y7.000 Z-6.000 F900.000
G2 X7.000 Y10.000 Z-6.000 I0.000 J3.000 K0.000 F900.000
G1 X7.000 Y298.000 Z-6.000 F900.000
G2 X10.000 Y301.000 Z-6.000 I3.000 J-0.000 K0.000 F900.000
G1 X248.000 Y301.000 Z-6.000 F900.000
G2 X250.121 Y300.121 Z-6.000 I-0.000 J-3.000 K0.000 F900.000
G1 X250.121 Y300.121 Z-8.000 F60.000
G2 X251.000 Y298.000 Z-8.000 I-2.121 J-2.121 K0.000 F900.000
G1 X251.000 Y10.000 Z-8.000 F900.000
G2 X248.000 Y7.000 Z-8.000 I-3.000 J0.000 K0.000 F900.000
G1 X10.000 Y7.000 Z-8.000 F900.000
G2 X7.000 Y10.000 Z-8.000 I0.000 J3.000 K0.000 F900.000
G1 X7.000 Y298.000 Z-8.000 F900.000
G2 X10.000 Y301.000 Z-8.000 I3.000 J-0.000 K0.000 F900.000
G1 X248.000 Y301.000 Z-8.000 F900.000
G2 X250.121 Y300.121 Z-8.000 I-0.000 J-3.000 K0.000 F900.000
G1 X250.121 Y300.121 Z-10.000 F60.000
G2 X251.000 Y298.000 Z-10.000 I-2.121 J-2.121 K0.000 F900.000
G1 X251.000 Y10.000 Z-10.000 F900.000
G2 X248.000 Y7.000 Z-10.000 I-3.000 J0.000 K0.000 F900.000
G1 X10.000 Y7.000 Z-10.000 F900.000
G2 X7.000 Y10.000 Z-10.000 I0.000 J3.000 K0.000 F900.000
G1 X7.000 Y298.000 Z-10.000 F900.000
G2 X10.000 Y301.000 Z-10.000 I3.000 J-0.000 K0.000 F900.000
G1 X248.000 Y301.000 Z-10.000 F900.000
G2 X250.121 Y300.121 Z-10.000 I-0.000 J-3.000 K0.000 F900.000
G1 X250.121 Y300.121 Z-12.000 F60.000
G2 X251.000 Y298.000 Z-12.000 I-2.121 J-2.121 K0.000 F900.000
G1 X251.000 Y10.000 Z-12.000 F900.000
G2 X248.000 Y7.000 Z-12.000 I-3.000 J0.000 K0.000 F900.000
G1 X10.000 Y7.000 Z-12.000 F900.000
G2 X7.000 Y10.000 Z-12.000 I0.000 J3.000 K0.000 F900.000
G1 X7.000 Y298.000 Z-12.000 F900.000
G2 X10.000 Y301.000 Z-12.000 I3.000 J-0.000 K0.000 F900.000
G1 X248.000 Y301.000 Z-12.000 F900.000
G2 X250.121 Y300.121 Z-12.000 I-0.000 J-3.000 K0.000 F900.000
G1 X250.121 Y300.121 Z-14.000 F60.000
G2 X251.000 Y298.000 Z-14.000 I-2.121 J-2.121 K0.000 F900.000
G1 X251.000 Y228.920 Z-14.000 F900.000
G1 X251.000 Y226.920 Z-12.000 F480.000
G1 X251.000 Y225.080 Z-12.000 F900.000
G1 X251.000 Y223.080 Z-14.000 F480.000
G1 X251.000 Y84.920 Z-14.000 F900.000
G1 X251.000 Y82.920 Z-12.000 F480.000
G1 X251.000 Y81.080 Z-12.000 F900.000
G1 X251.000 Y79.080 Z-14.000 F480.000
G1 X251.000 Y10.000 Z-14.000 F900.000
G2 X248.000 Y7.000 Z-14.000 I-3.000 J0.000 K0.000 F900.000
G1 X10.000 Y7.000 Z-14.000 F900.000
G2 X7.000 Y10.000 Z-14.000 I0.000 J3.000 K0.000 F900.000
G1 X7.000 Y79.080 Z-14.000 F900.000
G1 X7.000 Y81.080 Z-12.000 F480.000
G1 X7.000 Y82.920 Z-12.000 F900.000
G1 X7.000 Y84.920 Z-14.000 F480.000
G1 X7.000 Y223.080 Z-14.000 F900.000
G1 X7.000 Y225.080 Z-12.000 F480.000
G1 X7.000 Y226.920 Z-12.000 F900.000
G1 X7.000 Y228.920 Z-14.000 F480.000
G1 X7.000 Y298.000 Z-14.000 F900.000
G2 X10.000 Y301.000 Z-14.000 I3.000 J-0.000 K0.000 F900.000
G1 X248.000 Y301.000 Z-14.000 F900.000
G2 X250.121 Y300.121 Z-14.000 I-0.000 J-3.000 K0.000 F900.000
G1 X250.121 Y300.121 Z-16.000 F60.000
G2 X251.000 Y298.000 Z-16.000 I-2.121 J-2.121 K0.000 F900.000
G1 X251.000 Y230.920 Z-16.000 F900.000
G1 X251.000 Y226.920 Z-12.000 F480.000
G1 X251.000 Y225.080 Z-12.000 F900.000
G1 X251.000 Y221.080 Z-16.000 F480.000
G1 X251.000 Y86.920 Z-16.000 F900.000
G1 X251.000 Y82.920 Z-12.000 F480.000
G1 X251.000 Y81.080 Z-12.000 F900.000
G1 X251.000 Y77.080 Z-16.000 F480.000
G1 X251.000 Y10.000 Z-16.000 F900.000
G2 X248.000 Y7.000 Z-16.000 I-3.000 J0.000 K0.000 F900.000
G1 X10.000 Y7.000 Z-16.000 F900.000
G2 X7.000 Y10.000 Z-16.000 I0.000 J3.000 K0.000 F900.000
G1 X7.000 Y77.080 Z-16.000 F900.000
G1 X7.000 Y81.080 Z-12.000 F480.000
G1 X7.000 Y82.920 Z-12.000 F900.000
G1 X7.000 Y86.920 Z-16.000 F480.000
G1 X7.000 Y221.080 Z-16.000 F900.000
G1 X7.000 Y225.080 Z-12.000 F480.000
G1 X7.000 Y226.920 Z-12.000 F900.000
G1 X7.000 Y230.920 Z-16.000 F480.000
G1 X7.000 Y298.000 Z-16.000 F900.000
G2 X10.000 Y301.000 Z-16.000 I3.000 J-0.000 K0.000 F900.000
G1 X248.000 Y301.000 Z-16.000 F900.000
G2 X250.121 Y300.121 Z-16.000 I-0.000 J-3.000 K0.000 F900.000
G1 X250.121 Y300.121 Z-18.000 F60.000
G2 X251.000 Y298.000 Z-18.000 I-2.121 J-2.121 K0.000 F900.000
G1 X251.000 Y232.920 Z-18.000 F900.000
G1 X251.000 Y226.920 Z-12.000 F480.000
G1 X251.000 Y225.080 Z-12.000 F900.000
G1 X251.000 Y219.080 Z-18.000 F480.000
G1 X251.000 Y88.920 Z-18.000 F900.000
G1 X251.000 Y82.920 Z-12.000 F480.000
G1 X251.000 Y81.080 Z-12.000 F900.000
G1 X251.000 Y75.080 Z-18.000 F480.000
G1 X251.000 Y10.000 Z-18.000 F900.000
G2 X248.000 Y7.000 Z-18.000 I-3.000 J0.000 K0.000 F900.000
G1 X10.000 Y7.000 Z-18.000 F900.000
G2 X7.000 Y10.000 Z-18.000 I0.000 J3.000 K0.000 F900.000
G1 X7.000 Y75.080 Z-18.000 F900.000
G1 X7.000 Y81.080 Z-12.000 F480.000
G1 X7.000 Y82.920 Z-12.000 F900.000
G1 X7.000 Y88.920 Z-18.000 F480.000
G1 X7.000 Y219.080 Z-18.000 F900.000
G1 X7.000 Y225.080 Z-12.000 F480.000
G1 X7.000 Y226.920 Z-12.000 F900.000
G1 X7.000 Y232.920 Z-18.000 F480.000
G1 X7.000 Y298.000 Z-18.000 F900.000
G2 X10.000 Y301.000 Z-18.000 I3.000 J-0.000 K0.000 F900.000
G1 X248.000 Y301.000 Z-18.000 F900.000
G2 X250.121 Y300.121 Z-18.000 I-0.000 J-3.000 K0.000 F900.000
G1 X250.121 Y300.121 Z-20.000 F60.000
G2 X251.000 Y298.000 Z-20.000 I-2.121 J-2.121 K0.000 F900.000
G1 X251.000 Y234.920 Z-20.000 F900.000
G1 X251.000 Y226.920 Z-12.000 F480.000
G1 X251.000 Y225.080 Z-12.000 F900.000
G1 X251.000 Y217.080 Z-20.000 F480.000
G1 X251.000 Y90.920 Z-20.000 F900.000
G1 X251.000 Y82.920 Z-12.000 F480.000
G1 X251.000 Y81.080 Z-12.000 F900.000
G1 X251.000 Y73.080 Z-20.000 F480.000
G1 X251.000 Y10.000 Z-20.000 F900.000
G2 X248.000 Y7.000 Z-20.000 I-3.000 J0.000 K0.000 F900.000
G1 X10.000 Y7.000 Z-20.000 F900.000
G2 X7.000 Y10.000 Z-20.000 I0.000 J3.000 K0.000 F900.000
G1 X7.000 Y73.080 Z-20.000 F900.000
G1 X7.000 Y81.080 Z-12.000 F480.000
G1 X7.000 Y82.920 Z-12.000 F900.000
G1 X7.000 Y90.920 Z-20.000 F480.000
G1 X7.000 Y217.080 Z-20.000 F900.000
G1 X7.000 Y225.080 Z-12.000 F480.000
G1 X7.000 Y226.920 Z-12.000 F900.000
G1 X7.000 Y234.920 Z-20.000 F480.000
G1 X7.000 Y298.000 Z-20.000 F900.000
G2 X10.000 Y301.000 Z-20.000 I3.000 J-0.000 K0.000 F900.000
G1 X248.000 Y301.000 Z-20.000 F900.000
G2 X250.121 Y300.121 Z-20.000 I-0.000 J-3.000 K0.000 F900.000
G0 X250.121 Y300.121 Z5.000
(Begin operation: Pocket_Shape005)
(Pocket_Shape005)
G0 Z5.000
G0 X318.800 Y245.800
G0 Z3.000
G1 X318.800 Y245.800 Z-2.000 F60.000
G1 X317.200 Y245.800 Z-2.000 F900.000
G1 X317.200 Y12.200 Z-2.000 F900.000
G1 X318.800 Y12.200 Z-2.000 F900.000
G1 X318.800 Y245.800 Z-2.000 F900.000
G1 X318.800 Y245.800 Z-4.000 F60.000
G1 X317.200 Y245.800 Z-4.000 F900.000
G1 X317.200 Y12.200 Z-4.000 F900.000
G1 X318.800 Y12.200 Z-4.000 F900.000
G1 X318.800 Y245.800 Z-4.000 F900.000
G1 X318.800 Y245.800 Z-6.000 F60.000
G1 X317.200 Y245.800 Z-6.000 F900.000
G1 X317.200 Y12.200 Z-6.000 F900.000
G1 X318.800 Y12.200 Z-6.000 F900.000
G1 X318.800 Y245.800 Z-6.000 F900.000
G1 X318.800 Y245.800 Z-6.500 F60.000
G1 X317.200 Y245.800 Z-6.500 F900.000
G1 X317.200 Y12.200 Z-6.500 F900.000
G1 X318.800 Y12.200 Z-6.500 F900.000
G1 X318.800 Y245.800 Z-6.500 F900.000
G0 Z5.000
G0 Z5.000
(Begin operation: DressupTag001)
G0 Z5.000
G0 X335.121 Y250.121 Z5.000
G0 X335.121 Y250.121 Z3.000
G1 X335.121 Y250.121 Z-2.000 F60.000
G2 X336.000 Y248.000 Z-2.000 I-2.121 J-2.121 K0.000 F900.000
G1 X336.000 Y10.000 Z-2.000 F900.000
G2 X333.000 Y7.000 Z-2.000 I-3.000 J0.000 K0.000 F900.000
G1 X258.000 Y7.000 Z-2.000 F900.000
G2 X255.000 Y10.000 Z-2.000 I0.000 J3.000 K0.000 F900.000
G1 X255.000 Y248.000 Z-2.000 F900.000
G2 X258.000 Y251.000 Z-2.000 I3.000 J-0.000 K0.000 F900.000
G1 X333.000 Y251.000 Z-2.000 F900.000
G2 X335.121 Y250.121 Z-2.000 I-0.000 J-3.000 K0.000 F900.000
G1 X335.121 Y250.121 Z-4.000 F60.000
G2 X336.000 Y248.000 Z-4.000 I-2.121 J-2.121 K0.000 F900.000
G1 X336.000 Y10.000 Z-4.000 F900.000
G2 X333.000 Y7.000 Z-4.000 I-3.000 J0.000 K0.000 F900.000
G1 X258.000 Y7.000 Z-4.000 F900.000
G2 X255.000 Y10.000 Z-4.000 I0.000 J3.000 K0.000 F900.000
G1 X255.000 Y248.000 Z-4.000 F900.000
G2 X258.000 Y251.000 Z-4.000 I3.000 J-0.000 K0.000 F900.000
G1 X333.000 Y251.000 Z-4.000 F900.000
G2 X335.121 Y250.121 Z-4.000 I-0.000 J-3.000 K0.000 F900.000
G1 X335.121 Y250.121 Z-6.000 F60.000
G2 X336.000 Y248.000 Z-6.000 I-2.121 J-2.121 K0.000 F900.000
G1 X336.000 Y10.000 Z-6.000 F900.000
G2 X333.000 Y7.000 Z-6.000 I-3.000 J0.000 K0.000 F900.000
G1 X258.000 Y7.000 Z-6.000 F900.000
G2 X255.000 Y10.000 Z-6.000 I0.000 J3.000 K0.000 F900.000
G1 X255.000 Y248.000 Z-6.000 F900.000
G2 X258.000 Y251.000 Z-6.000 I3.000 J-0.000 K0.000 F900.000
G1 X333.000 Y251.000 Z-6.000 F900.000
G2 X335.121 Y250.121 Z-6.000 I-0.000 J-3.000 K0.000 F900.000
G1 X335.121 Y250.121 Z-8.000 F60.000
G2 X336.000 Y248.000 Z-8.000 I-2.121 J-2.121 K0.000 F900.000
G1 X336.000 Y10.000 Z-8.000 F900.000
G2 X333.000 Y7.000 Z-8.000 I-3.000 J0.000 K0.000 F900.000
G1 X258.000 Y7.000 Z-8.000 F900.000
G2 X255.000 Y10.000 Z-8.000 I0.000 J3.000 K0.000 F900.000
G1 X255.000 Y248.000 Z-8.000 F900.000
G2 X258.000 Y251.000 Z-8.000 I3.000 J-0.000 K0.000 F900.000
G1 X333.000 Y251.000 Z-8.000 F900.000
G2 X335.121 Y250.121 Z-8.000 I-0.000 J-3.000 K0.000 F900.000
G1 X335.121 Y250.121 Z-10.000 F60.000
G2 X336.000 Y248.000 Z-10.000 I-2.121 J-2.121 K0.000 F900.000
G1 X336.000 Y10.000 Z-10.000 F900.000
G2 X333.000 Y7.000 Z-10.000 I-3.000 J0.000 K0.000 F900.000
G1 X258.000 Y7.000 Z-10.000 F900.000
G2 X255.000 Y10.000 Z-10.000 I0.000 J3.000 K0.000 F900.000
G1 X255.000 Y248.000 Z-10.000 F900.000
G2 X258.000 Y251.000 Z-10.000 I3.000 J-0.000 K0.000 F900.000
G1 X333.000 Y251.000 Z-10.000 F900.000
G2 X335.121 Y250.121 Z-10.000 I-0.000 J-3.000 K0.000 F900.000
G1 X335.121 Y250.121 Z-12.000 F60.000
G2 X336.000 Y248.000 Z-12.000 I-2.121 J-2.121 K0.000 F900.000
G1 X336.000 Y10.000 Z-12.000 F900.000
G2 X333.000 Y7.000 Z-12.000 I-3.000 J0.000 K0.000 F900.000
G1 X258.000 Y7.000 Z-12.000 F900.000
G2 X255.000 Y10.000 Z-12.000 I0.000 J3.000 K0.000 F900.000
G1 X255.000 Y248.000 Z-12.000 F900.000
G2 X258.000 Y251.000 Z-12.000 I3.000 J-0.000 K0.000 F900.000
G1 X333.000 Y251.000 Z-12.000 F900.000
G2 X335.121 Y250.121 Z-12.000 I-0.000 J-3.000 K0.000 F900.000
G1 X335.121 Y250.121 Z-14.000 F60.000
G2 X336.000 Y248.000 Z-14.000 I-2.121 J-2.121 K0.000 F900.000
G1 X336.000 Y190.479 Z-14.000 F900.000
G1 X336.000 Y188.500 Z-12.001 F477.340
G1 X336.000 Y186.521 Z-14.000 F477.340
G1 X336.000 Y71.479 Z-14.000 F900.000
G1 X336.000 Y69.500 Z-12.001 F477.340
G1 X336.000 Y67.521 Z-14.000 F477.340
G1 X336.000 Y10.000 Z-14.000 F900.000
G2 X333.000 Y7.000 Z-14.000 I-3.000 J0.000 K0.000 F900.000
G1 X258.000 Y7.000 Z-14.000 F900.000
G2 X255.000 Y10.000 Z-14.000 I0.000 J3.000 K0.000 F900.000
G1 X255.000 Y67.521 Z-14.000 F900.000
G1 X255.000 Y69.500 Z-12.001 F477.340
G1 X255.000 Y71.479 Z-14.000 F477.340
G1 X255.000 Y186.521 Z-14.000 F900.000
G1 X255.000 Y188.500 Z-12.001 F477.340
G1 X255.000 Y190.479 Z-14.000 F477.340
G1 X255.000 Y248.000 Z-14.000 F900.000
G2 X258.000 Y251.000 Z-14.000 I3.000 J-0.000 K0.000 F900.000
G1 X333.000 Y251.000 Z-14.000 F900.000
G2 X335.121 Y250.121 Z-14.000 I-0.000 J-3.000 K0.000 F900.000
G1 X335.121 Y250.121 Z-16.000 F60.000
G2 X336.000 Y248.000 Z-16.000 I-2.121 J-2.121 K0.000 F900.000
G1 X336.000 Y192.460 Z-16.000 F900.000
G1 X336.000 Y188.500 Z-12.001 F477.340
G1 X336.000 Y184.540 Z-16.000 F477.340
G1 X336.000 Y73.460 Z-16.000 F900.000
G1 X336.000 Y69.500 Z-12.001 F477.340
G1 X336.000 Y65.540 Z-16.000 F477.340
G1 X336.000 Y10.000 Z-16.000 F900.000
G2 X333.000 Y7.000 Z-16.000 I-3.000 J0.000 K0.000 F900.000
G1 X258.000 Y7.000 Z-16.000 F900.000
G2 X255.000 Y10.000 Z-16.000 I0.000 J3.000 K0.000 F900.000
G1 X255.000 Y65.540 Z-16.000 F900.000
G1 X255.000 Y69.500 Z-12.001 F477.340
G1 X255.000 Y73.460 Z-16.000 F477.340
G1 X255.000 Y184.540 Z-16.000 F900.000
G1 X255.000 Y188.500 Z-12.001 F477.340
G1 X255.000 Y192.460 Z-16.000 F477.340
G1 X255.000 Y248.000 Z-16.000 F900.000
G2 X258.000 Y251.000 Z-16.000 I3.000 J-0.000 K0.000 F900.000
G1 X333.000 Y251.000 Z-16.000 F900.000
G2 X335.121 Y250.121 Z-16.000 I-0.000 J-3.000 K0.000 F900.000
G1 X335.121 Y250.121 Z-18.000 F60.000
G2 X336.000 Y248.000 Z-18.000 I-2.121 J-2.121 K0.000 F900.000
G1 X336.000 Y194.440 Z-18.000 F900.000
G1 X336.000 Y188.500 Z-12.001 F477.340
G1 X336.000 Y182.560 Z-18.000 F477.340
G1 X336.000 Y75.440 Z-18.000 F900.000
G1 X336.000 Y69.500 Z-12.001 F477.340
G1 X336.000 Y63.560 Z-18.000 F477.340
G1 X336.000 Y10.000 Z-18.000 F900.000
G2 X333.000 Y7.000 Z-18.000 I-3.000 J0.000 K0.000 F900.000
G1 X258.000 Y7.000 Z-18.000 F900.000
G2 X255.000 Y10.000 Z-18.000 I0.000 J3.000 K0.000 F900.000
G1 X255.000 Y63.560 Z-18.000 F900.000
G1 X255.000 Y69.500 Z-12.001 F477.340
G1 X255.000 Y75.440 Z-18.000 F477.340
G1 X255.000 Y182.560 Z-18.000 F900.000
G1 X255.000 Y188.500 Z-12.001 F477.340
G1 X255.000 Y194.440 Z-18.000 F477.340
G1 X255.000 Y248.000 Z-18.000 F900.000
G2 X258.000 Y251.000 Z-18.000 I3.000 J-0.000 K0.000 F900.000
G1 X333.000 Y251.000 Z-18.000 F900.000
G2 X335.121 Y250.121 Z-18.000 I-0.000 J-3.000 K0.000 F900.000
G1 X335.121 Y250.121 Z-20.000 F60.000
G2 X336.000 Y248.000 Z-20.000 I-2.121 J-2.121 K0.000 F900.000
G1 X336.000 Y196.420 Z-20.000 F900.000
G1 X336.000 Y188.500 Z-12.001 F477.340
G1 X336.000 Y180.580 Z-20.000 F477.340
G1 X336.000 Y77.420 Z-20.000 F900.000
G1 X336.000 Y69.500 Z-12.001 F477.340
G1 X336.000 Y61.580 Z-20.000 F477.340
G1 X336.000 Y10.000 Z-20.000 F900.000
G2 X333.000 Y7.000 Z-20.000 I-3.000 J0.000 K0.000 F900.000
G1 X258.000 Y7.000 Z-20.000 F900.000
G2 X255.000 Y10.000 Z-20.000 I0.000 J3.000 K0.000 F900.000
G1 X255.000 Y61.580 Z-20.000 F900.000
G1 X255.000 Y69.500 Z-12.001 F477.340
G1 X255.000 Y77.420 Z-20.000 F477.340
G1 X255.000 Y180.580 Z-20.000 F900.000
G1 X255.000 Y188.500 Z-12.001 F477.340
G1 X255.000 Y196.420 Z-20.000 F477.340
G1 X255.000 Y248.000 Z-20.000 F900.000
G2 X258.000 Y251.000 Z-20.000 I3.000 J-0.000 K0.000 F900.000
G1 X333.000 Y251.000 Z-20.000 F900.000
G2 X335.121 Y250.121 Z-20.000 I-0.000 J-3.000 K0.000 F900.000
G1 X335.121 Y250.121 Z-20.000 F60.000
G2 X336.000 Y248.000 Z-20.000 I-2.121 J-2.121 K0.000 F900.000
G1 X336.000 Y196.420 Z-20.000 F900.000
G1 X336.000 Y188.500 Z-12.001 F477.340
G1 X336.000 Y180.580 Z-20.000 F477.340
G1 X336.000 Y77.420 Z-20.000 F900.000
G1 X336.000 Y69.500 Z-12.001 F477.340
G1 X336.000 Y61.580 Z-20.000 F477.340
G1 X336.000 Y10.000 Z-20.000 F900.000
G2 X333.000 Y7.000 Z-20.000 I-3.000 J0.000 K0.000 F900.000
G1 X258.000 Y7.000 Z-20.000 F900.000
G2 X255.000 Y10.000 Z-20.000 I0.000 J3.000 K0.000 F900.000
G1 X255.000 Y61.580 Z-20.000 F900.000
G1 X255.000 Y69.500 Z-12.001 F477.340
G1 X255.000 Y77.420 Z-20.000 F477.340
G1 X255.000 Y180.580 Z-20.000 F900.000
G1 X255.000 Y188.500 Z-12.001 F477.340
G1 X255.000 Y196.420 Z-20.000 F477.340
G1 X255.000 Y248.000 Z-20.000 F900.000
G2 X258.000 Y251.000 Z-20.000 I3.000 J-0.000 K0.000 F900.000
G1 X333.000 Y251.000 Z-20.000 F900.000
G2 X335.121 Y250.121 Z-20.000 I-0.000 J-3.000 K0.000 F900.000
G0 X335.121 Y250.121 Z5.000
(Begin postamble)
M5
