(Exported by FreeCAD)
(Post Processor: marlin_post.py, version: 2020-11-03)
(Output Time:2023-11-11 16:07:14.855962)
(Begin preamble)
(Default Configuration)
G90
G21
G17
(Begin operation: TC: Endmill D=3.9 (4.0), H=9.5, S=8)
(TC: Endmill D=3.9 4.0), H=9.5, S=8)
(Begin toolchange)
(M6 T20.0)
(Begin operation: 4mm_otwory)
(Profile004)
(Compensated Tool Path. Diameter: 3.9)
G0 Z5.000
G0 X385.384 Y75.384
G0 Z3.000
G1 X385.384 Y75.384 Z-1.300 F60.000
G2 X385.029 Y74.458 Z-1.300 I-0.384 J-0.384 K0.000 F600.000
G1 X384.937 Y74.461 Z-1.300 F600.000
G2 X385.019 Y75.543 Z-1.300 I0.063 J0.539 K0.000 F600.000
G2 X385.384 Y75.384 Z-1.300 I-0.019 J-0.543 K0.000 F600.000
G0 Z5.000
G0 X385.004 Y20.543 Z5.000
G0 X385.004 Y20.543 Z3.000
G1 X385.004 Y20.543 Z-1.300 F60.000
G2 X385.019 Y20.543 Z-1.300 I-0.004 J-0.543 K0.000 F600.000
G2 X385.029 Y19.458 Z-1.300 I-0.019 J-0.543 K0.000 F600.000
G1 X384.937 Y19.461 Z-1.300 F600.000
G2 X385.004 Y20.543 Z-1.300 I0.063 J0.539 K0.000 F600.000
G0 Z5.000
G0 X330.543 Y20.005 Z5.000
G0 X330.543 Y20.005 Z3.000
G1 X330.543 Y20.005 Z-1.300 F60.000
G2 X330.029 Y19.458 Z-1.300 I-0.543 J-0.005 K0.000 F600.000
G1 X329.937 Y19.461 Z-1.300 F600.000
G2 X330.019 Y20.543 Z-1.300 I0.063 J0.539 K0.000 F600.000
G2 X330.543 Y20.005 Z-1.300 I-0.019 J-0.543 K0.000 F600.000
G0 Z5.000
G0 X330.029 Y74.458 Z5.000
G0 X330.029 Y74.458 Z3.000
G1 X330.029 Y74.458 Z-1.300 F60.000
G1 X329.937 Y74.461 Z-1.300 F600.000
G2 X330.019 Y75.543 Z-1.300 I0.063 J0.539 K0.000 F600.000
G2 X330.029 Y74.458 Z-1.300 I-0.019 J-0.543 K0.000 F600.000
G1 X330.029 Y74.458 Z-2.600 F60.000
G1 X329.937 Y74.461 Z-2.600 F600.000
G2 X330.019 Y75.543 Z-2.600 I0.063 J0.539 K0.000 F600.000
G2 X330.029 Y74.458 Z-2.600 I-0.019 J-0.543 K0.000 F600.000
G0 Z5.000
G0 X330.000 Y20.543 Z5.000
G0 X330.000 Y20.543 Z3.000
G1 X330.000 Y20.543 Z-2.600 F60.000
G2 X330.019 Y20.543 Z-2.600 I-0.000 J-0.543 K0.000 F600.000
G2 X330.029 Y19.458 Z-2.600 I-0.019 J-0.543 K0.000 F600.000
G1 X329.937 Y19.461 Z-2.600 F600.000
G2 X330.000 Y20.543 Z-2.600 I0.063 J0.539 K0.000 F600.000
G0 Z5.000
G0 X384.457 Y20.005 Z5.000
G0 X384.457 Y20.005 Z3.000
G1 X384.457 Y20.005 Z-2.600 F60.000
G2 X385.019 Y20.543 Z-2.600 I0.543 J-0.005 K0.000 F600.000
G2 X385.029 Y19.458 Z-2.600 I-0.019 J-0.543 K0.000 F600.000
G1 X384.937 Y19.461 Z-2.600 F600.000
G2 X384.457 Y20.005 Z-2.600 I0.063 J0.539 K0.000 F600.000
G0 Z5.000
G0 X385.029 Y74.458 Z5.000
G0 X385.029 Y74.458 Z3.000
G1 X385.029 Y74.458 Z-2.600 F60.000
G1 X384.937 Y74.461 Z-2.600 F600.000
G2 X385.019 Y75.543 Z-2.600 I0.063 J0.539 K0.000 F600.000
G2 X385.029 Y74.458 Z-2.600 I-0.019 J-0.543 K0.000 F600.000
G1 X385.029 Y74.458 Z-3.900 F60.000
G1 X384.937 Y74.461 Z-3.900 F600.000
G2 X385.019 Y75.543 Z-3.900 I0.063 J0.539 K0.000 F600.000
G2 X385.029 Y74.458 Z-3.900 I-0.019 J-0.543 K0.000 F600.000
G0 Z5.000
G0 X385.000 Y20.543 Z5.000
G0 X385.000 Y20.543 Z3.000
G1 X385.000 Y20.543 Z-3.900 F60.000
G2 X385.019 Y20.543 Z-3.900 I-0.000 J-0.543 K0.000 F600.000
G2 X385.029 Y19.458 Z-3.900 I-0.019 J-0.543 K0.000 F600.000
G1 X384.937 Y19.461 Z-3.900 F600.000
G2 X385.000 Y20.543 Z-3.900 I0.063 J0.539 K0.000 F600.000
G0 Z5.000
G0 X330.543 Y20.005 Z5.000
G0 X330.543 Y20.005 Z3.000
G1 X330.543 Y20.005 Z-3.900 F60.000
G2 X330.029 Y19.458 Z-3.900 I-0.543 J-0.005 K0.000 F600.000
G1 X329.937 Y19.461 Z-3.900 F600.000
G2 X330.019 Y20.543 Z-3.900 I0.063 J0.539 K0.000 F600.000
G2 X330.543 Y20.005 Z-3.900 I-0.019 J-0.543 K0.000 F600.000
G0 Z5.000
G0 X330.029 Y74.458 Z5.000
G0 X330.029 Y74.458 Z3.000
G1 X330.029 Y74.458 Z-3.900 F60.000
G1 X329.937 Y74.461 Z-3.900 F600.000
G2 X330.019 Y75.543 Z-3.900 I0.063 J0.539 K0.000 F600.000
G2 X330.029 Y74.458 Z-3.900 I-0.019 J-0.543 K0.000 F600.000
G1 X330.029 Y74.458 Z-5.200 F60.000
G1 X329.937 Y74.461 Z-5.200 F600.000
G2 X330.019 Y75.543 Z-5.200 I0.063 J0.539 K0.000 F600.000
G2 X330.029 Y74.458 Z-5.200 I-0.019 J-0.543 K0.000 F600.000
G0 Z5.000
G0 X330.000 Y20.543 Z5.000
G0 X330.000 Y20.543 Z3.000
G1 X330.000 Y20.543 Z-5.200 F60.000
G2 X330.019 Y20.543 Z-5.200 I-0.000 J-0.543 K0.000 F600.000
G2 X330.029 Y19.458 Z-5.200 I-0.019 J-0.543 K0.000 F600.000
G1 X329.937 Y19.461 Z-5.200 F600.000
G2 X330.000 Y20.543 Z-5.200 I0.063 J0.539 K0.000 F600.000
G0 Z5.000
G0 X384.457 Y20.005 Z5.000
G0 X384.457 Y20.005 Z3.000
G1 X384.457 Y20.005 Z-5.200 F60.000
G2 X385.019 Y20.543 Z-5.200 I0.543 J-0.005 K0.000 F600.000
G2 X385.029 Y19.458 Z-5.200 I-0.019 J-0.543 K0.000 F600.000
G1 X384.937 Y19.461 Z-5.200 F600.000
G2 X384.457 Y20.005 Z-5.200 I0.063 J0.539 K0.000 F600.000
G0 Z5.000
G0 X385.029 Y74.458 Z5.000
G0 X385.029 Y74.458 Z3.000
G1 X385.029 Y74.458 Z-5.200 F60.000
G1 X384.937 Y74.461 Z-5.200 F600.000
G2 X385.019 Y75.543 Z-5.200 I0.063 J0.539 K0.000 F600.000
G2 X385.029 Y74.458 Z-5.200 I-0.019 J-0.543 K0.000 F600.000
G1 X385.029 Y74.458 Z-6.500 F60.000
G1 X384.937 Y74.461 Z-6.500 F600.000
G2 X385.019 Y75.543 Z-6.500 I0.063 J0.539 K0.000 F600.000
G2 X385.029 Y74.458 Z-6.500 I-0.019 J-0.543 K0.000 F600.000
G0 Z5.000
G0 X385.000 Y20.543 Z5.000
G0 X385.000 Y20.543 Z3.000
G1 X385.000 Y20.543 Z-6.500 F60.000
G2 X385.019 Y20.543 Z-6.500 I-0.000 J-0.543 K0.000 F600.000
G2 X385.029 Y19.458 Z-6.500 I-0.019 J-0.543 K0.000 F600.000
G1 X384.937 Y19.461 Z-6.500 F600.000
G2 X385.000 Y20.543 Z-6.500 I0.063 J0.539 K0.000 F600.000
G0 Z5.000
G0 X330.543 Y20.005 Z5.000
G0 X330.543 Y20.005 Z3.000
G1 X330.543 Y20.005 Z-6.500 F60.000
G2 X330.029 Y19.458 Z-6.500 I-0.543 J-0.005 K0.000 F600.000
G1 X329.937 Y19.461 Z-6.500 F600.000
G2 X330.019 Y20.543 Z-6.500 I0.063 J0.539 K0.000 F600.000
G2 X330.543 Y20.005 Z-6.500 I-0.019 J-0.543 K0.000 F600.000
G0 Z5.000
G0 X330.029 Y74.458 Z5.000
G0 X330.029 Y74.458 Z3.000
G1 X330.029 Y74.458 Z-6.500 F60.000
G1 X329.937 Y74.461 Z-6.500 F600.000
G2 X330.019 Y75.543 Z-6.500 I0.063 J0.539 K0.000 F600.000
G2 X330.029 Y74.458 Z-6.500 I-0.019 J-0.543 K0.000 F600.000
G1 X330.029 Y74.458 Z-7.800 F60.000
G1 X329.937 Y74.461 Z-7.800 F600.000
G2 X330.019 Y75.543 Z-7.800 I0.063 J0.539 K0.000 F600.000
G2 X330.029 Y74.458 Z-7.800 I-0.019 J-0.543 K0.000 F600.000
G0 Z5.000
G0 X330.000 Y20.543 Z5.000
G0 X330.000 Y20.543 Z3.000
G1 X330.000 Y20.543 Z-7.800 F60.000
G2 X330.019 Y20.543 Z-7.800 I-0.000 J-0.543 K0.000 F600.000
G2 X330.029 Y19.458 Z-7.800 I-0.019 J-0.543 K0.000 F600.000
G1 X329.937 Y19.461 Z-7.800 F600.000
G2 X330.000 Y20.543 Z-7.800 I0.063 J0.539 K0.000 F600.000
G0 Z5.000
G0 X384.457 Y20.005 Z5.000
G0 X384.457 Y20.005 Z3.000
G1 X384.457 Y20.005 Z-7.800 F60.000
G2 X385.019 Y20.543 Z-7.800 I0.543 J-0.005 K0.000 F600.000
G2 X385.029 Y19.458 Z-7.800 I-0.019 J-0.543 K0.000 F600.000
G1 X384.937 Y19.461 Z-7.800 F600.000
G2 X384.457 Y20.005 Z-7.800 I0.063 J0.539 K0.000 F600.000
G0 Z5.000
G0 X385.029 Y74.458 Z5.000
G0 X385.029 Y74.458 Z3.000
G1 X385.029 Y74.458 Z-7.800 F60.000
G1 X384.937 Y74.461 Z-7.800 F600.000
G2 X385.019 Y75.543 Z-7.800 I0.063 J0.539 K0.000 F600.000
G2 X385.029 Y74.458 Z-7.800 I-0.019 J-0.543 K0.000 F600.000
G1 X385.029 Y74.458 Z-8.000 F60.000
G1 X384.937 Y74.461 Z-8.000 F600.000
G2 X385.019 Y75.543 Z-8.000 I0.063 J0.539 K0.000 F600.000
G2 X385.029 Y74.458 Z-8.000 I-0.019 J-0.543 K0.000 F600.000
G0 Z5.000
G0 X385.000 Y20.543 Z5.000
G0 X385.000 Y20.543 Z3.000
G1 X385.000 Y20.543 Z-8.000 F60.000
G2 X385.019 Y20.543 Z-8.000 I-0.000 J-0.543 K0.000 F600.000
G2 X385.029 Y19.458 Z-8.000 I-0.019 J-0.543 K0.000 F600.000
G1 X384.937 Y19.461 Z-8.000 F600.000
G2 X385.000 Y20.543 Z-8.000 I0.063 J0.539 K0.000 F600.000
G0 Z5.000
G0 X330.543 Y20.005 Z5.000
G0 X330.543 Y20.005 Z3.000
G1 X330.543 Y20.005 Z-8.000 F60.000
G2 X330.029 Y19.458 Z-8.000 I-0.543 J-0.005 K0.000 F600.000
G1 X329.937 Y19.461 Z-8.000 F600.000
G2 X330.019 Y20.543 Z-8.000 I0.063 J0.539 K0.000 F600.000
G2 X330.543 Y20.005 Z-8.000 I-0.019 J-0.543 K0.000 F600.000
G0 Z5.000
G0 X330.029 Y74.458 Z5.000
G0 X330.029 Y74.458 Z3.000
G1 X330.029 Y74.458 Z-8.000 F60.000
G1 X329.937 Y74.461 Z-8.000 F600.000
G2 X330.019 Y75.543 Z-8.000 I0.063 J0.539 K0.000 F600.000
G2 X330.029 Y74.458 Z-8.000 I-0.019 J-0.543 K0.000 F600.000
G0 Z5.000
G0 Z5.000
(Begin postamble)
M5
