(Exported by FreeCAD)
(Post Processor: marlin_post.py, version: 2020-11-03)
(Output Time:2023-11-12 16:05:25.693170)
(Begin preamble)
(Default Configuration)
G90
G21
G17
(Begin operation: Fixture)
G54
(Begin operation: TC: Endmill D=6, H=20, S=8)
(TC: Endmill D=6, H=20, S=8)
(Begin toolchange)
(M6 T16.0)
(Begin operation: Pocket_Shape)
(Pocket_Shape)
G0 Z5.000
G0 X311.271 Y86.267
G0 Z3.000
G1 X311.271 Y86.267 Z-2.000 F60.000
G3 X309.928 Y86.800 Z-2.000 I-1.283 J-1.274 K0.000 F900.000
G1 X10.072 Y86.800 Z-2.000 F900.000
G3 X8.200 Y84.928 Z-2.000 I-0.058 J-1.814 K0.000 F900.000
G1 X8.200 Y84.200 Z-2.000 F900.000
G1 X311.800 Y84.200 Z-2.000 F900.000
G3 X311.780 Y85.234 Z-2.000 I-7.900 J0.364 K0.000 F900.000
G3 X311.271 Y86.267 Z-2.000 I-1.792 J-0.241 K0.000 F900.000
G0 Z5.000
G0 X310.487 Y85.489 Z5.000
G0 X310.487 Y85.489 Z3.000
G1 X310.487 Y85.489 Z-2.000 F60.000
G3 X309.892 Y85.700 Z-2.000 I-0.516 J-0.513 K0.000 F900.000
G1 X10.108 Y85.700 Z-2.000 F900.000
G3 X9.377 Y85.300 Z-2.000 I-0.083 J-0.716 K0.000 F900.000
G1 X310.623 Y85.300 Z-2.000 F900.000
G3 X310.487 Y85.489 Z-2.000 I-0.652 J-0.323 K0.000 F900.000
G1 X310.487 Y85.489 Z-4.000 F60.000
G3 X309.892 Y85.700 Z-4.000 I-0.516 J-0.513 K0.000 F900.000
G1 X10.108 Y85.700 Z-4.000 F900.000
G3 X9.377 Y85.300 Z-4.000 I-0.083 J-0.716 K0.000 F900.000
G1 X310.623 Y85.300 Z-4.000 F900.000
G3 X310.487 Y85.489 Z-4.000 I-0.652 J-0.323 K0.000 F900.000
G0 Z5.000
G0 X311.270 Y86.268 Z5.000
G0 X311.270 Y86.268 Z3.000
G1 X311.270 Y86.268 Z-4.000 F60.000
G3 X309.928 Y86.800 Z-4.000 I-1.282 J-1.274 K0.000 F900.000
G1 X10.072 Y86.800 Z-4.000 F900.000
G3 X8.200 Y84.928 Z-4.000 I-0.058 J-1.814 K0.000 F900.000
G1 X8.200 Y84.200 Z-4.000 F900.000
G1 X311.800 Y84.200 Z-4.000 F900.000
G3 X311.780 Y85.234 Z-4.000 I-7.900 J0.364 K0.000 F900.000
G3 X311.270 Y86.268 Z-4.000 I-1.792 J-0.241 K0.000 F900.000
G1 X311.270 Y86.268 Z-6.000 F60.000
G3 X309.928 Y86.800 Z-6.000 I-1.282 J-1.274 K0.000 F900.000
G1 X10.072 Y86.800 Z-6.000 F900.000
G3 X8.200 Y84.928 Z-6.000 I-0.058 J-1.814 K0.000 F900.000
G1 X8.200 Y84.200 Z-6.000 F900.000
G1 X311.800 Y84.200 Z-6.000 F900.000
G3 X311.780 Y85.234 Z-6.000 I-7.900 J0.364 K0.000 F900.000
G3 X311.270 Y86.268 Z-6.000 I-1.792 J-0.241 K0.000 F900.000
G0 Z5.000
G0 X310.487 Y85.490 Z5.000
G0 X310.487 Y85.490 Z3.000
G1 X310.487 Y85.490 Z-6.000 F60.000
G3 X309.892 Y85.700 Z-6.000 I-0.516 J-0.513 K0.000 F900.000
G1 X10.108 Y85.700 Z-6.000 F900.000
G3 X9.377 Y85.300 Z-6.000 I-0.083 J-0.716 K0.000 F900.000
G1 X310.623 Y85.300 Z-6.000 F900.000
G3 X310.487 Y85.490 Z-6.000 I-0.652 J-0.323 K0.000 F900.000
G1 X310.487 Y85.490 Z-6.500 F60.000
G3 X309.892 Y85.700 Z-6.500 I-0.516 J-0.513 K0.000 F900.000
G1 X10.108 Y85.700 Z-6.500 F900.000
G3 X9.377 Y85.300 Z-6.500 I-0.083 J-0.716 K0.000 F900.000
G1 X310.623 Y85.300 Z-6.500 F900.000
G3 X310.487 Y85.490 Z-6.500 I-0.652 J-0.323 K0.000 F900.000
G0 Z5.000
G0 X311.270 Y86.268 Z5.000
G0 X311.270 Y86.268 Z3.000
G1 X311.270 Y86.268 Z-6.500 F60.000
G3 X309.928 Y86.800 Z-6.500 I-1.282 J-1.275 K0.000 F900.000
G1 X10.072 Y86.800 Z-6.500 F900.000
G3 X8.200 Y84.928 Z-6.500 I-0.058 J-1.814 K0.000 F900.000
G1 X8.200 Y84.200 Z-6.500 F900.000
G1 X311.800 Y84.200 Z-6.500 F900.000
G3 X311.780 Y85.234 Z-6.500 I-7.900 J0.364 K0.000 F900.000
G3 X311.270 Y86.268 Z-6.500 I-1.792 J-0.241 K0.000 F900.000
G0 Z5.000
G0 Z5.000
(Begin operation: Pocket_Shape001)
(Pocket_Shape001)
G0 Z5.000
G0 X26.000 Y86.000
G0 Z3.000
G1 X26.000 Y86.000 Z-2.000 F60.000
G1 X10.079 Y86.000 Z-2.000 F900.000
G3 X9.000 Y84.921 Z-2.000 I-0.059 J-1.019 K0.000 F900.000
G1 X9.000 Y10.079 Z-2.000 F900.000
G3 X10.079 Y9.000 Z-2.000 I1.019 J-0.059 K0.000 F900.000
G1 X26.000 Y9.000 Z-2.000 F900.000
G1 X26.000 Y86.000 Z-2.000 F900.000
G0 Z5.000
G0 X21.200 Y81.200 Z5.000
G0 X21.200 Y81.200 Z3.000
G1 X21.200 Y81.200 Z-2.000 F60.000
G1 X13.800 Y81.200 Z-2.000 F900.000
G1 X13.800 Y13.800 Z-2.000 F900.000
G1 X21.200 Y13.800 Z-2.000 F900.000
G1 X21.200 Y81.200 Z-2.000 F900.000
G0 Z5.000
G0 X20.200 Y80.200 Z5.000
G0 X20.200 Y80.200 Z3.000
G1 X20.200 Y80.200 Z-2.000 F60.000
G1 X14.800 Y80.200 Z-2.000 F900.000
G1 X14.800 Y14.800 Z-2.000 F900.000
G1 X20.200 Y14.800 Z-2.000 F900.000
G1 X20.200 Y80.200 Z-2.000 F900.000
G0 Z5.000
G0 X19.200 Y79.200 Z5.000
G0 X19.200 Y79.200 Z3.000
G1 X19.200 Y79.200 Z-2.000 F60.000
G1 X15.800 Y79.200 Z-2.000 F900.000
G1 X15.800 Y15.800 Z-2.000 F900.000
G1 X19.200 Y15.800 Z-2.000 F900.000
G1 X19.200 Y79.200 Z-2.000 F900.000
G0 Z5.000
G0 X18.200 Y78.200 Z5.000
G0 X18.200 Y78.200 Z3.000
G1 X18.200 Y78.200 Z-2.000 F60.000
G1 X16.800 Y78.200 Z-2.000 F900.000
G1 X16.800 Y16.800 Z-2.000 F900.000
G1 X18.200 Y16.800 Z-2.000 F900.000
G1 X18.200 Y78.200 Z-2.000 F900.000
G1 X18.200 Y78.200 Z-4.000 F60.000
G1 X16.800 Y78.200 Z-4.000 F900.000
G1 X16.800 Y16.800 Z-4.000 F900.000
G1 X18.200 Y16.800 Z-4.000 F900.000
G1 X18.200 Y78.200 Z-4.000 F900.000
G0 Z5.000
G0 X19.200 Z5.000
G0 X19.200 Z3.000
G1 X19.200 Y78.200 Z-4.000 F60.000
G1 X19.200 Y79.200 Z-4.000 F900.000
G1 X15.800 Y79.200 Z-4.000 F900.000
G1 X15.800 Y15.800 Z-4.000 F900.000
G1 X19.200 Y15.800 Z-4.000 F900.000
G1 X19.200 Y78.200 Z-4.000 F900.000
G0 Z5.000
G0 X20.200 Z5.000
G0 X20.200 Z3.000
G1 X20.200 Y78.200 Z-4.000 F60.000
G1 X20.200 Y80.200 Z-4.000 F900.000
G1 X14.800 Y80.200 Z-4.000 F900.000
G1 X14.800 Y14.800 Z-4.000 F900.000
G1 X20.200 Y14.800 Z-4.000 F900.000
G1 X20.200 Y78.200 Z-4.000 F900.000
G0 Z5.000
G0 X21.200 Z5.000
G0 X21.200 Z3.000
G1 X21.200 Y78.200 Z-4.000 F60.000
G1 X21.200 Y81.200 Z-4.000 F900.000
G1 X13.800 Y81.200 Z-4.000 F900.000
G1 X13.800 Y13.800 Z-4.000 F900.000
G1 X21.200 Y13.800 Z-4.000 F900.000
G1 X21.200 Y78.200 Z-4.000 F900.000
G0 Z5.000
G0 X26.000 Z5.000
G0 X26.000 Z3.000
G1 X26.000 Y78.200 Z-4.000 F60.000
G1 X26.000 Y86.000 Z-4.000 F900.000
G1 X10.079 Y86.000 Z-4.000 F900.000
G3 X9.000 Y84.921 Z-4.000 I-0.059 J-1.019 K0.000 F900.000
G1 X9.000 Y10.079 Z-4.000 F900.000
G3 X10.079 Y9.000 Z-4.000 I1.019 J-0.059 K0.000 F900.000
G1 X26.000 Y9.000 Z-4.000 F900.000
G1 X26.000 Y78.200 Z-4.000 F900.000
G1 X26.000 Y78.200 Z-6.000 F60.000
G1 X26.000 Y86.000 Z-6.000 F900.000
G1 X10.079 Y86.000 Z-6.000 F900.000
G3 X9.000 Y84.921 Z-6.000 I-0.059 J-1.019 K0.000 F900.000
G1 X9.000 Y10.079 Z-6.000 F900.000
G3 X10.079 Y9.000 Z-6.000 I1.019 J-0.059 K0.000 F900.000
G1 X26.000 Y9.000 Z-6.000 F900.000
G1 X26.000 Y78.200 Z-6.000 F900.000
G0 Z5.000
G0 X21.200 Z5.000
G0 X21.200 Z3.000
G1 X21.200 Y78.200 Z-6.000 F60.000
G1 X21.200 Y81.200 Z-6.000 F900.000
G1 X13.800 Y81.200 Z-6.000 F900.000
G1 X13.800 Y13.800 Z-6.000 F900.000
G1 X21.200 Y13.800 Z-6.000 F900.000
G1 X21.200 Y78.200 Z-6.000 F900.000
G0 Z5.000
G0 X20.200 Z5.000
G0 X20.200 Z3.000
G1 X20.200 Y78.200 Z-6.000 F60.000
G1 X20.200 Y80.200 Z-6.000 F900.000
G1 X14.800 Y80.200 Z-6.000 F900.000
G1 X14.800 Y14.800 Z-6.000 F900.000
G1 X20.200 Y14.800 Z-6.000 F900.000
G1 X20.200 Y78.200 Z-6.000 F900.000
G0 Z5.000
G0 X19.200 Z5.000
G0 X19.200 Z3.000
G1 X19.200 Y78.200 Z-6.000 F60.000
G1 X19.200 Y79.200 Z-6.000 F900.000
G1 X15.800 Y79.200 Z-6.000 F900.000
G1 X15.800 Y15.800 Z-6.000 F900.000
G1 X19.200 Y15.800 Z-6.000 F900.000
G1 X19.200 Y78.200 Z-6.000 F900.000
G0 Z5.000
G0 X18.200 Z5.000
G0 X18.200 Z3.000
G1 X18.200 Y78.200 Z-6.000 F60.000
G1 X16.800 Y78.200 Z-6.000 F900.000
G1 X16.800 Y16.800 Z-6.000 F900.000
G1 X18.200 Y16.800 Z-6.000 F900.000
G1 X18.200 Y78.200 Z-6.000 F900.000
G1 X18.200 Y78.200 Z-6.500 F60.000
G1 X16.800 Y78.200 Z-6.500 F900.000
G1 X16.800 Y16.800 Z-6.500 F900.000
G1 X18.200 Y16.800 Z-6.500 F900.000
G1 X18.200 Y78.200 Z-6.500 F900.000
G0 Z5.000
G0 X19.200 Z5.000
G0 X19.200 Z3.000
G1 X19.200 Y78.200 Z-6.500 F60.000
G1 X19.200 Y79.200 Z-6.500 F900.000
G1 X15.800 Y79.200 Z-6.500 F900.000
G1 X15.800 Y15.800 Z-6.500 F900.000
G1 X19.200 Y15.800 Z-6.500 F900.000
G1 X19.200 Y78.200 Z-6.500 F900.000
G0 Z5.000
G0 X20.200 Z5.000
G0 X20.200 Z3.000
G1 X20.200 Y78.200 Z-6.500 F60.000
G1 X20.200 Y80.200 Z-6.500 F900.000
G1 X14.800 Y80.200 Z-6.500 F900.000
G1 X14.800 Y14.800 Z-6.500 F900.000
G1 X20.200 Y14.800 Z-6.500 F900.000
G1 X20.200 Y78.200 Z-6.500 F900.000
G0 Z5.000
G0 X21.200 Z5.000
G0 X21.200 Z3.000
G1 X21.200 Y78.200 Z-6.500 F60.000
G1 X21.200 Y81.200 Z-6.500 F900.000
G1 X13.800 Y81.200 Z-6.500 F900.000
G1 X13.800 Y13.800 Z-6.500 F900.000
G1 X21.200 Y13.800 Z-6.500 F900.000
G1 X21.200 Y78.200 Z-6.500 F900.000
G0 Z5.000
G0 X26.000 Z5.000
G0 X26.000 Z3.000
G1 X26.000 Y78.200 Z-6.500 F60.000
G1 X26.000 Y86.000 Z-6.500 F900.000
G1 X10.079 Y86.000 Z-6.500 F900.000
G3 X9.000 Y84.921 Z-6.500 I-0.059 J-1.019 K0.000 F900.000
G1 X9.000 Y10.079 Z-6.500 F900.000
G3 X10.079 Y9.000 Z-6.500 I1.019 J-0.059 K0.000 F900.000
G1 X26.000 Y9.000 Z-6.500 F900.000
G1 X26.000 Y78.200 Z-6.500 F900.000
G0 Z5.000
G0 Z5.000
(Begin operation: Pocket_Shape002)
(Pocket_Shape002)
G0 Z5.000
G0 X310.600 Y25.600
G0 Z3.000
G1 X310.600 Y25.600 Z-2.000 F60.000
G1 X100.000 Y25.600 Z-2.000 F900.000
G2 X97.600 Y28.000 Z-2.000 I-0.000 J2.400 K0.000 F900.000
G1 X97.600 Y85.600 Z-2.000 F900.000
G1 X90.400 Y85.600 Z-2.000 F900.000
G1 X90.400 Y28.000 Z-2.000 F900.000
G2 X88.000 Y25.600 Z-2.000 I-2.400 J0.000 K0.000 F900.000
G1 X9.400 Y25.600 Z-2.000 F900.000
G1 X9.400 Y24.400 Z-2.000 F900.000
G1 X310.600 Y24.400 Z-2.000 F900.000
G1 X310.600 Y25.600 Z-2.000 F900.000
G0 Z5.000
G0 X97.327 Z5.000
G0 X97.327 Z3.000
G1 X97.327 Y25.600 Z-2.000 F60.000
G2 X96.400 Y28.000 Z-2.000 I2.613 J2.388 K0.000 F900.000
G1 X96.400 Y84.400 Z-2.000 F900.000
G1 X91.600 Y84.400 Z-2.000 F900.000
G1 X91.600 Y28.000 Z-2.000 F900.000
G2 X90.683 Y25.600 Z-2.000 I-3.598 J-0.000 K0.000 F900.000
G1 X97.327 Y25.600 Z-2.000 F900.000
G0 Z5.000
G0 X95.361 Y26.800 Z5.000
G0 X95.361 Y26.800 Z3.000
G1 X95.361 Y26.800 Z-2.000 F60.000
G2 X95.200 Y28.000 Z-2.000 I4.050 J1.153 K0.000 F900.000
G1 X95.200 Y83.200 Z-2.000 F900.000
G1 X92.800 Y83.200 Z-2.000 F900.000
G1 X92.800 Y28.000 Z-2.000 F900.000
G2 X92.646 Y26.800 Z-2.000 I-4.730 J-0.004 K0.000 F900.000
G1 X95.361 Y26.800 Z-2.000 F900.000
G1 X95.361 Y26.800 Z-4.000 F60.000
G2 X95.200 Y28.000 Z-4.000 I4.050 J1.153 K0.000 F900.000
G1 X95.200 Y83.200 Z-4.000 F900.000
G1 X92.800 Y83.200 Z-4.000 F900.000
G1 X92.800 Y28.000 Z-4.000 F900.000
G2 X92.646 Y26.800 Z-4.000 I-4.730 J-0.004 K0.000 F900.000
G1 X95.361 Y26.800 Z-4.000 F900.000
G0 Z5.000
G0 X96.513 Y27.099 Z5.000
G0 X96.513 Y27.099 Z3.000
G1 X96.513 Y27.099 Z-4.000 F60.000
G2 X96.400 Y28.000 Z-4.000 I3.426 J0.889 K0.000 F900.000
G1 X96.400 Y84.400 Z-4.000 F900.000
G1 X91.600 Y84.400 Z-4.000 F900.000
G1 X91.600 Y28.000 Z-4.000 F900.000
G2 X90.683 Y25.600 Z-4.000 I-3.598 J-0.000 K0.000 F900.000
G1 X97.327 Y25.600 Z-4.000 F900.000
G2 X96.513 Y27.099 Z-4.000 I2.613 J2.388 K0.000 F900.000
G0 Z5.000
G0 X97.676 Y27.400 Z5.000
G0 X97.676 Y27.400 Z3.000
G1 X97.676 Y27.400 Z-4.000 F60.000
G2 X97.600 Y28.000 Z-4.000 I2.324 J0.600 K0.000 F900.000
G1 X97.600 Y85.600 Z-4.000 F900.000
G1 X90.400 Y85.600 Z-4.000 F900.000
G1 X90.400 Y28.000 Z-4.000 F900.000
G2 X88.000 Y25.600 Z-4.000 I-2.400 J0.000 K0.000 F900.000
G1 X9.400 Y25.600 Z-4.000 F900.000
G1 X9.400 Y24.400 Z-4.000 F900.000
G1 X310.600 Y24.400 Z-4.000 F900.000
G1 X310.600 Y25.600 Z-4.000 F900.000
G1 X100.000 Y25.600 Z-4.000 F900.000
G2 X97.676 Y27.400 Z-4.000 I-0.000 J2.400 K0.000 F900.000
G1 X97.676 Y27.400 Z-6.000 F60.000
G2 X97.600 Y28.000 Z-6.000 I2.324 J0.600 K0.000 F900.000
G1 X97.600 Y85.600 Z-6.000 F900.000
G1 X90.400 Y85.600 Z-6.000 F900.000
G1 X90.400 Y28.000 Z-6.000 F900.000
G2 X88.000 Y25.600 Z-6.000 I-2.400 J0.000 K0.000 F900.000
G1 X9.400 Y25.600 Z-6.000 F900.000
G1 X9.400 Y24.400 Z-6.000 F900.000
G1 X310.600 Y24.400 Z-6.000 F900.000
G1 X310.600 Y25.600 Z-6.000 F900.000
G1 X100.000 Y25.600 Z-6.000 F900.000
G2 X97.676 Y27.400 Z-6.000 I-0.000 J2.400 K0.000 F900.000
G0 Z5.000
G0 X96.514 Y27.097 Z5.000
G0 X96.514 Y27.097 Z3.000
G1 X96.514 Y27.097 Z-6.000 F60.000
G2 X96.400 Y28.000 Z-6.000 I3.426 J0.890 K0.000 F900.000
G1 X96.400 Y84.400 Z-6.000 F900.000
G1 X91.600 Y84.400 Z-6.000 F900.000
G1 X91.600 Y28.000 Z-6.000 F900.000
G2 X90.683 Y25.600 Z-6.000 I-3.598 J-0.000 K0.000 F900.000
G1 X97.327 Y25.600 Z-6.000 F900.000
G2 X96.514 Y27.097 Z-6.000 I2.613 J2.388 K0.000 F900.000
G0 Z5.000
G0 X95.361 Y26.800 Z5.000
G0 X95.361 Y26.800 Z3.000
G1 X95.361 Y26.800 Z-6.000 F60.000
G2 X95.200 Y28.000 Z-6.000 I4.050 J1.153 K0.000 F900.000
G1 X95.200 Y83.200 Z-6.000 F900.000
G1 X92.800 Y83.200 Z-6.000 F900.000
G1 X92.800 Y28.000 Z-6.000 F900.000
G2 X92.646 Y26.800 Z-6.000 I-4.730 J-0.004 K0.000 F900.000
G1 X95.361 Y26.800 Z-6.000 F900.000
G1 X95.361 Y26.800 Z-6.500 F60.000
G2 X95.200 Y28.000 Z-6.500 I4.050 J1.153 K0.000 F900.000
G1 X95.200 Y83.200 Z-6.500 F900.000
G1 X92.800 Y83.200 Z-6.500 F900.000
G1 X92.800 Y28.000 Z-6.500 F900.000
G2 X92.646 Y26.800 Z-6.500 I-4.730 J-0.004 K0.000 F900.000
G1 X95.361 Y26.800 Z-6.500 F900.000
G0 Z5.000
G0 X96.513 Y27.099 Z5.000
G0 X96.513 Y27.099 Z3.000
G1 X96.513 Y27.099 Z-6.500 F60.000
G2 X96.400 Y28.000 Z-6.500 I3.426 J0.889 K0.000 F900.000
G1 X96.400 Y84.400 Z-6.500 F900.000
G1 X91.600 Y84.400 Z-6.500 F900.000
G1 X91.600 Y28.000 Z-6.500 F900.000
G2 X90.683 Y25.600 Z-6.500 I-3.598 J-0.000 K0.000 F900.000
G1 X97.327 Y25.600 Z-6.500 F900.000
G2 X96.513 Y27.099 Z-6.500 I2.613 J2.388 K0.000 F900.000
G0 Z5.000
G0 X97.676 Y27.400 Z5.000
G0 X97.676 Y27.400 Z3.000
G1 X97.676 Y27.400 Z-6.500 F60.000
G2 X97.600 Y28.000 Z-6.500 I2.324 J0.600 K0.000 F900.000
G1 X97.600 Y85.600 Z-6.500 F900.000
G1 X90.400 Y85.600 Z-6.500 F900.000
G1 X90.400 Y28.000 Z-6.500 F900.000
G2 X88.000 Y25.600 Z-6.500 I-2.400 J0.000 K0.000 F900.000
G1 X9.400 Y25.600 Z-6.500 F900.000
G1 X9.400 Y24.400 Z-6.500 F900.000
G1 X310.600 Y24.400 Z-6.500 F900.000
G1 X310.600 Y25.600 Z-6.500 F900.000
G1 X100.000 Y25.600 Z-6.500 F900.000
G2 X97.676 Y27.400 Z-6.500 I-0.000 J2.400 K0.000 F900.000
G0 Z5.000
G0 Z5.000
(Begin operation: DressupTag)
G0 Z5.000
G0 X312.121 Y87.121 Z5.000
G0 X312.121 Y87.121 Z3.000
G1 X312.121 Y87.121 Z-2.000 F60.000
G2 X313.000 Y85.000 Z-2.000 I-2.121 J-2.121 K0.000 F900.000
G1 X313.000 Y10.000 Z-2.000 F900.000
G2 X310.000 Y7.000 Z-2.000 I-3.000 J0.000 K0.000 F900.000
G1 X10.000 Y7.000 Z-2.000 F900.000
G2 X7.000 Y10.000 Z-2.000 I0.000 J3.000 K0.000 F900.000
G1 X7.000 Y85.000 Z-2.000 F900.000
G2 X10.000 Y88.000 Z-2.000 I3.000 J-0.000 K0.000 F900.000
G1 X310.000 Y88.000 Z-2.000 F900.000
G2 X312.121 Y87.121 Z-2.000 I-0.000 J-3.000 K0.000 F900.000
G1 X312.121 Y87.121 Z-4.000 F60.000
G2 X313.000 Y85.000 Z-4.000 I-2.121 J-2.121 K0.000 F900.000
G1 X313.000 Y10.000 Z-4.000 F900.000
G2 X310.000 Y7.000 Z-4.000 I-3.000 J0.000 K0.000 F900.000
G1 X10.000 Y7.000 Z-4.000 F900.000
G2 X7.000 Y10.000 Z-4.000 I0.000 J3.000 K0.000 F900.000
G1 X7.000 Y85.000 Z-4.000 F900.000
G2 X10.000 Y88.000 Z-4.000 I3.000 J-0.000 K0.000 F900.000
G1 X310.000 Y88.000 Z-4.000 F900.000
G2 X312.121 Y87.121 Z-4.000 I-0.000 J-3.000 K0.000 F900.000
G1 X312.121 Y87.121 Z-6.000 F60.000
G2 X313.000 Y85.000 Z-6.000 I-2.121 J-2.121 K0.000 F900.000
G1 X313.000 Y10.000 Z-6.000 F900.000
G2 X310.000 Y7.000 Z-6.000 I-3.000 J0.000 K0.000 F900.000
G1 X10.000 Y7.000 Z-6.000 F900.000
G2 X7.000 Y10.000 Z-6.000 I0.000 J3.000 K0.000 F900.000
G1 X7.000 Y85.000 Z-6.000 F900.000
G2 X10.000 Y88.000 Z-6.000 I3.000 J-0.000 K0.000 F900.000
G1 X310.000 Y88.000 Z-6.000 F900.000
G2 X312.121 Y87.121 Z-6.000 I-0.000 J-3.000 K0.000 F900.000
G1 X312.121 Y87.121 Z-8.000 F60.000
G2 X313.000 Y85.000 Z-8.000 I-2.121 J-2.121 K0.000 F900.000
G1 X313.000 Y10.000 Z-8.000 F900.000
G2 X310.000 Y7.000 Z-8.000 I-3.000 J0.000 K0.000 F900.000
G1 X10.000 Y7.000 Z-8.000 F900.000
G2 X7.000 Y10.000 Z-8.000 I0.000 J3.000 K0.000 F900.000
G1 X7.000 Y85.000 Z-8.000 F900.000
G2 X10.000 Y88.000 Z-8.000 I3.000 J-0.000 K0.000 F900.000
G1 X310.000 Y88.000 Z-8.000 F900.000
G2 X312.121 Y87.121 Z-8.000 I-0.000 J-3.000 K0.000 F900.000
G1 X312.121 Y87.121 Z-10.000 F60.000
G2 X313.000 Y85.000 Z-10.000 I-2.121 J-2.121 K0.000 F900.000
G1 X313.000 Y10.000 Z-10.000 F900.000
G2 X310.000 Y7.000 Z-10.000 I-3.000 J0.000 K0.000 F900.000
G1 X10.000 Y7.000 Z-10.000 F900.000
G2 X7.000 Y10.000 Z-10.000 I0.000 J3.000 K0.000 F900.000
G1 X7.000 Y85.000 Z-10.000 F900.000
G2 X10.000 Y88.000 Z-10.000 I3.000 J-0.000 K0.000 F900.000
G1 X310.000 Y88.000 Z-10.000 F900.000
G2 X312.121 Y87.121 Z-10.000 I-0.000 J-3.000 K0.000 F900.000
G1 X312.121 Y87.121 Z-12.000 F60.000
G2 X313.000 Y85.000 Z-12.000 I-2.121 J-2.121 K0.000 F900.000
G1 X313.000 Y10.000 Z-12.000 F900.000
G2 X310.000 Y7.000 Z-12.000 I-3.000 J0.000 K0.000 F900.000
G1 X10.000 Y7.000 Z-12.000 F900.000
G2 X7.000 Y10.000 Z-12.000 I0.000 J3.000 K0.000 F900.000
G1 X7.000 Y85.000 Z-12.000 F900.000
G2 X10.000 Y88.000 Z-12.000 I3.000 J-0.000 K0.000 F900.000
G1 X310.000 Y88.000 Z-12.000 F900.000
G2 X312.121 Y87.121 Z-12.000 I-0.000 J-3.000 K0.000 F900.000
G1 X312.121 Y87.121 Z-14.000 F60.000
G2 X313.000 Y85.000 Z-14.000 I-2.121 J-2.121 K0.000 F900.000
G1 X313.000 Y10.000 Z-14.000 F900.000
G2 X310.000 Y7.000 Z-14.000 I-3.000 J0.000 K0.000 F900.000
G1 X237.920 Y7.000 Z-14.000 F900.000
G1 X235.920 Y7.000 Z-12.000 F480.000
G1 X234.080 Y7.000 Z-12.000 F900.000
G1 X232.080 Y7.000 Z-14.000 F480.000
G1 X87.920 Y7.000 Z-14.000 F900.000
G1 X85.920 Y7.000 Z-12.000 F480.000
G1 X84.080 Y7.000 Z-12.000 F900.000
G1 X82.080 Y7.000 Z-14.000 F480.000
G1 X10.000 Y7.000 Z-14.000 F900.000
G2 X7.000 Y10.000 Z-14.000 I0.000 J3.000 K0.000 F900.000
G1 X7.000 Y85.000 Z-14.000 F900.000
G2 X10.000 Y88.000 Z-14.000 I3.000 J-0.000 K0.000 F900.000
G1 X82.080 Y88.000 Z-14.000 F900.000
G1 X84.080 Y88.000 Z-12.000 F480.000
G1 X85.920 Y88.000 Z-12.000 F900.000
G1 X87.920 Y88.000 Z-14.000 F480.000
G1 X232.080 Y88.000 Z-14.000 F900.000
G1 X234.080 Y88.000 Z-12.000 F480.000
G1 X235.920 Y88.000 Z-12.000 F900.000
G1 X237.920 Y88.000 Z-14.000 F480.000
G1 X310.000 Y88.000 Z-14.000 F900.000
G2 X312.121 Y87.121 Z-14.000 I-0.000 J-3.000 K0.000 F900.000
G1 X312.121 Y87.121 Z-16.000 F60.000
G2 X313.000 Y85.000 Z-16.000 I-2.121 J-2.121 K0.000 F900.000
G1 X313.000 Y10.000 Z-16.000 F900.000
G2 X310.000 Y7.000 Z-16.000 I-3.000 J0.000 K0.000 F900.000
G1 X239.920 Y7.000 Z-16.000 F900.000
G1 X235.920 Y7.000 Z-12.000 F480.000
G1 X234.080 Y7.000 Z-12.000 F900.000
G1 X230.080 Y7.000 Z-16.000 F480.000
G1 X89.920 Y7.000 Z-16.000 F900.000
G1 X85.920 Y7.000 Z-12.000 F480.000
G1 X84.080 Y7.000 Z-12.000 F900.000
G1 X80.080 Y7.000 Z-16.000 F480.000
G1 X10.000 Y7.000 Z-16.000 F900.000
G2 X7.000 Y10.000 Z-16.000 I0.000 J3.000 K0.000 F900.000
G1 X7.000 Y85.000 Z-16.000 F900.000
G2 X10.000 Y88.000 Z-16.000 I3.000 J-0.000 K0.000 F900.000
G1 X80.080 Y88.000 Z-16.000 F900.000
G1 X84.080 Y88.000 Z-12.000 F480.000
G1 X85.920 Y88.000 Z-12.000 F900.000
G1 X89.920 Y88.000 Z-16.000 F480.000
G1 X230.080 Y88.000 Z-16.000 F900.000
G1 X234.080 Y88.000 Z-12.000 F480.000
G1 X235.920 Y88.000 Z-12.000 F900.000
G1 X239.920 Y88.000 Z-16.000 F480.000
G1 X310.000 Y88.000 Z-16.000 F900.000
G2 X312.121 Y87.121 Z-16.000 I-0.000 J-3.000 K0.000 F900.000
G1 X312.121 Y87.121 Z-18.000 F60.000
G2 X313.000 Y85.000 Z-18.000 I-2.121 J-2.121 K0.000 F900.000
G1 X313.000 Y10.000 Z-18.000 F900.000
G2 X310.000 Y7.000 Z-18.000 I-3.000 J0.000 K0.000 F900.000
G1 X241.920 Y7.000 Z-18.000 F900.000
G1 X235.920 Y7.000 Z-12.000 F480.000
G1 X234.080 Y7.000 Z-12.000 F900.000
G1 X228.080 Y7.000 Z-18.000 F480.000
G1 X91.920 Y7.000 Z-18.000 F900.000
G1 X85.920 Y7.000 Z-12.000 F480.000
G1 X84.080 Y7.000 Z-12.000 F900.000
G1 X78.080 Y7.000 Z-18.000 F480.000
G1 X10.000 Y7.000 Z-18.000 F900.000
G2 X7.000 Y10.000 Z-18.000 I0.000 J3.000 K0.000 F900.000
G1 X7.000 Y85.000 Z-18.000 F900.000
G2 X10.000 Y88.000 Z-18.000 I3.000 J-0.000 K0.000 F900.000
G1 X78.080 Y88.000 Z-18.000 F900.000
G1 X84.080 Y88.000 Z-12.000 F480.000
G1 X85.920 Y88.000 Z-12.000 F900.000
G1 X91.920 Y88.000 Z-18.000 F480.000
G1 X228.080 Y88.000 Z-18.000 F900.000
G1 X234.080 Y88.000 Z-12.000 F480.000
G1 X235.920 Y88.000 Z-12.000 F900.000
G1 X241.920 Y88.000 Z-18.000 F480.000
G1 X310.000 Y88.000 Z-18.000 F900.000
G2 X312.121 Y87.121 Z-18.000 I-0.000 J-3.000 K0.000 F900.000
G1 X312.121 Y87.121 Z-20.000 F60.000
G2 X313.000 Y85.000 Z-20.000 I-2.121 J-2.121 K0.000 F900.000
G1 X313.000 Y10.000 Z-20.000 F900.000
G2 X310.000 Y7.000 Z-20.000 I-3.000 J0.000 K0.000 F900.000
G1 X243.920 Y7.000 Z-20.000 F900.000
G1 X235.920 Y7.000 Z-12.000 F480.000
G1 X234.080 Y7.000 Z-12.000 F900.000
G1 X226.080 Y7.000 Z-20.000 F480.000
G1 X93.920 Y7.000 Z-20.000 F900.000
G1 X85.920 Y7.000 Z-12.000 F480.000
G1 X84.080 Y7.000 Z-12.000 F900.000
G1 X76.080 Y7.000 Z-20.000 F480.000
G1 X10.000 Y7.000 Z-20.000 F900.000
G2 X7.000 Y10.000 Z-20.000 I0.000 J3.000 K0.000 F900.000
G1 X7.000 Y85.000 Z-20.000 F900.000
G2 X10.000 Y88.000 Z-20.000 I3.000 J-0.000 K0.000 F900.000
G1 X76.080 Y88.000 Z-20.000 F900.000
G1 X84.080 Y88.000 Z-12.000 F480.000
G1 X85.920 Y88.000 Z-12.000 F900.000
G1 X93.920 Y88.000 Z-20.000 F480.000
G1 X226.080 Y88.000 Z-20.000 F900.000
G1 X234.080 Y88.000 Z-12.000 F480.000
G1 X235.920 Y88.000 Z-12.000 F900.000
G1 X243.920 Y88.000 Z-20.000 F480.000
G1 X310.000 Y88.000 Z-20.000 F900.000
G2 X312.121 Y87.121 Z-20.000 I-0.000 J-3.000 K0.000 F900.000
G0 X312.121 Y87.121 Z5.000
(Begin postamble)
M5
