(Exported by FreeCAD)
(Post Processor: marlin_post.py, version: 2020-11-03)
(Output Time:2023-11-11 15:06:51.959366)
(Begin preamble)
(Default Configuration)
G90
G21
G17
(Begin operation: Fixture)
G54
(Begin operation: TC: Endmill D=20, H=20, S=8)
(TC: Endmill D=20, H=20, S=8)
(Begin toolchange)
(M6 T21.0)
(Begin operation: MillFace)
(MillFace)
G0 Z5.000
G0 X433.000 Y93.000
G0 Z3.000
G1 X433.000 Y93.000 Z-1.500 F60.000
G1 X7.000 Y93.000 Z-1.500 F1200.000
G1 X7.000 Y7.000 Z-1.500 F1200.000
G1 X433.000 Y7.000 Z-1.500 F1200.000
G1 X433.000 Y93.000 Z-1.500 F1200.000
G0 Z5.000
G0 X415.000 Y75.000 Z5.000
G0 X415.000 Y75.000 Z3.000
G1 X415.000 Y75.000 Z-1.500 F60.000
G1 X25.000 Y75.000 Z-1.500 F1200.000
G1 X25.000 Y25.000 Z-1.500 F1200.000
G1 X415.000 Y25.000 Z-1.500 F1200.000
G1 X415.000 Y75.000 Z-1.500 F1200.000
G0 Z5.000
G0 X397.000 Y57.000 Z5.000
G0 X397.000 Y57.000 Z3.000
G1 X397.000 Y57.000 Z-1.500 F60.000
G1 X43.000 Y57.000 Z-1.500 F1200.000
G1 X43.000 Y43.000 Z-1.500 F1200.000
G1 X397.000 Y43.000 Z-1.500 F1200.000
G1 X397.000 Y57.000 Z-1.500 F1200.000
G0 Z5.000
G0 X393.500 Y53.500 Z5.000
G0 X393.500 Y53.500 Z3.000
G1 X393.500 Y53.500 Z-1.500 F60.000
G1 X46.500 Y53.500 Z-1.500 F1200.000
G1 X46.500 Y46.500 Z-1.500 F1200.000
G1 X393.500 Y46.500 Z-1.500 F1200.000
G1 X393.500 Y53.500 Z-1.500 F1200.000
G0 Z5.000
G0 Z5.000
(Begin postamble)
M5
