(Exported by FreeCAD)
(Post Processor: marlin_post.py, version: 2020-11-03)
(Output Time:2023-11-11 12:25:13.319290)
(Begin preamble)
(Default Configuration)
G90
G21
G17
(Begin operation: Fixture)
G54
(Begin operation: TC: endmill D=12, H=20, S=8)
(TC: endmill D=12, H=20, S=8)
(Begin toolchange)
(M6 T14.0)
(Begin operation: Pocket_Shape)
(Pocket_Shape)
G0 Z5.000
G0 X351.700 Y79.200
G0 Z3.000
G1 X351.700 Y79.200 Z-2.000 F60.000
G1 X15.800 Y79.200 Z-2.000 F1200.000
G1 X15.800 Y54.800 Z-2.000 F1200.000
G1 X351.700 Y54.800 Z-2.000 F1200.000
G1 X351.700 Y79.200 Z-2.000 F1200.000
G0 Z5.000
G0 X345.700 Y73.200 Z5.000
G0 X345.700 Y73.200 Z3.000
G1 X345.700 Y73.200 Z-2.000 F60.000
G1 X21.800 Y73.200 Z-2.000 F1200.000
G1 X21.800 Y60.800 Z-2.000 F1200.000
G1 X345.700 Y60.800 Z-2.000 F1200.000
G1 X345.700 Y73.200 Z-2.000 F1200.000
G0 Z5.000
G0 X339.700 Y67.200 Z5.000
G0 X339.700 Y67.200 Z3.000
G1 X339.700 Y67.200 Z-2.000 F60.000
G1 X27.800 Y67.200 Z-2.000 F1200.000
G1 X27.800 Y66.800 Z-2.000 F1200.000
G1 X339.700 Y66.800 Z-2.000 F1200.000
G1 X339.700 Y67.200 Z-2.000 F1200.000
G1 X339.700 Y67.200 Z-4.000 F60.000
G1 X27.800 Y67.200 Z-4.000 F1200.000
G1 X27.800 Y66.800 Z-4.000 F1200.000
G1 X339.700 Y66.800 Z-4.000 F1200.000
G1 X339.700 Y67.200 Z-4.000 F1200.000
G0 Z5.000
G0 X345.700 Z5.000
G0 X345.700 Z3.000
G1 X345.700 Y67.200 Z-4.000 F60.000
G1 X345.700 Y73.200 Z-4.000 F1200.000
G1 X21.800 Y73.200 Z-4.000 F1200.000
G1 X21.800 Y60.800 Z-4.000 F1200.000
G1 X345.700 Y60.800 Z-4.000 F1200.000
G1 X345.700 Y67.200 Z-4.000 F1200.000
G0 Z5.000
G0 X351.700 Z5.000
G0 X351.700 Z3.000
G1 X351.700 Y67.200 Z-4.000 F60.000
G1 X351.700 Y79.200 Z-4.000 F1200.000
G1 X15.800 Y79.200 Z-4.000 F1200.000
G1 X15.800 Y54.800 Z-4.000 F1200.000
G1 X351.700 Y54.800 Z-4.000 F1200.000
G1 X351.700 Y67.200 Z-4.000 F1200.000
G1 X351.700 Y67.200 Z-6.000 F60.000
G1 X351.700 Y79.200 Z-6.000 F1200.000
G1 X15.800 Y79.200 Z-6.000 F1200.000
G1 X15.800 Y54.800 Z-6.000 F1200.000
G1 X351.700 Y54.800 Z-6.000 F1200.000
G1 X351.700 Y67.200 Z-6.000 F1200.000
G0 Z5.000
G0 X345.700 Z5.000
G0 X345.700 Z3.000
G1 X345.700 Y67.200 Z-6.000 F60.000
G1 X345.700 Y73.200 Z-6.000 F1200.000
G1 X21.800 Y73.200 Z-6.000 F1200.000
G1 X21.800 Y60.800 Z-6.000 F1200.000
G1 X345.700 Y60.800 Z-6.000 F1200.000
G1 X345.700 Y67.200 Z-6.000 F1200.000
G0 Z5.000
G0 X339.700 Z5.000
G0 X339.700 Z3.000
G1 X339.700 Y67.200 Z-6.000 F60.000
G1 X27.800 Y67.200 Z-6.000 F1200.000
G1 X27.800 Y66.800 Z-6.000 F1200.000
G1 X339.700 Y66.800 Z-6.000 F1200.000
G1 X339.700 Y67.200 Z-6.000 F1200.000
G0 Z5.000
G0 Z5.000
(Begin postamble)
M5
