(Exported by FreeCAD)
(Post Processor: marlin_post.py, version: 2020-11-03)
(Output Time:2023-11-10 18:38:38.255856)
(Begin preamble)
(Default Configuration)
G90
G21
G17
(Begin operation: Fixture)
G54
(Begin operation: TC: 6 mm endmill, D=6, H=45, L=80, S=6)
(TC: 6 mm endmill, D=6, H=45, L=80, S=6)
(Begin toolchange)
(M6 T17.0)
(Begin operation: Profile)
(Profile)
(Compensated Tool Path. Diameter: 6.0)
G0 Z5.000
G0 X275.466 Y53.271
G0 Z3.000
G1 X275.466 Y53.271 Z-3.000 F60.000
G2 X274.121 Y50.200 Z-3.000 I-1.269 J-1.274 K0.000 F600.000
G1 X265.879 Y50.200 Z-3.000 F600.000
G1 X265.566 Y50.221 Z-3.000 F600.000
G2 X265.879 Y53.800 Z-3.000 I0.238 J1.783 K0.000 F600.000
G1 X274.121 Y53.800 Z-3.000 F600.000
G1 X274.434 Y53.779 Z-3.000 F600.000
G2 X275.466 Y53.271 Z-3.000 I-0.238 J-1.783 K0.000 F600.000
G1 X275.466 Y53.271 Z-6.000 F60.000
G2 X274.121 Y50.200 Z-6.000 I-1.269 J-1.274 K0.000 F600.000
G1 X265.879 Y50.200 Z-6.000 F600.000
G1 X265.566 Y50.221 Z-6.000 F600.000
G2 X265.879 Y53.800 Z-6.000 I0.238 J1.783 K0.000 F600.000
G1 X274.121 Y53.800 Z-6.000 F600.000
G1 X274.434 Y53.779 Z-6.000 F600.000
G2 X275.466 Y53.271 Z-6.000 I-0.238 J-1.783 K0.000 F600.000
G1 X275.466 Y53.271 Z-9.000 F60.000
G2 X274.121 Y50.200 Z-9.000 I-1.269 J-1.274 K0.000 F600.000
G1 X265.879 Y50.200 Z-9.000 F600.000
G1 X265.566 Y50.221 Z-9.000 F600.000
G2 X265.879 Y53.800 Z-9.000 I0.238 J1.783 K0.000 F600.000
G1 X274.121 Y53.800 Z-9.000 F600.000
G1 X274.434 Y53.779 Z-9.000 F600.000
G2 X275.466 Y53.271 Z-9.000 I-0.238 J-1.783 K0.000 F600.000
G1 X275.466 Y53.271 Z-12.000 F60.000
G2 X274.121 Y50.200 Z-12.000 I-1.269 J-1.274 K0.000 F600.000
G1 X265.879 Y50.200 Z-12.000 F600.000
G1 X265.566 Y50.221 Z-12.000 F600.000
G2 X265.879 Y53.800 Z-12.000 I0.238 J1.783 K0.000 F600.000
G1 X274.121 Y53.800 Z-12.000 F600.000
G1 X274.434 Y53.779 Z-12.000 F600.000
G2 X275.466 Y53.271 Z-12.000 I-0.238 J-1.783 K0.000 F600.000
G1 X275.466 Y53.271 Z-15.000 F60.000
G2 X274.121 Y50.200 Z-15.000 I-1.269 J-1.274 K0.000 F600.000
G1 X265.879 Y50.200 Z-15.000 F600.000
G1 X265.566 Y50.221 Z-15.000 F600.000
G2 X265.879 Y53.800 Z-15.000 I0.238 J1.783 K0.000 F600.000
G1 X274.121 Y53.800 Z-15.000 F600.000
G1 X274.434 Y53.779 Z-15.000 F600.000
G2 X275.466 Y53.271 Z-15.000 I-0.238 J-1.783 K0.000 F600.000
G1 X275.466 Y53.271 Z-18.000 F60.000
G2 X274.121 Y50.200 Z-18.000 I-1.269 J-1.274 K0.000 F600.000
G1 X265.879 Y50.200 Z-18.000 F600.000
G1 X265.566 Y50.221 Z-18.000 F600.000
G2 X265.879 Y53.800 Z-18.000 I0.238 J1.783 K0.000 F600.000
G1 X274.121 Y53.800 Z-18.000 F600.000
G1 X274.434 Y53.779 Z-18.000 F600.000
G2 X275.466 Y53.271 Z-18.000 I-0.238 J-1.783 K0.000 F600.000
G1 X275.466 Y53.271 Z-21.000 F60.000
G2 X274.121 Y50.200 Z-21.000 I-1.269 J-1.274 K0.000 F600.000
G1 X265.879 Y50.200 Z-21.000 F600.000
G1 X265.566 Y50.221 Z-21.000 F600.000
G2 X265.879 Y53.800 Z-21.000 I0.238 J1.783 K0.000 F600.000
G1 X274.121 Y53.800 Z-21.000 F600.000
G1 X274.434 Y53.779 Z-21.000 F600.000
G2 X275.466 Y53.271 Z-21.000 I-0.238 J-1.783 K0.000 F600.000
G1 X275.466 Y53.271 Z-24.000 F60.000
G2 X274.121 Y50.200 Z-24.000 I-1.269 J-1.274 K0.000 F600.000
G1 X265.879 Y50.200 Z-24.000 F600.000
G1 X265.566 Y50.221 Z-24.000 F600.000
G2 X265.879 Y53.800 Z-24.000 I0.238 J1.783 K0.000 F600.000
G1 X274.121 Y53.800 Z-24.000 F600.000
G1 X274.434 Y53.779 Z-24.000 F600.000
G2 X275.466 Y53.271 Z-24.000 I-0.238 J-1.783 K0.000 F600.000
G1 X275.466 Y53.271 Z-27.000 F60.000
G2 X274.121 Y50.200 Z-27.000 I-1.269 J-1.274 K0.000 F600.000
G1 X265.879 Y50.200 Z-27.000 F600.000
G1 X265.566 Y50.221 Z-27.000 F600.000
G2 X265.879 Y53.800 Z-27.000 I0.238 J1.783 K0.000 F600.000
G1 X274.121 Y53.800 Z-27.000 F600.000
G1 X274.434 Y53.779 Z-27.000 F600.000
G2 X275.466 Y53.271 Z-27.000 I-0.238 J-1.783 K0.000 F600.000
G1 X275.466 Y53.271 Z-30.000 F60.000
G2 X274.121 Y50.200 Z-30.000 I-1.269 J-1.274 K0.000 F600.000
G1 X265.879 Y50.200 Z-30.000 F600.000
G1 X265.566 Y50.221 Z-30.000 F600.000
G2 X265.879 Y53.800 Z-30.000 I0.238 J1.783 K0.000 F600.000
G1 X274.121 Y53.800 Z-30.000 F600.000
G1 X274.434 Y53.779 Z-30.000 F600.000
G2 X275.466 Y53.271 Z-30.000 I-0.238 J-1.783 K0.000 F600.000
G1 X275.466 Y53.271 Z-33.000 F60.000
G2 X274.121 Y50.200 Z-33.000 I-1.269 J-1.274 K0.000 F600.000
G1 X265.879 Y50.200 Z-33.000 F600.000
G1 X265.566 Y50.221 Z-33.000 F600.000
G2 X265.879 Y53.800 Z-33.000 I0.238 J1.783 K0.000 F600.000
G1 X274.121 Y53.800 Z-33.000 F600.000
G1 X274.434 Y53.779 Z-33.000 F600.000
G2 X275.466 Y53.271 Z-33.000 I-0.238 J-1.783 K0.000 F600.000
G1 X275.466 Y53.271 Z-33.500 F60.000
G2 X274.121 Y50.200 Z-33.500 I-1.269 J-1.274 K0.000 F600.000
G1 X265.879 Y50.200 Z-33.500 F600.000
G1 X265.566 Y50.221 Z-33.500 F600.000
G2 X265.879 Y53.800 Z-33.500 I0.238 J1.783 K0.000 F600.000
G1 X274.121 Y53.800 Z-33.500 F600.000
G1 X274.434 Y53.779 Z-33.500 F600.000
G2 X275.466 Y53.271 Z-33.500 I-0.238 J-1.783 K0.000 F600.000
G0 Z5.000
G0 Z5.000
(Begin operation: Profile003)
(Profile003)
(Compensated Tool Path. Diameter: 6.0)
G0 Z5.000
G0 X475.466 Y53.271
G0 Z3.000
G1 X475.466 Y53.271 Z-3.000 F60.000
G2 X474.121 Y50.200 Z-3.000 I-1.269 J-1.274 K0.000 F600.000
G1 X465.879 Y50.200 Z-3.000 F600.000
G1 X465.566 Y50.221 Z-3.000 F600.000
G2 X465.879 Y53.800 Z-3.000 I0.238 J1.783 K0.000 F600.000
G1 X474.121 Y53.800 Z-3.000 F600.000
G1 X474.434 Y53.779 Z-3.000 F600.000
G2 X475.466 Y53.271 Z-3.000 I-0.238 J-1.783 K0.000 F600.000
G1 X475.466 Y53.271 Z-6.000 F60.000
G2 X474.121 Y50.200 Z-6.000 I-1.269 J-1.274 K0.000 F600.000
G1 X465.879 Y50.200 Z-6.000 F600.000
G1 X465.566 Y50.221 Z-6.000 F600.000
G2 X465.879 Y53.800 Z-6.000 I0.238 J1.783 K0.000 F600.000
G1 X474.121 Y53.800 Z-6.000 F600.000
G1 X474.434 Y53.779 Z-6.000 F600.000
G2 X475.466 Y53.271 Z-6.000 I-0.238 J-1.783 K0.000 F600.000
G1 X475.466 Y53.271 Z-9.000 F60.000
G2 X474.121 Y50.200 Z-9.000 I-1.269 J-1.274 K0.000 F600.000
G1 X465.879 Y50.200 Z-9.000 F600.000
G1 X465.566 Y50.221 Z-9.000 F600.000
G2 X465.879 Y53.800 Z-9.000 I0.238 J1.783 K0.000 F600.000
G1 X474.121 Y53.800 Z-9.000 F600.000
G1 X474.434 Y53.779 Z-9.000 F600.000
G2 X475.466 Y53.271 Z-9.000 I-0.238 J-1.783 K0.000 F600.000
G1 X475.466 Y53.271 Z-12.000 F60.000
G2 X474.121 Y50.200 Z-12.000 I-1.269 J-1.274 K0.000 F600.000
G1 X465.879 Y50.200 Z-12.000 F600.000
G1 X465.566 Y50.221 Z-12.000 F600.000
G2 X465.879 Y53.800 Z-12.000 I0.238 J1.783 K0.000 F600.000
G1 X474.121 Y53.800 Z-12.000 F600.000
G1 X474.434 Y53.779 Z-12.000 F600.000
G2 X475.466 Y53.271 Z-12.000 I-0.238 J-1.783 K0.000 F600.000
G1 X475.466 Y53.271 Z-15.000 F60.000
G2 X474.121 Y50.200 Z-15.000 I-1.269 J-1.274 K0.000 F600.000
G1 X465.879 Y50.200 Z-15.000 F600.000
G1 X465.566 Y50.221 Z-15.000 F600.000
G2 X465.879 Y53.800 Z-15.000 I0.238 J1.783 K0.000 F600.000
G1 X474.121 Y53.800 Z-15.000 F600.000
G1 X474.434 Y53.779 Z-15.000 F600.000
G2 X475.466 Y53.271 Z-15.000 I-0.238 J-1.783 K0.000 F600.000
G1 X475.466 Y53.271 Z-18.000 F60.000
G2 X474.121 Y50.200 Z-18.000 I-1.269 J-1.274 K0.000 F600.000
G1 X465.879 Y50.200 Z-18.000 F600.000
G1 X465.566 Y50.221 Z-18.000 F600.000
G2 X465.879 Y53.800 Z-18.000 I0.238 J1.783 K0.000 F600.000
G1 X474.121 Y53.800 Z-18.000 F600.000
G1 X474.434 Y53.779 Z-18.000 F600.000
G2 X475.466 Y53.271 Z-18.000 I-0.238 J-1.783 K0.000 F600.000
G1 X475.466 Y53.271 Z-21.000 F60.000
G2 X474.121 Y50.200 Z-21.000 I-1.269 J-1.274 K0.000 F600.000
G1 X465.879 Y50.200 Z-21.000 F600.000
G1 X465.566 Y50.221 Z-21.000 F600.000
G2 X465.879 Y53.800 Z-21.000 I0.238 J1.783 K0.000 F600.000
G1 X474.121 Y53.800 Z-21.000 F600.000
G1 X474.434 Y53.779 Z-21.000 F600.000
G2 X475.466 Y53.271 Z-21.000 I-0.238 J-1.783 K0.000 F600.000
G1 X475.466 Y53.271 Z-24.000 F60.000
G2 X474.121 Y50.200 Z-24.000 I-1.269 J-1.274 K0.000 F600.000
G1 X465.879 Y50.200 Z-24.000 F600.000
G1 X465.566 Y50.221 Z-24.000 F600.000
G2 X465.879 Y53.800 Z-24.000 I0.238 J1.783 K0.000 F600.000
G1 X474.121 Y53.800 Z-24.000 F600.000
G1 X474.434 Y53.779 Z-24.000 F600.000
G2 X475.466 Y53.271 Z-24.000 I-0.238 J-1.783 K0.000 F600.000
G1 X475.466 Y53.271 Z-27.000 F60.000
G2 X474.121 Y50.200 Z-27.000 I-1.269 J-1.274 K0.000 F600.000
G1 X465.879 Y50.200 Z-27.000 F600.000
G1 X465.566 Y50.221 Z-27.000 F600.000
G2 X465.879 Y53.800 Z-27.000 I0.238 J1.783 K0.000 F600.000
G1 X474.121 Y53.800 Z-27.000 F600.000
G1 X474.434 Y53.779 Z-27.000 F600.000
G2 X475.466 Y53.271 Z-27.000 I-0.238 J-1.783 K0.000 F600.000
G1 X475.466 Y53.271 Z-30.000 F60.000
G2 X474.121 Y50.200 Z-30.000 I-1.269 J-1.274 K0.000 F600.000
G1 X465.879 Y50.200 Z-30.000 F600.000
G1 X465.566 Y50.221 Z-30.000 F600.000
G2 X465.879 Y53.800 Z-30.000 I0.238 J1.783 K0.000 F600.000
G1 X474.121 Y53.800 Z-30.000 F600.000
G1 X474.434 Y53.779 Z-30.000 F600.000
G2 X475.466 Y53.271 Z-30.000 I-0.238 J-1.783 K0.000 F600.000
G1 X475.466 Y53.271 Z-33.000 F60.000
G2 X474.121 Y50.200 Z-33.000 I-1.269 J-1.274 K0.000 F600.000
G1 X465.879 Y50.200 Z-33.000 F600.000
G1 X465.566 Y50.221 Z-33.000 F600.000
G2 X465.879 Y53.800 Z-33.000 I0.238 J1.783 K0.000 F600.000
G1 X474.121 Y53.800 Z-33.000 F600.000
G1 X474.434 Y53.779 Z-33.000 F600.000
G2 X475.466 Y53.271 Z-33.000 I-0.238 J-1.783 K0.000 F600.000
G1 X475.466 Y53.271 Z-33.500 F60.000
G2 X474.121 Y50.200 Z-33.500 I-1.269 J-1.274 K0.000 F600.000
G1 X465.879 Y50.200 Z-33.500 F600.000
G1 X465.566 Y50.221 Z-33.500 F600.000
G2 X465.879 Y53.800 Z-33.500 I0.238 J1.783 K0.000 F600.000
G1 X474.121 Y53.800 Z-33.500 F600.000
G1 X474.434 Y53.779 Z-33.500 F600.000
G2 X475.466 Y53.271 Z-33.500 I-0.238 J-1.783 K0.000 F600.000
G0 Z5.000
G0 Z5.000
(Begin operation: Pocket_Shape)
(Pocket_Shape)
G0 Z5.000
G0 X389.500 Y94.000
G0 Z3.000
G1 X389.500 Y94.000 Z-2.000 F60.000
G1 X350.500 Y94.000 Z-2.000 F600.000
G1 X350.500 Y37.084 Z-2.000 F600.000
G3 X353.584 Y34.000 Z-2.000 I3.013 J-0.071 K0.000 F600.000
G1 X386.416 Y34.000 Z-2.000 F600.000
G3 X389.500 Y37.084 Z-2.000 I0.071 J3.013 K0.000 F600.000
G1 X389.500 Y94.000 Z-2.000 F600.000
G0 Z5.000
G0 X384.700 Y89.200 Z5.000
G0 X384.700 Y89.200 Z3.000
G1 X384.700 Y89.200 Z-2.000 F60.000
G1 X355.300 Y89.200 Z-2.000 F600.000
G1 X355.300 Y38.800 Z-2.000 F600.000
G1 X384.700 Y38.800 Z-2.000 F600.000
G1 X384.700 Y89.200 Z-2.000 F600.000
G0 Z5.000
G0 X379.900 Y84.400 Z5.000
G0 X379.900 Y84.400 Z3.000
G1 X379.900 Y84.400 Z-2.000 F60.000
G1 X360.100 Y84.400 Z-2.000 F600.000
G1 X360.100 Y43.600 Z-2.000 F600.000
G1 X379.900 Y43.600 Z-2.000 F600.000
G1 X379.900 Y84.400 Z-2.000 F600.000
G0 Z5.000
G0 X375.100 Y79.600 Z5.000
G0 X375.100 Y79.600 Z3.000
G1 X375.100 Y79.600 Z-2.000 F60.000
G1 X364.900 Y79.600 Z-2.000 F600.000
G1 X364.900 Y48.400 Z-2.000 F600.000
G1 X375.100 Y48.400 Z-2.000 F600.000
G1 X375.100 Y79.600 Z-2.000 F600.000
G0 Z5.000
G0 X370.300 Y74.800 Z5.000
G0 X370.300 Y74.800 Z3.000
G1 X370.300 Y74.800 Z-2.000 F60.000
G1 X369.700 Y74.800 Z-2.000 F600.000
G1 X369.700 Y53.200 Z-2.000 F600.000
G1 X370.300 Y53.200 Z-2.000 F600.000
G1 X370.300 Y74.800 Z-2.000 F600.000
G1 X370.300 Y74.800 Z-4.000 F60.000
G1 X369.700 Y74.800 Z-4.000 F600.000
G1 X369.700 Y53.200 Z-4.000 F600.000
G1 X370.300 Y53.200 Z-4.000 F600.000
G1 X370.300 Y74.800 Z-4.000 F600.000
G0 Z5.000
G0 Y79.600 Z5.000
G0 Y79.600 Z3.000
G1 X370.300 Y79.600 Z-4.000 F60.000
G1 X364.900 Y79.600 Z-4.000 F600.000
G1 X364.900 Y48.400 Z-4.000 F600.000
G1 X375.100 Y48.400 Z-4.000 F600.000
G1 X375.100 Y79.600 Z-4.000 F600.000
G1 X370.300 Y79.600 Z-4.000 F600.000
G0 Z5.000
G0 Y84.400 Z5.000
G0 Y84.400 Z3.000
G1 X370.300 Y84.400 Z-4.000 F60.000
G1 X360.100 Y84.400 Z-4.000 F600.000
G1 X360.100 Y43.600 Z-4.000 F600.000
G1 X379.900 Y43.600 Z-4.000 F600.000
G1 X379.900 Y84.400 Z-4.000 F600.000
G1 X370.300 Y84.400 Z-4.000 F600.000
G0 Z5.000
G0 Y89.200 Z5.000
G0 Y89.200 Z3.000
G1 X370.300 Y89.200 Z-4.000 F60.000
G1 X355.300 Y89.200 Z-4.000 F600.000
G1 X355.300 Y38.800 Z-4.000 F600.000
G1 X384.700 Y38.800 Z-4.000 F600.000
G1 X384.700 Y89.200 Z-4.000 F600.000
G1 X370.300 Y89.200 Z-4.000 F600.000
G0 Z5.000
G0 Y94.000 Z5.000
G0 Y94.000 Z3.000
G1 X370.300 Y94.000 Z-4.000 F60.000
G1 X350.500 Y94.000 Z-4.000 F600.000
G1 X350.500 Y37.084 Z-4.000 F600.000
G3 X353.584 Y34.000 Z-4.000 I3.013 J-0.071 K0.000 F600.000
G1 X386.416 Y34.000 Z-4.000 F600.000
G3 X389.500 Y37.084 Z-4.000 I0.071 J3.013 K0.000 F600.000
G1 X389.500 Y94.000 Z-4.000 F600.000
G1 X370.300 Y94.000 Z-4.000 F600.000
G1 X370.300 Y94.000 Z-6.000 F60.000
G1 X350.500 Y94.000 Z-6.000 F600.000
G1 X350.500 Y37.084 Z-6.000 F600.000
G3 X353.584 Y34.000 Z-6.000 I3.013 J-0.071 K0.000 F600.000
G1 X386.416 Y34.000 Z-6.000 F600.000
G3 X389.500 Y37.084 Z-6.000 I0.071 J3.013 K0.000 F600.000
G1 X389.500 Y94.000 Z-6.000 F600.000
G1 X370.300 Y94.000 Z-6.000 F600.000
G0 Z5.000
G0 Y89.200 Z5.000
G0 Y89.200 Z3.000
G1 X370.300 Y89.200 Z-6.000 F60.000
G1 X355.300 Y89.200 Z-6.000 F600.000
G1 X355.300 Y38.800 Z-6.000 F600.000
G1 X384.700 Y38.800 Z-6.000 F600.000
G1 X384.700 Y89.200 Z-6.000 F600.000
G1 X370.300 Y89.200 Z-6.000 F600.000
G0 Z5.000
G0 Y84.400 Z5.000
G0 Y84.400 Z3.000
G1 X370.300 Y84.400 Z-6.000 F60.000
G1 X360.100 Y84.400 Z-6.000 F600.000
G1 X360.100 Y43.600 Z-6.000 F600.000
G1 X379.900 Y43.600 Z-6.000 F600.000
G1 X379.900 Y84.400 Z-6.000 F600.000
G1 X370.300 Y84.400 Z-6.000 F600.000
G0 Z5.000
G0 Y79.600 Z5.000
G0 Y79.600 Z3.000
G1 X370.300 Y79.600 Z-6.000 F60.000
G1 X364.900 Y79.600 Z-6.000 F600.000
G1 X364.900 Y48.400 Z-6.000 F600.000
G1 X375.100 Y48.400 Z-6.000 F600.000
G1 X375.100 Y79.600 Z-6.000 F600.000
G1 X370.300 Y79.600 Z-6.000 F600.000
G0 Z5.000
G0 Y74.800 Z5.000
G0 Y74.800 Z3.000
G1 X370.300 Y74.800 Z-6.000 F60.000
G1 X369.700 Y74.800 Z-6.000 F600.000
G1 X369.700 Y53.200 Z-6.000 F600.000
G1 X370.300 Y53.200 Z-6.000 F600.000
G1 X370.300 Y74.800 Z-6.000 F600.000
G1 X370.300 Y74.800 Z-8.000 F60.000
G1 X369.700 Y74.800 Z-8.000 F600.000
G1 X369.700 Y53.200 Z-8.000 F600.000
G1 X370.300 Y53.200 Z-8.000 F600.000
G1 X370.300 Y74.800 Z-8.000 F600.000
G0 Z5.000
G0 Y79.600 Z5.000
G0 Y79.600 Z3.000
G1 X370.300 Y79.600 Z-8.000 F60.000
G1 X364.900 Y79.600 Z-8.000 F600.000
G1 X364.900 Y48.400 Z-8.000 F600.000
G1 X375.100 Y48.400 Z-8.000 F600.000
G1 X375.100 Y79.600 Z-8.000 F600.000
G1 X370.300 Y79.600 Z-8.000 F600.000
G0 Z5.000
G0 Y84.400 Z5.000
G0 Y84.400 Z3.000
G1 X370.300 Y84.400 Z-8.000 F60.000
G1 X360.100 Y84.400 Z-8.000 F600.000
G1 X360.100 Y43.600 Z-8.000 F600.000
G1 X379.900 Y43.600 Z-8.000 F600.000
G1 X379.900 Y84.400 Z-8.000 F600.000
G1 X370.300 Y84.400 Z-8.000 F600.000
G0 Z5.000
G0 Y89.200 Z5.000
G0 Y89.200 Z3.000
G1 X370.300 Y89.200 Z-8.000 F60.000
G1 X355.300 Y89.200 Z-8.000 F600.000
G1 X355.300 Y38.800 Z-8.000 F600.000
G1 X384.700 Y38.800 Z-8.000 F600.000
G1 X384.700 Y89.200 Z-8.000 F600.000
G1 X370.300 Y89.200 Z-8.000 F600.000
G0 Z5.000
G0 Y94.000 Z5.000
G0 Y94.000 Z3.000
G1 X370.300 Y94.000 Z-8.000 F60.000
G1 X350.500 Y94.000 Z-8.000 F600.000
G1 X350.500 Y37.084 Z-8.000 F600.000
G3 X353.584 Y34.000 Z-8.000 I3.013 J-0.071 K0.000 F600.000
G1 X386.416 Y34.000 Z-8.000 F600.000
G3 X389.500 Y37.084 Z-8.000 I0.071 J3.013 K0.000 F600.000
G1 X389.500 Y94.000 Z-8.000 F600.000
G1 X370.300 Y94.000 Z-8.000 F600.000
G1 X370.300 Y94.000 Z-10.000 F60.000
G1 X350.500 Y94.000 Z-10.000 F600.000
G1 X350.500 Y37.084 Z-10.000 F600.000
G3 X353.584 Y34.000 Z-10.000 I3.013 J-0.071 K0.000 F600.000
G1 X386.416 Y34.000 Z-10.000 F600.000
G3 X389.500 Y37.084 Z-10.000 I0.071 J3.013 K0.000 F600.000
G1 X389.500 Y94.000 Z-10.000 F600.000
G1 X370.300 Y94.000 Z-10.000 F600.000
G0 Z5.000
G0 Y89.200 Z5.000
G0 Y89.200 Z3.000
G1 X370.300 Y89.200 Z-10.000 F60.000
G1 X355.300 Y89.200 Z-10.000 F600.000
G1 X355.300 Y38.800 Z-10.000 F600.000
G1 X384.700 Y38.800 Z-10.000 F600.000
G1 X384.700 Y89.200 Z-10.000 F600.000
G1 X370.300 Y89.200 Z-10.000 F600.000
G0 Z5.000
G0 Y84.400 Z5.000
G0 Y84.400 Z3.000
G1 X370.300 Y84.400 Z-10.000 F60.000
G1 X360.100 Y84.400 Z-10.000 F600.000
G1 X360.100 Y43.600 Z-10.000 F600.000
G1 X379.900 Y43.600 Z-10.000 F600.000
G1 X379.900 Y84.400 Z-10.000 F600.000
G1 X370.300 Y84.400 Z-10.000 F600.000
G0 Z5.000
G0 Y79.600 Z5.000
G0 Y79.600 Z3.000
G1 X370.300 Y79.600 Z-10.000 F60.000
G1 X364.900 Y79.600 Z-10.000 F600.000
G1 X364.900 Y48.400 Z-10.000 F600.000
G1 X375.100 Y48.400 Z-10.000 F600.000
G1 X375.100 Y79.600 Z-10.000 F600.000
G1 X370.300 Y79.600 Z-10.000 F600.000
G0 Z5.000
G0 Y74.800 Z5.000
G0 Y74.800 Z3.000
G1 X370.300 Y74.800 Z-10.000 F60.000
G1 X369.700 Y74.800 Z-10.000 F600.000
G1 X369.700 Y53.200 Z-10.000 F600.000
G1 X370.300 Y53.200 Z-10.000 F600.000
G1 X370.300 Y74.800 Z-10.000 F600.000
G1 X370.300 Y74.800 Z-12.000 F60.000
G1 X369.700 Y74.800 Z-12.000 F600.000
G1 X369.700 Y53.200 Z-12.000 F600.000
G1 X370.300 Y53.200 Z-12.000 F600.000
G1 X370.300 Y74.800 Z-12.000 F600.000
G0 Z5.000
G0 Y79.600 Z5.000
G0 Y79.600 Z3.000
G1 X370.300 Y79.600 Z-12.000 F60.000
G1 X364.900 Y79.600 Z-12.000 F600.000
G1 X364.900 Y48.400 Z-12.000 F600.000
G1 X375.100 Y48.400 Z-12.000 F600.000
G1 X375.100 Y79.600 Z-12.000 F600.000
G1 X370.300 Y79.600 Z-12.000 F600.000
G0 Z5.000
G0 Y84.400 Z5.000
G0 Y84.400 Z3.000
G1 X370.300 Y84.400 Z-12.000 F60.000
G1 X360.100 Y84.400 Z-12.000 F600.000
G1 X360.100 Y43.600 Z-12.000 F600.000
G1 X379.900 Y43.600 Z-12.000 F600.000
G1 X379.900 Y84.400 Z-12.000 F600.000
G1 X370.300 Y84.400 Z-12.000 F600.000
G0 Z5.000
G0 Y89.200 Z5.000
G0 Y89.200 Z3.000
G1 X370.300 Y89.200 Z-12.000 F60.000
G1 X355.300 Y89.200 Z-12.000 F600.000
G1 X355.300 Y38.800 Z-12.000 F600.000
G1 X384.700 Y38.800 Z-12.000 F600.000
G1 X384.700 Y89.200 Z-12.000 F600.000
G1 X370.300 Y89.200 Z-12.000 F600.000
G0 Z5.000
G0 Y94.000 Z5.000
G0 Y94.000 Z3.000
G1 X370.300 Y94.000 Z-12.000 F60.000
G1 X350.500 Y94.000 Z-12.000 F600.000
G1 X350.500 Y37.084 Z-12.000 F600.000
G3 X353.584 Y34.000 Z-12.000 I3.013 J-0.071 K0.000 F600.000
G1 X386.416 Y34.000 Z-12.000 F600.000
G3 X389.500 Y37.084 Z-12.000 I0.071 J3.013 K0.000 F600.000
G1 X389.500 Y94.000 Z-12.000 F600.000
G1 X370.300 Y94.000 Z-12.000 F600.000
G1 X370.300 Y94.000 Z-14.000 F60.000
G1 X350.500 Y94.000 Z-14.000 F600.000
G1 X350.500 Y37.084 Z-14.000 F600.000
G3 X353.584 Y34.000 Z-14.000 I3.013 J-0.071 K0.000 F600.000
G1 X386.416 Y34.000 Z-14.000 F600.000
G3 X389.500 Y37.084 Z-14.000 I0.071 J3.013 K0.000 F600.000
G1 X389.500 Y94.000 Z-14.000 F600.000
G1 X370.300 Y94.000 Z-14.000 F600.000
G0 Z5.000
G0 Y89.200 Z5.000
G0 Y89.200 Z3.000
G1 X370.300 Y89.200 Z-14.000 F60.000
G1 X355.300 Y89.200 Z-14.000 F600.000
G1 X355.300 Y38.800 Z-14.000 F600.000
G1 X384.700 Y38.800 Z-14.000 F600.000
G1 X384.700 Y89.200 Z-14.000 F600.000
G1 X370.300 Y89.200 Z-14.000 F600.000
G0 Z5.000
G0 Y84.400 Z5.000
G0 Y84.400 Z3.000
G1 X370.300 Y84.400 Z-14.000 F60.000
G1 X360.100 Y84.400 Z-14.000 F600.000
G1 X360.100 Y43.600 Z-14.000 F600.000
G1 X379.900 Y43.600 Z-14.000 F600.000
G1 X379.900 Y84.400 Z-14.000 F600.000
G1 X370.300 Y84.400 Z-14.000 F600.000
G0 Z5.000
G0 Y79.600 Z5.000
G0 Y79.600 Z3.000
G1 X370.300 Y79.600 Z-14.000 F60.000
G1 X364.900 Y79.600 Z-14.000 F600.000
G1 X364.900 Y48.400 Z-14.000 F600.000
G1 X375.100 Y48.400 Z-14.000 F600.000
G1 X375.100 Y79.600 Z-14.000 F600.000
G1 X370.300 Y79.600 Z-14.000 F600.000
G0 Z5.000
G0 Y74.800 Z5.000
G0 Y74.800 Z3.000
G1 X370.300 Y74.800 Z-14.000 F60.000
G1 X369.700 Y74.800 Z-14.000 F600.000
G1 X369.700 Y53.200 Z-14.000 F600.000
G1 X370.300 Y53.200 Z-14.000 F600.000
G1 X370.300 Y74.800 Z-14.000 F600.000
G1 X370.300 Y74.800 Z-16.000 F60.000
G1 X369.700 Y74.800 Z-16.000 F600.000
G1 X369.700 Y53.200 Z-16.000 F600.000
G1 X370.300 Y53.200 Z-16.000 F600.000
G1 X370.300 Y74.800 Z-16.000 F600.000
G0 Z5.000
G0 Y79.600 Z5.000
G0 Y79.600 Z3.000
G1 X370.300 Y79.600 Z-16.000 F60.000
G1 X364.900 Y79.600 Z-16.000 F600.000
G1 X364.900 Y48.400 Z-16.000 F600.000
G1 X375.100 Y48.400 Z-16.000 F600.000
G1 X375.100 Y79.600 Z-16.000 F600.000
G1 X370.300 Y79.600 Z-16.000 F600.000
G0 Z5.000
G0 Y84.400 Z5.000
G0 Y84.400 Z3.000
G1 X370.300 Y84.400 Z-16.000 F60.000
G1 X360.100 Y84.400 Z-16.000 F600.000
G1 X360.100 Y43.600 Z-16.000 F600.000
G1 X379.900 Y43.600 Z-16.000 F600.000
G1 X379.900 Y84.400 Z-16.000 F600.000
G1 X370.300 Y84.400 Z-16.000 F600.000
G0 Z5.000
G0 Y89.200 Z5.000
G0 Y89.200 Z3.000
G1 X370.300 Y89.200 Z-16.000 F60.000
G1 X355.300 Y89.200 Z-16.000 F600.000
G1 X355.300 Y38.800 Z-16.000 F600.000
G1 X384.700 Y38.800 Z-16.000 F600.000
G1 X384.700 Y89.200 Z-16.000 F600.000
G1 X370.300 Y89.200 Z-16.000 F600.000
G0 Z5.000
G0 Y94.000 Z5.000
G0 Y94.000 Z3.000
G1 X370.300 Y94.000 Z-16.000 F60.000
G1 X350.500 Y94.000 Z-16.000 F600.000
G1 X350.500 Y37.084 Z-16.000 F600.000
G3 X353.584 Y34.000 Z-16.000 I3.013 J-0.071 K0.000 F600.000
G1 X386.416 Y34.000 Z-16.000 F600.000
G3 X389.500 Y37.084 Z-16.000 I0.071 J3.013 K0.000 F600.000
G1 X389.500 Y94.000 Z-16.000 F600.000
G1 X370.300 Y94.000 Z-16.000 F600.000
G0 Z5.000
G0 Z5.000
(Begin operation: DressupTag)
G0 Z5.000
G0 X732.121 Y96.121 Z5.000
G0 X732.121 Y96.121 Z3.000
G1 X732.121 Y96.121 Z-2.000 F60.000
G2 X733.000 Y94.000 Z-2.000 I-2.121 J-2.121 K0.000 F600.000
G1 X733.000 Y46.000 Z-2.000 F600.000
G2 X694.069 Y7.001 Z-2.000 I-39.001 J0.001 K0.000 F600.000
G1 X46.000 Y7.000 Z-2.000 F600.000
G2 X7.001 Y45.931 Z-2.000 I0.001 J39.001 K0.000 F600.000
G1 X7.000 Y94.000 Z-2.000 F600.000
G2 X10.000 Y97.000 Z-2.000 I3.000 J-0.000 K0.000 F600.000
G1 X730.000 Y97.000 Z-2.000 F600.000
G2 X732.121 Y96.121 Z-2.000 I-0.000 J-3.000 K0.000 F600.000
G1 X732.121 Y96.121 Z-4.000 F60.000
G2 X733.000 Y94.000 Z-4.000 I-2.121 J-2.121 K0.000 F600.000
G1 X733.000 Y46.000 Z-4.000 F600.000
G2 X694.069 Y7.001 Z-4.000 I-39.001 J0.001 K0.000 F600.000
G1 X46.000 Y7.000 Z-4.000 F600.000
G2 X7.001 Y45.931 Z-4.000 I0.001 J39.001 K0.000 F600.000
G1 X7.000 Y94.000 Z-4.000 F600.000
G2 X10.000 Y97.000 Z-4.000 I3.000 J-0.000 K0.000 F600.000
G1 X730.000 Y97.000 Z-4.000 F600.000
G2 X732.121 Y96.121 Z-4.000 I-0.000 J-3.000 K0.000 F600.000
G1 X732.121 Y96.121 Z-6.000 F60.000
G2 X733.000 Y94.000 Z-6.000 I-2.121 J-2.121 K0.000 F600.000
G1 X733.000 Y46.000 Z-6.000 F600.000
G2 X694.069 Y7.001 Z-6.000 I-39.001 J0.001 K0.000 F600.000
G1 X46.000 Y7.000 Z-6.000 F600.000
G2 X7.001 Y45.931 Z-6.000 I0.001 J39.001 K0.000 F600.000
G1 X7.000 Y94.000 Z-6.000 F600.000
G2 X10.000 Y97.000 Z-6.000 I3.000 J-0.000 K0.000 F600.000
G1 X730.000 Y97.000 Z-6.000 F600.000
G2 X732.121 Y96.121 Z-6.000 I-0.000 J-3.000 K0.000 F600.000
G1 X732.121 Y96.121 Z-8.000 F60.000
G2 X733.000 Y94.000 Z-8.000 I-2.121 J-2.121 K0.000 F600.000
G1 X733.000 Y46.000 Z-8.000 F600.000
G2 X694.069 Y7.001 Z-8.000 I-39.001 J0.001 K0.000 F600.000
G1 X46.000 Y7.000 Z-8.000 F600.000
G2 X7.001 Y45.931 Z-8.000 I0.001 J39.001 K0.000 F600.000
G1 X7.000 Y94.000 Z-8.000 F600.000
G2 X10.000 Y97.000 Z-8.000 I3.000 J-0.000 K0.000 F600.000
G1 X730.000 Y97.000 Z-8.000 F600.000
G2 X732.121 Y96.121 Z-8.000 I-0.000 J-3.000 K0.000 F600.000
G1 X732.121 Y96.121 Z-10.000 F60.000
G2 X733.000 Y94.000 Z-10.000 I-2.121 J-2.121 K0.000 F600.000
G1 X733.000 Y46.000 Z-10.000 F600.000
G2 X694.069 Y7.001 Z-10.000 I-39.001 J0.001 K0.000 F600.000
G1 X46.000 Y7.000 Z-10.000 F600.000
G2 X7.001 Y45.931 Z-10.000 I0.001 J39.001 K0.000 F600.000
G1 X7.000 Y94.000 Z-10.000 F600.000
G2 X10.000 Y97.000 Z-10.000 I3.000 J-0.000 K0.000 F600.000
G1 X730.000 Y97.000 Z-10.000 F600.000
G2 X732.121 Y96.121 Z-10.000 I-0.000 J-3.000 K0.000 F600.000
G1 X732.121 Y96.121 Z-12.000 F60.000
G2 X733.000 Y94.000 Z-12.000 I-2.121 J-2.121 K0.000 F600.000
G1 X733.000 Y46.000 Z-12.000 F600.000
G2 X694.069 Y7.001 Z-12.000 I-39.001 J0.001 K0.000 F600.000
G1 X46.000 Y7.000 Z-12.000 F600.000
G2 X7.001 Y45.931 Z-12.000 I0.001 J39.001 K0.000 F600.000
G1 X7.000 Y94.000 Z-12.000 F600.000
G2 X10.000 Y97.000 Z-12.000 I3.000 J-0.000 K0.000 F600.000
G1 X730.000 Y97.000 Z-12.000 F600.000
G2 X732.121 Y96.121 Z-12.000 I-0.000 J-3.000 K0.000 F600.000
G1 X732.121 Y96.121 Z-14.000 F60.000
G2 X733.000 Y94.000 Z-14.000 I-2.121 J-2.121 K0.000 F600.000
G1 X733.000 Y46.000 Z-14.000 F600.000
G2 X694.069 Y7.001 Z-14.000 I-39.001 J0.001 K0.000 F600.000
G1 X46.000 Y7.000 Z-14.000 F600.000
G2 X7.001 Y45.931 Z-14.000 I0.001 J39.001 K0.000 F600.000
G1 X7.000 Y94.000 Z-14.000 F600.000
G2 X10.000 Y97.000 Z-14.000 I3.000 J-0.000 K0.000 F600.000
G1 X730.000 Y97.000 Z-14.000 F600.000
G2 X732.121 Y96.121 Z-14.000 I-0.000 J-3.000 K0.000 F600.000
G1 X732.121 Y96.121 Z-16.000 F60.000
G2 X733.000 Y94.000 Z-16.000 I-2.121 J-2.121 K0.000 F600.000
G1 X733.000 Y46.000 Z-16.000 F600.000
G2 X694.069 Y7.001 Z-16.000 I-39.001 J0.001 K0.000 F600.000
G1 X46.000 Y7.000 Z-16.000 F600.000
G2 X7.001 Y45.931 Z-16.000 I0.001 J39.001 K0.000 F600.000
G1 X7.000 Y94.000 Z-16.000 F600.000
G2 X10.000 Y97.000 Z-16.000 I3.000 J-0.000 K0.000 F600.000
G1 X730.000 Y97.000 Z-16.000 F600.000
G2 X732.121 Y96.121 Z-16.000 I-0.000 J-3.000 K0.000 F600.000
G1 X732.121 Y96.121 Z-18.000 F60.000
G2 X733.000 Y94.000 Z-18.000 I-2.121 J-2.121 K0.000 F600.000
G1 X733.000 Y46.000 Z-18.000 F600.000
G2 X694.069 Y7.001 Z-18.000 I-39.001 J0.001 K0.000 F600.000
G1 X46.000 Y7.000 Z-18.000 F600.000
G2 X7.001 Y45.931 Z-18.000 I0.001 J39.001 K0.000 F600.000
G1 X7.000 Y94.000 Z-18.000 F600.000
G2 X10.000 Y97.000 Z-18.000 I3.000 J-0.000 K0.000 F600.000
G1 X730.000 Y97.000 Z-18.000 F600.000
G2 X732.121 Y96.121 Z-18.000 I-0.000 J-3.000 K0.000 F600.000
G1 X732.121 Y96.121 Z-20.000 F60.000
G2 X733.000 Y94.000 Z-20.000 I-2.121 J-2.121 K0.000 F600.000
G1 X733.000 Y46.000 Z-20.000 F600.000
G2 X694.069 Y7.001 Z-20.000 I-39.001 J0.001 K0.000 F600.000
G1 X46.000 Y7.000 Z-20.000 F600.000
G2 X7.001 Y45.931 Z-20.000 I0.001 J39.001 K0.000 F600.000
G1 X7.000 Y94.000 Z-20.000 F600.000
G2 X10.000 Y97.000 Z-20.000 I3.000 J-0.000 K0.000 F600.000
G1 X730.000 Y97.000 Z-20.000 F600.000
G2 X732.121 Y96.121 Z-20.000 I-0.000 J-3.000 K0.000 F600.000
G1 X732.121 Y96.121 Z-22.000 F60.000
G2 X733.000 Y94.000 Z-22.000 I-2.121 J-2.121 K0.000 F600.000
G1 X733.000 Y46.000 Z-22.000 F600.000
G2 X694.069 Y7.001 Z-22.000 I-39.001 J0.001 K0.000 F600.000
G1 X46.000 Y7.000 Z-22.000 F600.000
G2 X7.001 Y45.931 Z-22.000 I0.001 J39.001 K0.000 F600.000
G1 X7.000 Y94.000 Z-22.000 F600.000
G2 X10.000 Y97.000 Z-22.000 I3.000 J-0.000 K0.000 F600.000
G1 X730.000 Y97.000 Z-22.000 F600.000
G2 X732.121 Y96.121 Z-22.000 I-0.000 J-3.000 K0.000 F600.000
G1 X732.121 Y96.121 Z-24.000 F60.000
G2 X733.000 Y94.000 Z-24.000 I-2.121 J-2.121 K0.000 F600.000
G1 X733.000 Y46.000 Z-24.000 F600.000
G2 X694.069 Y7.001 Z-24.000 I-39.001 J0.001 K0.000 F600.000
G1 X587.458 Y7.001 Z-24.000 F600.000
G1 X586.958 Y7.001 Z-23.500 F330.000
G1 X585.158 Y7.001 Z-23.500 F600.000
G1 X584.658 Y7.001 Z-24.000 F330.000
G1 X371.435 Y7.000 Z-24.000 F600.000
G1 X370.935 Y7.000 Z-23.500 F330.000
G1 X369.135 Y7.000 Z-23.500 F600.000
G1 X368.635 Y7.000 Z-24.000 F330.000
G1 X155.412 Y7.000 Z-24.000 F600.000
G1 X154.912 Y7.000 Z-23.500 F330.000
G1 X153.112 Y7.000 Z-23.500 F600.000
G1 X152.612 Y7.000 Z-24.000 F330.000
G1 X46.000 Y7.000 Z-24.000 F600.000
G2 X7.001 Y45.931 Z-24.000 I0.001 J39.001 K0.000 F600.000
G1 X7.000 Y94.000 Z-24.000 F600.000
G2 X10.000 Y97.000 Z-24.000 I3.000 J-0.000 K0.000 F600.000
G1 X128.600 Y97.000 Z-24.000 F600.000
G1 X129.100 Y97.000 Z-23.500 F330.000
G1 X130.900 Y97.000 Z-23.500 F600.000
G1 X131.400 Y97.000 Z-24.000 F330.000
G1 X368.600 Y97.000 Z-24.000 F600.000
G1 X369.100 Y97.000 Z-23.500 F330.000
G1 X370.900 Y97.000 Z-23.500 F600.000
G1 X371.400 Y97.000 Z-24.000 F330.000
G1 X608.600 Y97.000 Z-24.000 F600.000
G1 X609.100 Y97.000 Z-23.500 F330.000
G1 X610.900 Y97.000 Z-23.500 F600.000
G1 X611.400 Y97.000 Z-24.000 F330.000
G1 X730.000 Y97.000 Z-24.000 F600.000
G2 X732.121 Y96.121 Z-24.000 I-0.000 J-3.000 K0.000 F600.000
G1 X732.121 Y96.121 Z-26.000 F60.000
G2 X733.000 Y94.000 Z-26.000 I-2.121 J-2.121 K0.000 F600.000
G1 X733.000 Y46.000 Z-26.000 F600.000
G2 X694.069 Y7.001 Z-26.000 I-39.001 J0.001 K0.000 F600.000
G1 X589.458 Y7.001 Z-26.000 F600.000
G1 X586.958 Y7.001 Z-23.500 F330.000
G1 X585.158 Y7.001 Z-23.500 F600.000
G1 X582.658 Y7.001 Z-26.000 F330.000
G1 X373.435 Y7.000 Z-26.000 F600.000
G1 X370.935 Y7.000 Z-23.500 F330.000
G1 X369.135 Y7.000 Z-23.500 F600.000
G1 X366.635 Y7.000 Z-26.000 F330.000
G1 X157.412 Y7.000 Z-26.000 F600.000
G1 X154.912 Y7.000 Z-23.500 F330.000
G1 X153.112 Y7.000 Z-23.500 F600.000
G1 X150.612 Y7.000 Z-26.000 F330.000
G1 X46.000 Y7.000 Z-26.000 F600.000
G2 X7.001 Y45.931 Z-26.000 I0.001 J39.001 K0.000 F600.000
G1 X7.000 Y94.000 Z-26.000 F600.000
G2 X10.000 Y97.000 Z-26.000 I3.000 J-0.000 K0.000 F600.000
G1 X126.600 Y97.000 Z-26.000 F600.000
G1 X129.100 Y97.000 Z-23.500 F330.000
G1 X130.900 Y97.000 Z-23.500 F600.000
G1 X133.400 Y97.000 Z-26.000 F330.000
G1 X366.600 Y97.000 Z-26.000 F600.000
G1 X369.100 Y97.000 Z-23.500 F330.000
G1 X370.900 Y97.000 Z-23.500 F600.000
G1 X373.400 Y97.000 Z-26.000 F330.000
G1 X606.600 Y97.000 Z-26.000 F600.000
G1 X609.100 Y97.000 Z-23.500 F330.000
G1 X610.900 Y97.000 Z-23.500 F600.000
G1 X613.400 Y97.000 Z-26.000 F330.000
G1 X730.000 Y97.000 Z-26.000 F600.000
G2 X732.121 Y96.121 Z-26.000 I-0.000 J-3.000 K0.000 F600.000
G1 X732.121 Y96.121 Z-28.000 F60.000
G2 X733.000 Y94.000 Z-28.000 I-2.121 J-2.121 K0.000 F600.000
G1 X733.000 Y46.000 Z-28.000 F600.000
G2 X694.069 Y7.001 Z-28.000 I-39.001 J0.001 K0.000 F600.000
G1 X591.458 Y7.001 Z-28.000 F600.000
G1 X586.958 Y7.001 Z-23.500 F330.000
G1 X585.158 Y7.001 Z-23.500 F600.000
G1 X580.658 Y7.001 Z-28.000 F330.000
G1 X375.435 Y7.000 Z-28.000 F600.000
G1 X370.935 Y7.000 Z-23.500 F330.000
G1 X369.135 Y7.000 Z-23.500 F600.000
G1 X364.635 Y7.000 Z-28.000 F330.000
G1 X159.412 Y7.000 Z-28.000 F600.000
G1 X154.912 Y7.000 Z-23.500 F330.000
G1 X153.112 Y7.000 Z-23.500 F600.000
G1 X148.612 Y7.000 Z-28.000 F330.000
G1 X46.000 Y7.000 Z-28.000 F600.000
G2 X7.001 Y45.931 Z-28.000 I0.001 J39.001 K0.000 F600.000
G1 X7.000 Y94.000 Z-28.000 F600.000
G2 X10.000 Y97.000 Z-28.000 I3.000 J-0.000 K0.000 F600.000
G1 X124.600 Y97.000 Z-28.000 F600.000
G1 X129.100 Y97.000 Z-23.500 F330.000
G1 X130.900 Y97.000 Z-23.500 F600.000
G1 X135.400 Y97.000 Z-28.000 F330.000
G1 X364.600 Y97.000 Z-28.000 F600.000
G1 X369.100 Y97.000 Z-23.500 F330.000
G1 X370.900 Y97.000 Z-23.500 F600.000
G1 X375.400 Y97.000 Z-28.000 F330.000
G1 X604.600 Y97.000 Z-28.000 F600.000
G1 X609.100 Y97.000 Z-23.500 F330.000
G1 X610.900 Y97.000 Z-23.500 F600.000
G1 X615.400 Y97.000 Z-28.000 F330.000
G1 X730.000 Y97.000 Z-28.000 F600.000
G2 X732.121 Y96.121 Z-28.000 I-0.000 J-3.000 K0.000 F600.000
G1 X732.121 Y96.121 Z-30.000 F60.000
G2 X733.000 Y94.000 Z-30.000 I-2.121 J-2.121 K0.000 F600.000
G1 X733.000 Y46.000 Z-30.000 F600.000
G2 X694.069 Y7.001 Z-30.000 I-39.001 J0.001 K0.000 F600.000
G1 X593.458 Y7.001 Z-30.000 F600.000
G1 X586.958 Y7.001 Z-23.500 F330.000
G1 X585.158 Y7.001 Z-23.500 F600.000
G1 X578.658 Y7.001 Z-30.000 F330.000
G1 X377.435 Y7.000 Z-30.000 F600.000
G1 X370.935 Y7.000 Z-23.500 F330.000
G1 X369.135 Y7.000 Z-23.500 F600.000
G1 X362.635 Y7.000 Z-30.000 F330.000
G1 X161.412 Y7.000 Z-30.000 F600.000
G1 X154.912 Y7.000 Z-23.500 F330.000
G1 X153.112 Y7.000 Z-23.500 F600.000
G1 X146.612 Y7.000 Z-30.000 F330.000
G1 X46.000 Y7.000 Z-30.000 F600.000
G2 X7.001 Y45.931 Z-30.000 I0.001 J39.001 K0.000 F600.000
G1 X7.000 Y94.000 Z-30.000 F600.000
G2 X10.000 Y97.000 Z-30.000 I3.000 J-0.000 K0.000 F600.000
G1 X122.600 Y97.000 Z-30.000 F600.000
G1 X129.100 Y97.000 Z-23.500 F330.000
G1 X130.900 Y97.000 Z-23.500 F600.000
G1 X137.400 Y97.000 Z-30.000 F330.000
G1 X362.600 Y97.000 Z-30.000 F600.000
G1 X369.100 Y97.000 Z-23.500 F330.000
G1 X370.900 Y97.000 Z-23.500 F600.000
G1 X377.400 Y97.000 Z-30.000 F330.000
G1 X602.600 Y97.000 Z-30.000 F600.000
G1 X609.100 Y97.000 Z-23.500 F330.000
G1 X610.900 Y97.000 Z-23.500 F600.000
G1 X617.400 Y97.000 Z-30.000 F330.000
G1 X730.000 Y97.000 Z-30.000 F600.000
G2 X732.121 Y96.121 Z-30.000 I-0.000 J-3.000 K0.000 F600.000
G1 X732.121 Y96.121 Z-32.000 F60.000
G2 X733.000 Y94.000 Z-32.000 I-2.121 J-2.121 K0.000 F600.000
G1 X733.000 Y46.000 Z-32.000 F600.000
G2 X694.069 Y7.001 Z-32.000 I-39.001 J0.001 K0.000 F600.000
G1 X595.458 Y7.001 Z-32.000 F600.000
G1 X586.958 Y7.001 Z-23.500 F330.000
G1 X585.158 Y7.001 Z-23.500 F600.000
G1 X576.658 Y7.001 Z-32.000 F330.000
G1 X379.435 Y7.000 Z-32.000 F600.000
G1 X370.935 Y7.000 Z-23.500 F330.000
G1 X369.135 Y7.000 Z-23.500 F600.000
G1 X360.635 Y7.000 Z-32.000 F330.000
G1 X163.412 Y7.000 Z-32.000 F600.000
G1 X154.912 Y7.000 Z-23.500 F330.000
G1 X153.112 Y7.000 Z-23.500 F600.000
G1 X144.612 Y7.000 Z-32.000 F330.000
G1 X46.000 Y7.000 Z-32.000 F600.000
G2 X7.001 Y45.931 Z-32.000 I0.001 J39.001 K0.000 F600.000
G1 X7.000 Y94.000 Z-32.000 F600.000
G2 X10.000 Y97.000 Z-32.000 I3.000 J-0.000 K0.000 F600.000
G1 X120.600 Y97.000 Z-32.000 F600.000
G1 X129.100 Y97.000 Z-23.500 F330.000
G1 X130.900 Y97.000 Z-23.500 F600.000
G1 X139.400 Y97.000 Z-32.000 F330.000
G1 X360.600 Y97.000 Z-32.000 F600.000
G1 X369.100 Y97.000 Z-23.500 F330.000
G1 X370.900 Y97.000 Z-23.500 F600.000
G1 X379.400 Y97.000 Z-32.000 F330.000
G1 X600.600 Y97.000 Z-32.000 F600.000
G1 X609.100 Y97.000 Z-23.500 F330.000
G1 X610.900 Y97.000 Z-23.500 F600.000
G1 X619.400 Y97.000 Z-32.000 F330.000
G1 X730.000 Y97.000 Z-32.000 F600.000
G2 X732.121 Y96.121 Z-32.000 I-0.000 J-3.000 K0.000 F600.000
G1 X732.121 Y96.121 Z-33.500 F60.000
G2 X733.000 Y94.000 Z-33.500 I-2.121 J-2.121 K0.000 F600.000
G1 X733.000 Y46.000 Z-33.500 F600.000
G2 X694.069 Y7.001 Z-33.500 I-39.001 J0.001 K0.000 F600.000
G1 X596.958 Y7.001 Z-33.500 F600.000
G1 X586.958 Y7.001 Z-23.500 F330.000
G1 X585.158 Y7.001 Z-23.500 F600.000
G1 X575.158 Y7.001 Z-33.500 F330.000
G1 X380.935 Y7.000 Z-33.500 F600.000
G1 X370.935 Y7.000 Z-23.500 F330.000
G1 X369.135 Y7.000 Z-23.500 F600.000
G1 X359.135 Y7.000 Z-33.500 F330.000
G1 X164.912 Y7.000 Z-33.500 F600.000
G1 X154.912 Y7.000 Z-23.500 F330.000
G1 X153.112 Y7.000 Z-23.500 F600.000
G1 X143.112 Y7.000 Z-33.500 F330.000
G1 X46.000 Y7.000 Z-33.500 F600.000
G2 X7.001 Y45.931 Z-33.500 I0.001 J39.001 K0.000 F600.000
G1 X7.000 Y94.000 Z-33.500 F600.000
G2 X10.000 Y97.000 Z-33.500 I3.000 J-0.000 K0.000 F600.000
G1 X119.100 Y97.000 Z-33.500 F600.000
G1 X129.100 Y97.000 Z-23.500 F330.000
G1 X130.900 Y97.000 Z-23.500 F600.000
G1 X140.900 Y97.000 Z-33.500 F330.000
G1 X359.100 Y97.000 Z-33.500 F600.000
G1 X369.100 Y97.000 Z-23.500 F330.000
G1 X370.900 Y97.000 Z-23.500 F600.000
G1 X380.900 Y97.000 Z-33.500 F330.000
G1 X599.100 Y97.000 Z-33.500 F600.000
G1 X609.100 Y97.000 Z-23.500 F330.000
G1 X610.900 Y97.000 Z-23.500 F600.000
G1 X620.900 Y97.000 Z-33.500 F330.000
G1 X730.000 Y97.000 Z-33.500 F600.000
G2 X732.121 Y96.121 Z-33.500 I-0.000 J-3.000 K0.000 F600.000
G0 X732.121 Y96.121 Z5.000
(Begin postamble)
M5
