(Exported by FreeCAD)
(Post Processor: KineticNCBeamicon2_post)
(Output Time:2023-11-07 11:11:12.577643)
(begin preamble)
%
G17 G21 G40 G49 G80 G90
M08
G21
(begin operation: Fixture)
(machine: not set, mm/min)
G54
(finish operation: Fixture)
(begin operation: TC: 6 mm endmill)
(machine: not set, mm/min)
(TC: 6 mm endmill)
M05
M09M6 T16
(finish operation: TC: 6 mm endmill)
(begin operation: Profile001)
(machine: not set, mm/min)
(Profile001)
(Compensated Tool Path. Diameter: 6.0)
G0 Z5.000
G0 X91.764 Y45.764
G0 Z3.000
G1 X91.764 Y45.764 Z-2.000 F60.000
G2 X90.555 Y41.568 Z-2.000 I-1.764 J-1.764 F600.000
G2 X89.445 Y46.432 Z-2.000 I-0.555 J2.432 F600.000
G2 X91.764 Y45.764 Z-2.000 I0.555 J-2.432 F600.000
G1 X91.764 Y45.764 Z-4.000 F60.000
G2 X90.555 Y41.568 Z-4.000 I-1.764 J-1.764 F600.000
G2 X89.445 Y46.432 Z-4.000 I-0.555 J2.432 F600.000
G2 X91.764 Y45.764 Z-4.000 I0.555 J-2.432 F600.000
G1 X91.764 Y45.764 Z-6.000 F60.000
G2 X90.555 Y41.568 Z-6.000 I-1.764 J-1.764 F600.000
G2 X89.445 Y46.432 Z-6.000 I-0.555 J2.432 F600.000
G2 X91.764 Y45.764 Z-6.000 I0.555 J-2.432 F600.000
G1 X91.764 Y45.764 Z-8.000 F60.000
G2 X90.555 Y41.568 Z-8.000 I-1.764 J-1.764 F600.000
G2 X89.445 Y46.432 Z-8.000 I-0.555 J2.432 F600.000
G2 X91.764 Y45.764 Z-8.000 I0.555 J-2.432 F600.000
G1 X91.764 Y45.764 Z-10.000 F60.000
G2 X90.555 Y41.568 Z-10.000 I-1.764 J-1.764 F600.000
G2 X89.445 Y46.432 Z-10.000 I-0.555 J2.432 F600.000
G2 X91.764 Y45.764 Z-10.000 I0.555 J-2.432 F600.000
G1 X91.764 Y45.764 Z-12.000 F60.000
G2 X90.555 Y41.568 Z-12.000 I-1.764 J-1.764 F600.000
G2 X89.445 Y46.432 Z-12.000 I-0.555 J2.432 F600.000
G2 X91.764 Y45.764 Z-12.000 I0.555 J-2.432 F600.000
G1 X91.764 Y45.764 Z-14.000 F60.000
G2 X90.555 Y41.568 Z-14.000 I-1.764 J-1.764 F600.000
G2 X89.445 Y46.432 Z-14.000 I-0.555 J2.432 F600.000
G2 X91.764 Y45.764 Z-14.000 I0.555 J-2.432 F600.000
G1 X91.764 Y45.764 Z-16.000 F60.000
G2 X90.555 Y41.568 Z-16.000 I-1.764 J-1.764 F600.000
G2 X89.445 Y46.432 Z-16.000 I-0.555 J2.432 F600.000
G2 X91.764 Y45.764 Z-16.000 I0.555 J-2.432 F600.000
G1 X91.764 Y45.764 Z-18.000 F60.000
G2 X90.555 Y41.568 Z-18.000 I-1.764 J-1.764 F600.000
G2 X89.445 Y46.432 Z-18.000 I-0.555 J2.432 F600.000
G2 X91.764 Y45.764 Z-18.000 I0.555 J-2.432 F600.000
G1 X91.764 Y45.764 Z-20.000 F60.000
G2 X90.555 Y41.568 Z-20.000 I-1.764 J-1.764 F600.000
G2 X89.445 Y46.432 Z-20.000 I-0.555 J2.432 F600.000
G2 X91.764 Y45.764 Z-20.000 I0.555 J-2.432 F600.000
G1 X91.764 Y45.764 Z-22.000 F60.000
G2 X90.555 Y41.568 Z-22.000 I-1.764 J-1.764 F600.000
G2 X89.445 Y46.432 Z-22.000 I-0.555 J2.432 F600.000
G2 X91.764 Y45.764 Z-22.000 I0.555 J-2.432 F600.000
G1 X91.764 Y45.764 Z-24.000 F60.000
G2 X90.555 Y41.568 Z-24.000 I-1.764 J-1.764 F600.000
G2 X89.445 Y46.432 Z-24.000 I-0.555 J2.432 F600.000
G2 X91.764 Y45.764 Z-24.000 I0.555 J-2.432 F600.000
G1 X91.764 Y45.764 Z-26.000 F60.000
G2 X90.555 Y41.568 Z-26.000 I-1.764 J-1.764 F600.000
G2 X89.445 Y46.432 Z-26.000 I-0.555 J2.432 F600.000
G2 X91.764 Y45.764 Z-26.000 I0.555 J-2.432 F600.000
G1 X91.764 Y45.764 Z-28.000 F60.000
G2 X90.555 Y41.568 Z-28.000 I-1.764 J-1.764 F600.000
G2 X89.445 Y46.432 Z-28.000 I-0.555 J2.432 F600.000
G2 X91.764 Y45.764 Z-28.000 I0.555 J-2.432 F600.000
G1 X91.764 Y45.764 Z-29.000 F60.000
G2 X90.555 Y41.568 Z-29.000 I-1.764 J-1.764 F600.000
G2 X89.445 Y46.432 Z-29.000 I-0.555 J2.432 F600.000
G2 X91.764 Y45.764 Z-29.000 I0.555 J-2.432 F600.000
G0 Z5.000
G0 Z5.000
(finish operation: Profile001)
(begin operation: Pocket_Shape)
(machine: not set, mm/min)
(Pocket_Shape)
G0 Z5.000
G0 X78.312 Y76.194
G0 Z3.000
G1 X78.312 Y76.194 Z-2.000 F60.000
G1 X35.420 Y119.086 Z-2.000 F600.000
G2 X14.912 Y98.582 Z-2.000 I-30.384 J9.882 F600.000
G1 X99.598 Y13.896 Z-2.000 F600.000
G2 X100.290 Y12.796 Z-2.000 I-1.908 J-1.968 F600.000
G3 X121.204 Y33.710 Z-2.000 I-14.241 J35.155 F600.000
G2 X120.104 Y34.402 Z-2.000 I0.945 J2.723 F600.000
G1 X78.312 Y76.194 Z-2.000 F600.000
G0 Z5.000
G0 X74.918 Y72.800 Z5.000
G0 X74.918 Y72.800 Z3.000
G1 X74.918 Y72.800 Z-2.000 F60.000
G1 X36.957 Y110.761 Z-2.000 F600.000
G2 X23.239 Y97.043 Z-2.000 I-31.897 J18.179 F600.000
G1 X101.588 Y18.694 Z-2.000 F600.000
G3 X115.306 Y32.412 Z-2.000 I-15.512 J29.230 F600.000
G1 X74.918 Y72.800 Z-2.000 F600.000
G0 Z5.000
G0 X71.524 Y69.406 Z5.000
G0 X71.524 Y69.406 Z3.000
G1 X71.524 Y69.406 Z-2.000 F60.000
G1 X37.674 Y103.256 Z-2.000 F600.000
G2 X30.744 Y96.326 Z-2.000 I-32.666 J25.737 F600.000
G1 X102.313 Y24.757 Z-2.000 F600.000
G3 X109.243 Y31.687 Z-2.000 I-16.296 J23.226 F600.000
G1 X71.524 Y69.406 Z-2.000 F600.000
G0 Z5.000
G0 X68.130 Y66.011 Z5.000
G0 X68.130 Y66.011 Z3.000
G1 X68.130 Y66.011 Z-2.000 F60.000
G1 X37.874 Y96.267 Z-2.000 F600.000
G1 X37.733 Y96.126 Z-2.000 F600.000
G1 X102.613 Y31.246 Z-2.000 F600.000
G3 X102.754 Y31.387 Z-2.000 I-1.554 J1.695 F600.000
G1 X68.130 Y66.011 Z-2.000 F600.000
G1 X68.130 Y66.011 Z-4.000 F60.000
G1 X37.874 Y96.267 Z-4.000 F600.000
G1 X37.733 Y96.126 Z-4.000 F600.000
G1 X102.613 Y31.246 Z-4.000 F600.000
G3 X102.754 Y31.387 Z-4.000 I-1.554 J1.695 F600.000
G1 X68.130 Y66.011 Z-4.000 F600.000
G0 Z5.000
G0 X71.524 Y69.406 Z5.000
G0 X71.524 Y69.406 Z3.000
G1 X71.524 Y69.406 Z-4.000 F60.000
G1 X37.674 Y103.256 Z-4.000 F600.000
G2 X30.744 Y96.326 Z-4.000 I-32.666 J25.737 F600.000
G1 X102.313 Y24.757 Z-4.000 F600.000
G3 X109.243 Y31.687 Z-4.000 I-16.296 J23.226 F600.000
G1 X71.524 Y69.406 Z-4.000 F600.000
G0 Z5.000
G0 X74.918 Y72.800 Z5.000
G0 X74.918 Y72.800 Z3.000
G1 X74.918 Y72.800 Z-4.000 F60.000
G1 X36.957 Y110.761 Z-4.000 F600.000
G2 X23.239 Y97.043 Z-4.000 I-31.897 J18.179 F600.000
G1 X101.588 Y18.694 Z-4.000 F600.000
G3 X115.306 Y32.412 Z-4.000 I-15.512 J29.230 F600.000
G1 X74.918 Y72.800 Z-4.000 F600.000
G0 Z5.000
G0 X78.312 Y76.194 Z5.000
G0 X78.312 Y76.194 Z3.000
G1 X78.312 Y76.194 Z-4.000 F60.000
G1 X35.420 Y119.086 Z-4.000 F600.000
G2 X14.912 Y98.582 Z-4.000 I-30.384 J9.882 F600.000
G1 X99.598 Y13.896 Z-4.000 F600.000
G2 X100.290 Y12.796 Z-4.000 I-1.908 J-1.968 F600.000
G3 X121.204 Y33.710 Z-4.000 I-14.241 J35.155 F600.000
G2 X120.104 Y34.402 Z-4.000 I0.945 J2.723 F600.000
G1 X78.312 Y76.194 Z-4.000 F600.000
G1 X78.312 Y76.194 Z-5.500 F60.000
G1 X35.420 Y119.086 Z-5.500 F600.000
G2 X14.912 Y98.582 Z-5.500 I-30.384 J9.882 F600.000
G1 X99.598 Y13.896 Z-5.500 F600.000
G2 X100.290 Y12.796 Z-5.500 I-1.908 J-1.968 F600.000
G3 X121.204 Y33.710 Z-5.500 I-14.241 J35.155 F600.000
G2 X120.104 Y34.402 Z-5.500 I0.945 J2.723 F600.000
G1 X78.312 Y76.194 Z-5.500 F600.000
G0 Z5.000
G0 X74.918 Y72.800 Z5.000
G0 X74.918 Y72.800 Z3.000
G1 X74.918 Y72.800 Z-5.500 F60.000
G1 X36.957 Y110.761 Z-5.500 F600.000
G2 X23.239 Y97.043 Z-5.500 I-31.897 J18.179 F600.000
G1 X101.588 Y18.694 Z-5.500 F600.000
G3 X115.306 Y32.412 Z-5.500 I-15.512 J29.230 F600.000
G1 X74.918 Y72.800 Z-5.500 F600.000
G0 Z5.000
G0 X71.524 Y69.406 Z5.000
G0 X71.524 Y69.406 Z3.000
G1 X71.524 Y69.406 Z-5.500 F60.000
G1 X37.674 Y103.256 Z-5.500 F600.000
G2 X30.744 Y96.326 Z-5.500 I-32.666 J25.737 F600.000
G1 X102.313 Y24.757 Z-5.500 F600.000
G3 X109.243 Y31.687 Z-5.500 I-16.296 J23.226 F600.000
G1 X71.524 Y69.406 Z-5.500 F600.000
G0 Z5.000
G0 X68.130 Y66.011 Z5.000
G0 X68.130 Y66.011 Z3.000
G1 X68.130 Y66.011 Z-5.500 F60.000
G1 X37.874 Y96.267 Z-5.500 F600.000
G1 X37.733 Y96.126 Z-5.500 F600.000
G1 X102.613 Y31.246 Z-5.500 F600.000
G3 X102.754 Y31.387 Z-5.500 I-1.554 J1.695 F600.000
G1 X68.130 Y66.011 Z-5.500 F600.000
G0 Z5.000
G0 Z5.000
(finish operation: Pocket_Shape)
(begin operation: DressupTag)
(machine: not set, mm/min)
G0 Z5.000
G0 X126.121 Y126.121 Z5.000
G0 X126.121 Y126.121 Z3.000
G1 X126.121 Y126.121 Z-2.000 F60.000
G2 X127.000 Y124.000 Z-2.000 I-2.121 J-2.121 F600.000
G1 X127.000 Y48.000 Z-2.000 F600.000
G2 X86.067 Y7.001 Z-2.000 I-41.001 J0.001 F600.000
G1 X10.000 Y7.000 Z-2.000 F600.000
G2 X7.000 Y10.000 Z-2.000 I0.000 J3.000 F600.000
G1 X7.000 Y97.393 Z-2.000 F600.000
G2 X9.460 Y100.344 Z-2.000 I3.000 J0.000 F600.000
G3 X33.656 Y124.540 Z-2.000 I-4.467 J28.663 F600.000
G2 X36.607 Y127.000 Z-2.000 I2.951 J-0.540 F600.000
G1 X124.000 Y127.000 Z-2.000 F600.000
G2 X126.121 Y126.121 Z-2.000 I-0.000 J-3.000 F600.000
G1 X126.121 Y126.121 Z-4.000 F60.000
G2 X127.000 Y124.000 Z-4.000 I-2.121 J-2.121 F600.000
G1 X127.000 Y48.000 Z-4.000 F600.000
G2 X86.067 Y7.001 Z-4.000 I-41.001 J0.001 F600.000
G1 X10.000 Y7.000 Z-4.000 F600.000
G2 X7.000 Y10.000 Z-4.000 I0.000 J3.000 F600.000
G1 X7.000 Y97.393 Z-4.000 F600.000
G2 X9.460 Y100.344 Z-4.000 I3.000 J0.000 F600.000
G3 X33.656 Y124.540 Z-4.000 I-4.467 J28.663 F600.000
G2 X36.607 Y127.000 Z-4.000 I2.951 J-0.540 F600.000
G1 X124.000 Y127.000 Z-4.000 F600.000
G2 X126.121 Y126.121 Z-4.000 I-0.000 J-3.000 F600.000
G1 X126.121 Y126.121 Z-6.000 F60.000
G2 X127.000 Y124.000 Z-6.000 I-2.121 J-2.121 F600.000
G1 X127.000 Y48.000 Z-6.000 F600.000
G2 X86.067 Y7.001 Z-6.000 I-41.001 J0.001 F600.000
G1 X10.000 Y7.000 Z-6.000 F600.000
G2 X7.000 Y10.000 Z-6.000 I0.000 J3.000 F600.000
G1 X7.000 Y97.393 Z-6.000 F600.000
G2 X9.460 Y100.344 Z-6.000 I3.000 J0.000 F600.000
G3 X33.656 Y124.540 Z-6.000 I-4.467 J28.663 F600.000
G2 X36.607 Y127.000 Z-6.000 I2.951 J-0.540 F600.000
G1 X124.000 Y127.000 Z-6.000 F600.000
G2 X126.121 Y126.121 Z-6.000 I-0.000 J-3.000 F600.000
G1 X126.121 Y126.121 Z-8.000 F60.000
G2 X127.000 Y124.000 Z-8.000 I-2.121 J-2.121 F600.000
G1 X127.000 Y48.000 Z-8.000 F600.000
G2 X86.067 Y7.001 Z-8.000 I-41.001 J0.001 F600.000
G1 X10.000 Y7.000 Z-8.000 F600.000
G2 X7.000 Y10.000 Z-8.000 I0.000 J3.000 F600.000
G1 X7.000 Y97.393 Z-8.000 F600.000
G2 X9.460 Y100.344 Z-8.000 I3.000 J0.000 F600.000
G3 X33.656 Y124.540 Z-8.000 I-4.467 J28.663 F600.000
G2 X36.607 Y127.000 Z-8.000 I2.951 J-0.540 F600.000
G1 X124.000 Y127.000 Z-8.000 F600.000
G2 X126.121 Y126.121 Z-8.000 I-0.000 J-3.000 F600.000
G1 X126.121 Y126.121 Z-10.000 F60.000
G2 X127.000 Y124.000 Z-10.000 I-2.121 J-2.121 F600.000
G1 X127.000 Y48.000 Z-10.000 F600.000
G2 X86.067 Y7.001 Z-10.000 I-41.001 J0.001 F600.000
G1 X10.000 Y7.000 Z-10.000 F600.000
G2 X7.000 Y10.000 Z-10.000 I0.000 J3.000 F600.000
G1 X7.000 Y97.393 Z-10.000 F600.000
G2 X9.460 Y100.344 Z-10.000 I3.000 J0.000 F600.000
G3 X33.656 Y124.540 Z-10.000 I-4.467 J28.663 F600.000
G2 X36.607 Y127.000 Z-10.000 I2.951 J-0.540 F600.000
G1 X124.000 Y127.000 Z-10.000 F600.000
G2 X126.121 Y126.121 Z-10.000 I-0.000 J-3.000 F600.000
G1 X126.121 Y126.121 Z-12.000 F60.000
G2 X127.000 Y124.000 Z-12.000 I-2.121 J-2.121 F600.000
G1 X127.000 Y48.000 Z-12.000 F600.000
G2 X86.067 Y7.001 Z-12.000 I-41.001 J0.001 F600.000
G1 X10.000 Y7.000 Z-12.000 F600.000
G2 X7.000 Y10.000 Z-12.000 I0.000 J3.000 F600.000
G1 X7.000 Y97.393 Z-12.000 F600.000
G2 X9.460 Y100.344 Z-12.000 I3.000 J0.000 F600.000
G3 X33.656 Y124.540 Z-12.000 I-4.467 J28.663 F600.000
G2 X36.607 Y127.000 Z-12.000 I2.951 J-0.540 F600.000
G1 X124.000 Y127.000 Z-12.000 F600.000
G2 X126.121 Y126.121 Z-12.000 I-0.000 J-3.000 F600.000
G1 X126.121 Y126.121 Z-14.000 F60.000
G2 X127.000 Y124.000 Z-14.000 I-2.121 J-2.121 F600.000
G1 X127.000 Y48.000 Z-14.000 F600.000
G2 X86.067 Y7.001 Z-14.000 I-41.001 J0.001 F600.000
G1 X10.000 Y7.000 Z-14.000 F600.000
G2 X7.000 Y10.000 Z-14.000 I0.000 J3.000 F600.000
G1 X7.000 Y97.393 Z-14.000 F600.000
G2 X9.460 Y100.344 Z-14.000 I3.000 J0.000 F600.000
G3 X33.656 Y124.540 Z-14.000 I-4.467 J28.663 F600.000
G2 X36.607 Y127.000 Z-14.000 I2.951 J-0.540 F600.000
G1 X124.000 Y127.000 Z-14.000 F600.000
G2 X126.121 Y126.121 Z-14.000 I-0.000 J-3.000 F600.000
G1 X126.121 Y126.121 Z-16.000 F60.000
G2 X127.000 Y124.000 Z-16.000 I-2.121 J-2.121 F600.000
G1 X127.000 Y48.000 Z-16.000 F600.000
G2 X86.067 Y7.001 Z-16.000 I-41.001 J0.001 F600.000
G1 X10.000 Y7.000 Z-16.000 F600.000
G2 X7.000 Y10.000 Z-16.000 I0.000 J3.000 F600.000
G1 X7.000 Y97.393 Z-16.000 F600.000
G2 X9.460 Y100.344 Z-16.000 I3.000 J0.000 F600.000
G3 X33.656 Y124.540 Z-16.000 I-4.467 J28.663 F600.000
G2 X36.607 Y127.000 Z-16.000 I2.951 J-0.540 F600.000
G1 X124.000 Y127.000 Z-16.000 F600.000
G2 X126.121 Y126.121 Z-16.000 I-0.000 J-3.000 F600.000
G1 X126.121 Y126.121 Z-18.000 F60.000
G2 X127.000 Y124.000 Z-18.000 I-2.121 J-2.121 F600.000
G1 X127.000 Y48.000 Z-18.000 F600.000
G2 X86.067 Y7.001 Z-18.000 I-41.001 J0.001 F600.000
G1 X10.000 Y7.000 Z-18.000 F600.000
G2 X7.000 Y10.000 Z-18.000 I0.000 J3.000 F600.000
G1 X7.000 Y97.393 Z-18.000 F600.000
G2 X9.460 Y100.344 Z-18.000 I3.000 J0.000 F600.000
G3 X33.656 Y124.540 Z-18.000 I-4.467 J28.663 F600.000
G2 X36.607 Y127.000 Z-18.000 I2.951 J-0.540 F600.000
G1 X124.000 Y127.000 Z-18.000 F600.000
G2 X126.121 Y126.121 Z-18.000 I-0.000 J-3.000 F600.000
G1 X126.121 Y126.121 Z-20.000 F60.000
G2 X127.000 Y124.000 Z-20.000 I-2.121 J-2.121 F600.000
G1 X127.000 Y48.000 Z-20.000 F600.000
G2 X86.067 Y7.001 Z-20.000 I-41.001 J0.001 F600.000
G1 X10.000 Y7.000 Z-20.000 F600.000
G2 X7.000 Y10.000 Z-20.000 I0.000 J3.000 F600.000
G1 X7.000 Y97.393 Z-20.000 F600.000
G2 X9.460 Y100.344 Z-20.000 I3.000 J0.000 F600.000
G3 X33.656 Y124.540 Z-20.000 I-4.467 J28.663 F600.000
G2 X36.607 Y127.000 Z-20.000 I2.951 J-0.540 F600.000
G1 X124.000 Y127.000 Z-20.000 F600.000
G2 X126.121 Y126.121 Z-20.000 I-0.000 J-3.000 F600.000
G1 X126.121 Y126.121 Z-22.000 F60.000
G2 X127.000 Y124.000 Z-22.000 I-2.121 J-2.121 F600.000
G1 X127.000 Y86.989 Z-22.000 F600.000
G1 X127.000 Y86.000 Z-21.001 F328.290
G1 X127.000 Y85.011 Z-22.000 F328.290
G1 X127.000 Y48.000 Z-22.000 F600.000
G2 X86.067 Y7.001 Z-22.000 I-41.001 J0.001 F600.000
G1 X10.000 Y7.000 Z-22.000 F600.000
G2 X7.000 Y10.000 Z-22.000 I0.000 J3.000 F600.000
G1 X7.000 Y52.707 Z-22.000 F600.000
G1 X7.000 Y53.697 Z-21.001 F328.290
G1 X7.000 Y54.686 Z-22.000 F328.290
G1 X7.000 Y97.393 Z-22.000 F600.000
G2 X9.460 Y100.344 Z-22.000 I3.000 J0.000 F600.000
G3 X33.656 Y124.540 Z-22.000 I-4.467 J28.663 F600.000
G2 X36.607 Y127.000 Z-22.000 I2.951 J-0.540 F600.000
G1 X124.000 Y127.000 Z-22.000 F600.000
G2 X126.121 Y126.121 Z-22.000 I-0.000 J-3.000 F600.000
G1 X126.121 Y126.121 Z-24.000 F60.000
G2 X127.000 Y124.000 Z-24.000 I-2.121 J-2.121 F600.000
G1 X127.000 Y88.970 Z-24.000 F600.000
G1 X127.000 Y86.000 Z-21.001 F328.290
G1 X127.000 Y83.030 Z-24.000 F328.290
G1 X127.000 Y48.000 Z-24.000 F600.000
G2 X86.067 Y7.001 Z-24.000 I-41.001 J0.001 F600.000
G1 X10.000 Y7.000 Z-24.000 F600.000
G2 X7.000 Y10.000 Z-24.000 I0.000 J3.000 F600.000
G1 X7.000 Y50.727 Z-24.000 F600.000
G1 X7.000 Y53.697 Z-21.001 F328.290
G1 X7.000 Y56.666 Z-24.000 F328.290
G1 X7.000 Y97.393 Z-24.000 F600.000
G2 X9.460 Y100.344 Z-24.000 I3.000 J0.000 F600.000
G3 X33.656 Y124.540 Z-24.000 I-4.467 J28.663 F600.000
G2 X36.607 Y127.000 Z-24.000 I2.951 J-0.540 F600.000
G1 X124.000 Y127.000 Z-24.000 F600.000
G2 X126.121 Y126.121 Z-24.000 I-0.000 J-3.000 F600.000
G1 X126.121 Y126.121 Z-26.000 F60.000
G2 X127.000 Y124.000 Z-26.000 I-2.121 J-2.121 F600.000
G1 X127.000 Y90.950 Z-26.000 F600.000
G1 X127.000 Y86.000 Z-21.001 F328.290
G1 X127.000 Y81.050 Z-26.000 F328.290
G1 X127.000 Y48.000 Z-26.000 F600.000
G2 X86.067 Y7.001 Z-26.000 I-41.001 J0.001 F600.000
G1 X10.000 Y7.000 Z-26.000 F600.000
G2 X7.000 Y10.000 Z-26.000 I0.000 J3.000 F600.000
G1 X7.000 Y48.747 Z-26.000 F600.000
G1 X7.000 Y53.697 Z-21.001 F328.290
G1 X7.000 Y58.646 Z-26.000 F328.290
G1 X7.000 Y97.393 Z-26.000 F600.000
G2 X9.460 Y100.344 Z-26.000 I3.000 J0.000 F600.000
G3 X33.656 Y124.540 Z-26.000 I-4.467 J28.663 F600.000
G2 X36.607 Y127.000 Z-26.000 I2.951 J-0.540 F600.000
G1 X124.000 Y127.000 Z-26.000 F600.000
G2 X126.121 Y126.121 Z-26.000 I-0.000 J-3.000 F600.000
G1 X126.121 Y126.121 Z-28.000 F60.000
G2 X127.000 Y124.000 Z-28.000 I-2.121 J-2.121 F600.000
G1 X127.000 Y92.930 Z-28.000 F600.000
G1 X127.000 Y86.000 Z-21.001 F328.290
G1 X127.000 Y79.070 Z-28.000 F328.290
G1 X127.000 Y48.000 Z-28.000 F600.000
G2 X86.067 Y7.001 Z-28.000 I-41.001 J0.001 F600.000
G1 X10.000 Y7.000 Z-28.000 F600.000
G2 X7.000 Y10.000 Z-28.000 I0.000 J3.000 F600.000
G1 X7.000 Y46.767 Z-28.000 F600.000
G1 X7.000 Y53.697 Z-21.001 F328.290
G1 X7.000 Y60.626 Z-28.000 F328.290
G1 X7.000 Y97.393 Z-28.000 F600.000
G2 X9.460 Y100.344 Z-28.000 I3.000 J0.000 F600.000
G3 X33.656 Y124.540 Z-28.000 I-4.467 J28.663 F600.000
G2 X36.607 Y127.000 Z-28.000 I2.951 J-0.540 F600.000
G1 X124.000 Y127.000 Z-28.000 F600.000
G2 X126.121 Y126.121 Z-28.000 I-0.000 J-3.000 F600.000
G1 X126.121 Y126.121 Z-29.000 F60.000
G2 X127.000 Y124.000 Z-29.000 I-2.121 J-2.121 F600.000
G1 X127.000 Y93.920 Z-29.000 F600.000
G1 X127.000 Y86.000 Z-21.001 F328.290
G1 X127.000 Y78.080 Z-29.000 F328.290
G1 X127.000 Y48.000 Z-29.000 F600.000
G2 X86.067 Y7.001 Z-29.000 I-41.001 J0.001 F600.000
G1 X10.000 Y7.000 Z-29.000 F600.000
G2 X7.000 Y10.000 Z-29.000 I0.000 J3.000 F600.000
G1 X7.000 Y45.777 Z-29.000 F600.000
G1 X7.000 Y53.697 Z-21.001 F328.290
G1 X7.000 Y61.617 Z-29.000 F328.290
G1 X7.000 Y97.393 Z-29.000 F600.000
G2 X9.460 Y100.344 Z-29.000 I3.000 J0.000 F600.000
G3 X33.656 Y124.540 Z-29.000 I-4.467 J28.663 F600.000
G2 X36.607 Y127.000 Z-29.000 I2.951 J-0.540 F600.000
G1 X124.000 Y127.000 Z-29.000 F600.000
G2 X126.121 Y126.121 Z-29.000 I-0.000 J-3.000 F600.000
G0 X126.121 Y126.121 Z5.000
(finish operation: DressupTag)
(begin postamble)
M05 M09
G17 G90 G80 G40
M30
