(Exported by FreeCAD)
(Post Processor: marlin_post.py, version: 2020-11-03)
(Output Time:2023-11-08 19:54:37.053710)
(Begin preamble)
(Default Configuration)
G90
G21
G17
(Begin operation: Fixture)
G54
(Begin operation: TC: 6 mm endmill)
(TC: 6 mm endmill)
(Begin toolchange)
(M6 T16.0)
(Begin operation: tslot_1)
(tslot_1)
G0 Z5.000
G0 X276.500 Y430.000
G0 Z3.000
G1 X276.500 Y430.000 Z-2.000 F60.000
G1 X263.500 Y430.000 Z-2.000 F600.000
G1 X263.500 Y10.000 Z-2.000 F600.000
G1 X276.500 Y10.000 Z-2.000 F600.000
G1 X276.500 Y430.000 Z-2.000 F600.000
G0 Z5.000
G0 X272.900 Y426.400 Z5.000
G0 X272.900 Y426.400 Z3.000
G1 X272.900 Y426.400 Z-2.000 F60.000
G1 X267.100 Y426.400 Z-2.000 F600.000
G1 X267.100 Y13.600 Z-2.000 F600.000
G1 X272.900 Y13.600 Z-2.000 F600.000
G1 X272.900 Y426.400 Z-2.000 F600.000
G0 Z5.000
G0 X271.400 Y424.900 Z5.000
G0 X271.400 Y424.900 Z3.000
G1 X271.400 Y424.900 Z-2.000 F60.000
G1 X268.600 Y424.900 Z-2.000 F600.000
G1 X268.600 Y15.100 Z-2.000 F600.000
G1 X271.400 Y15.100 Z-2.000 F600.000
G1 X271.400 Y424.900 Z-2.000 F600.000
G1 X271.400 Y424.900 Z-4.000 F60.000
G1 X268.600 Y424.900 Z-4.000 F600.000
G1 X268.600 Y15.100 Z-4.000 F600.000
G1 X271.400 Y15.100 Z-4.000 F600.000
G1 X271.400 Y424.900 Z-4.000 F600.000
G0 Z5.000
G0 X272.900 Z5.000
G0 X272.900 Z3.000
G1 X272.900 Y424.900 Z-4.000 F60.000
G1 X272.900 Y426.400 Z-4.000 F600.000
G1 X267.100 Y426.400 Z-4.000 F600.000
G1 X267.100 Y13.600 Z-4.000 F600.000
G1 X272.900 Y13.600 Z-4.000 F600.000
G1 X272.900 Y424.900 Z-4.000 F600.000
G0 Z5.000
G0 X276.500 Z5.000
G0 X276.500 Z3.000
G1 X276.500 Y424.900 Z-4.000 F60.000
G1 X276.500 Y430.000 Z-4.000 F600.000
G1 X263.500 Y430.000 Z-4.000 F600.000
G1 X263.500 Y10.000 Z-4.000 F600.000
G1 X276.500 Y10.000 Z-4.000 F600.000
G1 X276.500 Y424.900 Z-4.000 F600.000
G1 X276.500 Y424.900 Z-6.000 F60.000
G1 X276.500 Y430.000 Z-6.000 F600.000
G1 X263.500 Y430.000 Z-6.000 F600.000
G1 X263.500 Y10.000 Z-6.000 F600.000
G1 X276.500 Y10.000 Z-6.000 F600.000
G1 X276.500 Y424.900 Z-6.000 F600.000
G0 Z5.000
G0 X272.900 Z5.000
G0 X272.900 Z3.000
G1 X272.900 Y424.900 Z-6.000 F60.000
G1 X272.900 Y426.400 Z-6.000 F600.000
G1 X267.100 Y426.400 Z-6.000 F600.000
G1 X267.100 Y13.600 Z-6.000 F600.000
G1 X272.900 Y13.600 Z-6.000 F600.000
G1 X272.900 Y424.900 Z-6.000 F600.000
G0 Z5.000
G0 X271.400 Z5.000
G0 X271.400 Z3.000
G1 X271.400 Y424.900 Z-6.000 F60.000
G1 X268.600 Y424.900 Z-6.000 F600.000
G1 X268.600 Y15.100 Z-6.000 F600.000
G1 X271.400 Y15.100 Z-6.000 F600.000
G1 X271.400 Y424.900 Z-6.000 F600.000
G1 X271.400 Y424.900 Z-8.000 F60.000
G1 X268.600 Y424.900 Z-8.000 F600.000
G1 X268.600 Y15.100 Z-8.000 F600.000
G1 X271.400 Y15.100 Z-8.000 F600.000
G1 X271.400 Y424.900 Z-8.000 F600.000
G0 Z5.000
G0 X272.900 Z5.000
G0 X272.900 Z3.000
G1 X272.900 Y424.900 Z-8.000 F60.000
G1 X272.900 Y426.400 Z-8.000 F600.000
G1 X267.100 Y426.400 Z-8.000 F600.000
G1 X267.100 Y13.600 Z-8.000 F600.000
G1 X272.900 Y13.600 Z-8.000 F600.000
G1 X272.900 Y424.900 Z-8.000 F600.000
G0 Z5.000
G0 X276.500 Z5.000
G0 X276.500 Z3.000
G1 X276.500 Y424.900 Z-8.000 F60.000
G1 X276.500 Y430.000 Z-8.000 F600.000
G1 X263.500 Y430.000 Z-8.000 F600.000
G1 X263.500 Y10.000 Z-8.000 F600.000
G1 X276.500 Y10.000 Z-8.000 F600.000
G1 X276.500 Y424.900 Z-8.000 F600.000
G1 X276.500 Y424.900 Z-10.000 F60.000
G1 X276.500 Y430.000 Z-10.000 F600.000
G1 X263.500 Y430.000 Z-10.000 F600.000
G1 X263.500 Y10.000 Z-10.000 F600.000
G1 X276.500 Y10.000 Z-10.000 F600.000
G1 X276.500 Y424.900 Z-10.000 F600.000
G0 Z5.000
G0 X272.900 Z5.000
G0 X272.900 Z3.000
G1 X272.900 Y424.900 Z-10.000 F60.000
G1 X272.900 Y426.400 Z-10.000 F600.000
G1 X267.100 Y426.400 Z-10.000 F600.000
G1 X267.100 Y13.600 Z-10.000 F600.000
G1 X272.900 Y13.600 Z-10.000 F600.000
G1 X272.900 Y424.900 Z-10.000 F600.000
G0 Z5.000
G0 X271.400 Z5.000
G0 X271.400 Z3.000
G1 X271.400 Y424.900 Z-10.000 F60.000
G1 X268.600 Y424.900 Z-10.000 F600.000
G1 X268.600 Y15.100 Z-10.000 F600.000
G1 X271.400 Y15.100 Z-10.000 F600.000
G1 X271.400 Y424.900 Z-10.000 F600.000
G0 Z5.000
G0 Z5.000
(Begin operation: tslot_2)
(tslot_2)
G0 Z5.000
G0 X476.500 Y430.000
G0 Z3.000
G1 X476.500 Y430.000 Z-2.000 F60.000
G1 X463.500 Y430.000 Z-2.000 F600.000
G1 X463.500 Y10.000 Z-2.000 F600.000
G1 X476.500 Y10.000 Z-2.000 F600.000
G1 X476.500 Y430.000 Z-2.000 F600.000
G0 Z5.000
G0 X472.900 Y426.400 Z5.000
G0 X472.900 Y426.400 Z3.000
G1 X472.900 Y426.400 Z-2.000 F60.000
G1 X467.100 Y426.400 Z-2.000 F600.000
G1 X467.100 Y13.600 Z-2.000 F600.000
G1 X472.900 Y13.600 Z-2.000 F600.000
G1 X472.900 Y426.400 Z-2.000 F600.000
G0 Z5.000
G0 X471.400 Y424.900 Z5.000
G0 X471.400 Y424.900 Z3.000
G1 X471.400 Y424.900 Z-2.000 F60.000
G1 X468.600 Y424.900 Z-2.000 F600.000
G1 X468.600 Y15.100 Z-2.000 F600.000
G1 X471.400 Y15.100 Z-2.000 F600.000
G1 X471.400 Y424.900 Z-2.000 F600.000
G1 X471.400 Y424.900 Z-4.000 F60.000
G1 X468.600 Y424.900 Z-4.000 F600.000
G1 X468.600 Y15.100 Z-4.000 F600.000
G1 X471.400 Y15.100 Z-4.000 F600.000
G1 X471.400 Y424.900 Z-4.000 F600.000
G0 Z5.000
G0 X472.900 Z5.000
G0 X472.900 Z3.000
G1 X472.900 Y424.900 Z-4.000 F60.000
G1 X472.900 Y426.400 Z-4.000 F600.000
G1 X467.100 Y426.400 Z-4.000 F600.000
G1 X467.100 Y13.600 Z-4.000 F600.000
G1 X472.900 Y13.600 Z-4.000 F600.000
G1 X472.900 Y424.900 Z-4.000 F600.000
G0 Z5.000
G0 X476.500 Z5.000
G0 X476.500 Z3.000
G1 X476.500 Y424.900 Z-4.000 F60.000
G1 X476.500 Y430.000 Z-4.000 F600.000
G1 X463.500 Y430.000 Z-4.000 F600.000
G1 X463.500 Y10.000 Z-4.000 F600.000
G1 X476.500 Y10.000 Z-4.000 F600.000
G1 X476.500 Y424.900 Z-4.000 F600.000
G1 X476.500 Y424.900 Z-6.000 F60.000
G1 X476.500 Y430.000 Z-6.000 F600.000
G1 X463.500 Y430.000 Z-6.000 F600.000
G1 X463.500 Y10.000 Z-6.000 F600.000
G1 X476.500 Y10.000 Z-6.000 F600.000
G1 X476.500 Y424.900 Z-6.000 F600.000
G0 Z5.000
G0 X472.900 Z5.000
G0 X472.900 Z3.000
G1 X472.900 Y424.900 Z-6.000 F60.000
G1 X472.900 Y426.400 Z-6.000 F600.000
G1 X467.100 Y426.400 Z-6.000 F600.000
G1 X467.100 Y13.600 Z-6.000 F600.000
G1 X472.900 Y13.600 Z-6.000 F600.000
G1 X472.900 Y424.900 Z-6.000 F600.000
G0 Z5.000
G0 X471.400 Z5.000
G0 X471.400 Z3.000
G1 X471.400 Y424.900 Z-6.000 F60.000
G1 X468.600 Y424.900 Z-6.000 F600.000
G1 X468.600 Y15.100 Z-6.000 F600.000
G1 X471.400 Y15.100 Z-6.000 F600.000
G1 X471.400 Y424.900 Z-6.000 F600.000
G1 X471.400 Y424.900 Z-8.000 F60.000
G1 X468.600 Y424.900 Z-8.000 F600.000
G1 X468.600 Y15.100 Z-8.000 F600.000
G1 X471.400 Y15.100 Z-8.000 F600.000
G1 X471.400 Y424.900 Z-8.000 F600.000
G0 Z5.000
G0 X472.900 Z5.000
G0 X472.900 Z3.000
G1 X472.900 Y424.900 Z-8.000 F60.000
G1 X472.900 Y426.400 Z-8.000 F600.000
G1 X467.100 Y426.400 Z-8.000 F600.000
G1 X467.100 Y13.600 Z-8.000 F600.000
G1 X472.900 Y13.600 Z-8.000 F600.000
G1 X472.900 Y424.900 Z-8.000 F600.000
G0 Z5.000
G0 X476.500 Z5.000
G0 X476.500 Z3.000
G1 X476.500 Y424.900 Z-8.000 F60.000
G1 X476.500 Y430.000 Z-8.000 F600.000
G1 X463.500 Y430.000 Z-8.000 F600.000
G1 X463.500 Y10.000 Z-8.000 F600.000
G1 X476.500 Y10.000 Z-8.000 F600.000
G1 X476.500 Y424.900 Z-8.000 F600.000
G1 X476.500 Y424.900 Z-10.000 F60.000
G1 X476.500 Y430.000 Z-10.000 F600.000
G1 X463.500 Y430.000 Z-10.000 F600.000
G1 X463.500 Y10.000 Z-10.000 F600.000
G1 X476.500 Y10.000 Z-10.000 F600.000
G1 X476.500 Y424.900 Z-10.000 F600.000
G0 Z5.000
G0 X472.900 Z5.000
G0 X472.900 Z3.000
G1 X472.900 Y424.900 Z-10.000 F60.000
G1 X472.900 Y426.400 Z-10.000 F600.000
G1 X467.100 Y426.400 Z-10.000 F600.000
G1 X467.100 Y13.600 Z-10.000 F600.000
G1 X472.900 Y13.600 Z-10.000 F600.000
G1 X472.900 Y424.900 Z-10.000 F600.000
G0 Z5.000
G0 X471.400 Z5.000
G0 X471.400 Z3.000
G1 X471.400 Y424.900 Z-10.000 F60.000
G1 X468.600 Y424.900 Z-10.000 F600.000
G1 X468.600 Y15.100 Z-10.000 F600.000
G1 X471.400 Y15.100 Z-10.000 F600.000
G1 X471.400 Y424.900 Z-10.000 F600.000
G0 Z5.000
G0 Z5.000
(Begin operation: insert_profile)
(insert_profile)
(Compensated Tool Path. Diameter: 6.0)
G0 Z5.000
G0 X407.605 Y332.605
G0 Z3.000
G1 X407.605 Y332.605 Z-2.000 F60.000
G2 X412.000 Y321.951 Z-2.000 I-10.610 J-10.610 K0.000 F600.000
G1 X412.000 Y158.049 Z-2.000 F600.000
G2 X396.951 Y143.000 Z-2.000 I-15.004 J-0.045 K0.000 F600.000
G1 X343.049 Y143.000 Z-2.000 F600.000
G2 X328.000 Y158.049 Z-2.000 I-0.045 J15.004 K0.000 F600.000
G1 X328.000 Y321.951 Z-2.000 F600.000
G2 X343.049 Y337.000 Z-2.000 I15.004 J0.045 K0.000 F600.000
G1 X396.951 Y337.000 Z-2.000 F600.000
G2 X407.605 Y332.605 Z-2.000 I0.045 J-15.004 K0.000 F600.000
G1 X407.605 Y332.605 Z-4.000 F60.000
G2 X412.000 Y321.951 Z-4.000 I-10.610 J-10.610 K0.000 F600.000
G1 X412.000 Y158.049 Z-4.000 F600.000
G2 X396.951 Y143.000 Z-4.000 I-15.004 J-0.045 K0.000 F600.000
G1 X343.049 Y143.000 Z-4.000 F600.000
G2 X328.000 Y158.049 Z-4.000 I-0.045 J15.004 K0.000 F600.000
G1 X328.000 Y321.951 Z-4.000 F600.000
G2 X343.049 Y337.000 Z-4.000 I15.004 J0.045 K0.000 F600.000
G1 X396.951 Y337.000 Z-4.000 F600.000
G2 X407.605 Y332.605 Z-4.000 I0.045 J-15.004 K0.000 F600.000
G1 X407.605 Y332.605 Z-6.000 F60.000
G2 X412.000 Y321.951 Z-6.000 I-10.610 J-10.610 K0.000 F600.000
G1 X412.000 Y158.049 Z-6.000 F600.000
G2 X396.951 Y143.000 Z-6.000 I-15.004 J-0.045 K0.000 F600.000
G1 X343.049 Y143.000 Z-6.000 F600.000
G2 X328.000 Y158.049 Z-6.000 I-0.045 J15.004 K0.000 F600.000
G1 X328.000 Y321.951 Z-6.000 F600.000
G2 X343.049 Y337.000 Z-6.000 I15.004 J0.045 K0.000 F600.000
G1 X396.951 Y337.000 Z-6.000 F600.000
G2 X407.605 Y332.605 Z-6.000 I0.045 J-15.004 K0.000 F600.000
G1 X407.605 Y332.605 Z-8.000 F60.000
G2 X412.000 Y321.951 Z-8.000 I-10.610 J-10.610 K0.000 F600.000
G1 X412.000 Y158.049 Z-8.000 F600.000
G2 X396.951 Y143.000 Z-8.000 I-15.004 J-0.045 K0.000 F600.000
G1 X343.049 Y143.000 Z-8.000 F600.000
G2 X328.000 Y158.049 Z-8.000 I-0.045 J15.004 K0.000 F600.000
G1 X328.000 Y321.951 Z-8.000 F600.000
G2 X343.049 Y337.000 Z-8.000 I15.004 J0.045 K0.000 F600.000
G1 X396.951 Y337.000 Z-8.000 F600.000
G2 X407.605 Y332.605 Z-8.000 I0.045 J-15.004 K0.000 F600.000
G1 X407.605 Y332.605 Z-10.000 F60.000
G2 X412.000 Y321.951 Z-10.000 I-10.610 J-10.610 K0.000 F600.000
G1 X412.000 Y158.049 Z-10.000 F600.000
G2 X396.951 Y143.000 Z-10.000 I-15.004 J-0.045 K0.000 F600.000
G1 X343.049 Y143.000 Z-10.000 F600.000
G2 X328.000 Y158.049 Z-10.000 I-0.045 J15.004 K0.000 F600.000
G1 X328.000 Y321.951 Z-10.000 F600.000
G2 X343.049 Y337.000 Z-10.000 I15.004 J0.045 K0.000 F600.000
G1 X396.951 Y337.000 Z-10.000 F600.000
G2 X407.605 Y332.605 Z-10.000 I0.045 J-15.004 K0.000 F600.000
G1 X407.605 Y332.605 Z-12.000 F60.000
G2 X412.000 Y321.951 Z-12.000 I-10.610 J-10.610 K0.000 F600.000
G1 X412.000 Y158.049 Z-12.000 F600.000
G2 X396.951 Y143.000 Z-12.000 I-15.004 J-0.045 K0.000 F600.000
G1 X343.049 Y143.000 Z-12.000 F600.000
G2 X328.000 Y158.049 Z-12.000 I-0.045 J15.004 K0.000 F600.000
G1 X328.000 Y321.951 Z-12.000 F600.000
G2 X343.049 Y337.000 Z-12.000 I15.004 J0.045 K0.000 F600.000
G1 X396.951 Y337.000 Z-12.000 F600.000
G2 X407.605 Y332.605 Z-12.000 I0.045 J-15.004 K0.000 F600.000
G0 Z5.000
G0 Z5.000
(Begin operation: insert)
G0 Z5.000
G0 X403.362 Y328.362 Z5.000
G0 X403.362 Y328.362 Z3.000
G1 X403.362 Y328.362 Z-2.000 F60.000
G2 X406.000 Y321.941 Z-2.000 I-6.368 J-6.368 K0.000 F600.000
G1 X406.000 Y158.059 Z-2.000 F600.000
G2 X396.941 Y149.000 Z-2.000 I-9.006 J-0.053 K0.000 F600.000
G1 X343.059 Y149.000 Z-2.000 F600.000
G2 X334.000 Y158.059 Z-2.000 I-0.053 J9.006 K0.000 F600.000
G1 X334.000 Y321.941 Z-2.000 F600.000
G2 X343.059 Y331.000 Z-2.000 I9.006 J0.053 K0.000 F600.000
G1 X396.941 Y331.000 Z-2.000 F600.000
G2 X403.362 Y328.362 Z-2.000 I0.053 J-9.006 K0.000 F600.000
G1 X403.362 Y328.362 Z-4.000 F60.000
G2 X406.000 Y321.941 Z-4.000 I-6.368 J-6.368 K0.000 F600.000
G1 X406.000 Y158.059 Z-4.000 F600.000
G2 X396.941 Y149.000 Z-4.000 I-9.006 J-0.053 K0.000 F600.000
G1 X343.059 Y149.000 Z-4.000 F600.000
G2 X334.000 Y158.059 Z-4.000 I-0.053 J9.006 K0.000 F600.000
G1 X334.000 Y321.941 Z-4.000 F600.000
G2 X343.059 Y331.000 Z-4.000 I9.006 J0.053 K0.000 F600.000
G1 X396.941 Y331.000 Z-4.000 F600.000
G2 X403.362 Y328.362 Z-4.000 I0.053 J-9.006 K0.000 F600.000
G1 X403.362 Y328.362 Z-6.000 F60.000
G2 X406.000 Y321.941 Z-6.000 I-6.368 J-6.368 K0.000 F600.000
G1 X406.000 Y158.059 Z-6.000 F600.000
G2 X396.941 Y149.000 Z-6.000 I-9.006 J-0.053 K0.000 F600.000
G1 X343.059 Y149.000 Z-6.000 F600.000
G2 X334.000 Y158.059 Z-6.000 I-0.053 J9.006 K0.000 F600.000
G1 X334.000 Y321.941 Z-6.000 F600.000
G2 X343.059 Y331.000 Z-6.000 I9.006 J0.053 K0.000 F600.000
G1 X396.941 Y331.000 Z-6.000 F600.000
G2 X403.362 Y328.362 Z-6.000 I0.053 J-9.006 K0.000 F600.000
G1 X403.362 Y328.362 Z-8.000 F60.000
G2 X406.000 Y321.941 Z-8.000 I-6.368 J-6.368 K0.000 F600.000
G1 X406.000 Y158.059 Z-8.000 F600.000
G2 X396.941 Y149.000 Z-8.000 I-9.006 J-0.053 K0.000 F600.000
G1 X343.059 Y149.000 Z-8.000 F600.000
G2 X334.000 Y158.059 Z-8.000 I-0.053 J9.006 K0.000 F600.000
G1 X334.000 Y321.941 Z-8.000 F600.000
G2 X343.059 Y331.000 Z-8.000 I9.006 J0.053 K0.000 F600.000
G1 X396.941 Y331.000 Z-8.000 F600.000
G2 X403.362 Y328.362 Z-8.000 I0.053 J-9.006 K0.000 F600.000
G1 X403.362 Y328.362 Z-10.000 F60.000
G2 X406.000 Y321.941 Z-10.000 I-6.368 J-6.368 K0.000 F600.000
G1 X406.000 Y158.059 Z-10.000 F600.000
G2 X396.941 Y149.000 Z-10.000 I-9.006 J-0.053 K0.000 F600.000
G1 X343.059 Y149.000 Z-10.000 F600.000
G2 X334.000 Y158.059 Z-10.000 I-0.053 J9.006 K0.000 F600.000
G1 X334.000 Y321.941 Z-10.000 F600.000
G2 X343.059 Y331.000 Z-10.000 I9.006 J0.053 K0.000 F600.000
G1 X396.941 Y331.000 Z-10.000 F600.000
G2 X403.362 Y328.362 Z-10.000 I0.053 J-9.006 K0.000 F600.000
G1 X403.362 Y328.362 Z-12.000 F60.000
G2 X406.000 Y321.941 Z-12.000 I-6.368 J-6.368 K0.000 F600.000
G1 X406.000 Y158.059 Z-12.000 F600.000
G2 X396.941 Y149.000 Z-12.000 I-9.006 J-0.053 K0.000 F600.000
G1 X343.059 Y149.000 Z-12.000 F600.000
G2 X334.000 Y158.059 Z-12.000 I-0.053 J9.006 K0.000 F600.000
G1 X334.000 Y321.941 Z-12.000 F600.000
G2 X343.059 Y331.000 Z-12.000 I9.006 J0.053 K0.000 F600.000
G1 X396.941 Y331.000 Z-12.000 F600.000
G2 X403.362 Y328.362 Z-12.000 I0.053 J-9.006 K0.000 F600.000
G1 X403.362 Y328.362 Z-14.000 F60.000
G2 X406.000 Y321.941 Z-14.000 I-6.368 J-6.368 K0.000 F600.000
G1 X406.000 Y158.059 Z-14.000 F600.000
G2 X396.941 Y149.000 Z-14.000 I-9.006 J-0.053 K0.000 F600.000
G1 X343.059 Y149.000 Z-14.000 F600.000
G2 X334.000 Y158.059 Z-14.000 I-0.053 J9.006 K0.000 F600.000
G1 X334.000 Y321.941 Z-14.000 F600.000
G2 X343.059 Y331.000 Z-14.000 I9.006 J0.053 K0.000 F600.000
G1 X396.941 Y331.000 Z-14.000 F600.000
G2 X403.362 Y328.362 Z-14.000 I0.053 J-9.006 K0.000 F600.000
G1 X403.362 Y328.362 Z-16.000 F60.000
G2 X406.000 Y321.941 Z-16.000 I-6.368 J-6.368 K0.000 F600.000
G1 X406.000 Y284.411 Z-16.000 F600.000
G1 X406.000 Y282.411 Z-14.000 F330.000
G1 X406.000 Y279.531 Z-14.000 F600.000
G1 X406.000 Y277.531 Z-16.000 F330.000
G1 X406.000 Y202.469 Z-16.000 F600.000
G1 X406.000 Y200.469 Z-14.000 F330.000
G1 X406.000 Y197.589 Z-14.000 F600.000
G1 X406.000 Y195.589 Z-16.000 F330.000
G1 X406.000 Y158.059 Z-16.000 F600.000
G2 X396.941 Y149.000 Z-16.000 I-9.006 J-0.053 K0.000 F600.000
G1 X343.059 Y149.000 Z-16.000 F600.000
G2 X334.000 Y158.059 Z-16.000 I-0.053 J9.006 K0.000 F600.000
G1 X334.000 Y195.589 Z-16.000 F600.000
G1 X334.000 Y197.589 Z-14.000 F330.000
G1 X334.000 Y200.469 Z-14.000 F600.000
G1 X334.000 Y202.469 Z-16.000 F330.000
G1 X334.000 Y277.531 Z-16.000 F600.000
G1 X334.000 Y279.531 Z-14.000 F330.000
G1 X334.000 Y282.411 Z-14.000 F600.000
G1 X334.000 Y284.411 Z-16.000 F330.000
G1 X334.000 Y321.941 Z-16.000 F600.000
G2 X343.059 Y331.000 Z-16.000 I9.006 J0.053 K0.000 F600.000
G1 X396.941 Y331.000 Z-16.000 F600.000
G2 X403.362 Y328.362 Z-16.000 I0.053 J-9.006 K0.000 F600.000
G1 X403.362 Y328.362 Z-18.000 F60.000
G2 X406.000 Y321.941 Z-18.000 I-6.368 J-6.368 K0.000 F600.000
G1 X406.000 Y286.411 Z-18.000 F600.000
G1 X406.000 Y282.411 Z-14.000 F330.000
G1 X406.000 Y279.531 Z-14.000 F600.000
G1 X406.000 Y275.531 Z-18.000 F330.000
G1 X406.000 Y204.469 Z-18.000 F600.000
G1 X406.000 Y200.469 Z-14.000 F330.000
G1 X406.000 Y197.589 Z-14.000 F600.000
G1 X406.000 Y193.589 Z-18.000 F330.000
G1 X406.000 Y158.059 Z-18.000 F600.000
G2 X396.941 Y149.000 Z-18.000 I-9.006 J-0.053 K0.000 F600.000
G1 X343.059 Y149.000 Z-18.000 F600.000
G2 X334.000 Y158.059 Z-18.000 I-0.053 J9.006 K0.000 F600.000
G1 X334.000 Y193.589 Z-18.000 F600.000
G1 X334.000 Y197.589 Z-14.000 F330.000
G1 X334.000 Y200.469 Z-14.000 F600.000
G1 X334.000 Y204.469 Z-18.000 F330.000
G1 X334.000 Y275.531 Z-18.000 F600.000
G1 X334.000 Y279.531 Z-14.000 F330.000
G1 X334.000 Y282.411 Z-14.000 F600.000
G1 X334.000 Y286.411 Z-18.000 F330.000
G1 X334.000 Y321.941 Z-18.000 F600.000
G2 X343.059 Y331.000 Z-18.000 I9.006 J0.053 K0.000 F600.000
G1 X396.941 Y331.000 Z-18.000 F600.000
G2 X403.362 Y328.362 Z-18.000 I0.053 J-9.006 K0.000 F600.000
G1 X403.362 Y328.362 Z-20.000 F60.000
G2 X406.000 Y321.941 Z-20.000 I-6.368 J-6.368 K0.000 F600.000
G1 X406.000 Y288.411 Z-20.000 F600.000
G1 X406.000 Y282.411 Z-14.000 F330.000
G1 X406.000 Y279.531 Z-14.000 F600.000
G1 X406.000 Y273.531 Z-20.000 F330.000
G1 X406.000 Y206.469 Z-20.000 F600.000
G1 X406.000 Y200.469 Z-14.000 F330.000
G1 X406.000 Y197.589 Z-14.000 F600.000
G1 X406.000 Y191.589 Z-20.000 F330.000
G1 X406.000 Y158.059 Z-20.000 F600.000
G2 X396.941 Y149.000 Z-20.000 I-9.006 J-0.053 K0.000 F600.000
G1 X343.059 Y149.000 Z-20.000 F600.000
G2 X334.000 Y158.059 Z-20.000 I-0.053 J9.006 K0.000 F600.000
G1 X334.000 Y191.589 Z-20.000 F600.000
G1 X334.000 Y197.589 Z-14.000 F330.000
G1 X334.000 Y200.469 Z-14.000 F600.000
G1 X334.000 Y206.469 Z-20.000 F330.000
G1 X334.000 Y273.531 Z-20.000 F600.000
G1 X334.000 Y279.531 Z-14.000 F330.000
G1 X334.000 Y282.411 Z-14.000 F600.000
G1 X334.000 Y288.411 Z-20.000 F330.000
G1 X334.000 Y321.941 Z-20.000 F600.000
G2 X343.059 Y331.000 Z-20.000 I9.006 J0.053 K0.000 F600.000
G1 X396.941 Y331.000 Z-20.000 F600.000
G2 X403.362 Y328.362 Z-20.000 I0.053 J-9.006 K0.000 F600.000
G0 X403.362 Y328.362 Z5.000
(Begin operation: slot_1)
G0 Z5.000
G0 X89.192 Y272.191 Z5.000
G0 X89.192 Y272.191 Z3.000
G1 X89.192 Y272.191 Z-2.000 F60.000
G2 X93.000 Y262.949 Z-2.000 I-9.192 J-9.192 K0.000 F600.000
G1 X93.000 Y83.052 Z-2.000 F600.000
G2 X80.000 Y70.002 Z-2.000 I-13.000 J-0.050 K0.000 F600.000
G2 X67.000 Y83.052 Z-2.000 I-0.000 J13.000 K0.000 F600.000
G1 X67.000 Y262.949 Z-2.000 F600.000
G2 X89.192 Y272.191 Z-2.000 I13.000 J0.049 K0.000 F600.000
G1 X89.192 Y272.191 Z-4.000 F60.000
G2 X93.000 Y262.949 Z-4.000 I-9.192 J-9.192 K0.000 F600.000
G1 X93.000 Y83.052 Z-4.000 F600.000
G2 X80.000 Y70.002 Z-4.000 I-13.000 J-0.050 K0.000 F600.000
G2 X67.000 Y83.052 Z-4.000 I-0.000 J13.000 K0.000 F600.000
G1 X67.000 Y262.949 Z-4.000 F600.000
G2 X89.192 Y272.191 Z-4.000 I13.000 J0.049 K0.000 F600.000
G1 X89.192 Y272.191 Z-6.000 F60.000
G2 X93.000 Y262.949 Z-6.000 I-9.192 J-9.192 K0.000 F600.000
G1 X93.000 Y83.052 Z-6.000 F600.000
G2 X80.000 Y70.002 Z-6.000 I-13.000 J-0.050 K0.000 F600.000
G2 X67.000 Y83.052 Z-6.000 I-0.000 J13.000 K0.000 F600.000
G1 X67.000 Y262.949 Z-6.000 F600.000
G2 X89.192 Y272.191 Z-6.000 I13.000 J0.049 K0.000 F600.000
G1 X89.192 Y272.191 Z-8.000 F60.000
G2 X93.000 Y262.949 Z-8.000 I-9.192 J-9.192 K0.000 F600.000
G1 X93.000 Y83.052 Z-8.000 F600.000
G2 X80.000 Y70.002 Z-8.000 I-13.000 J-0.050 K0.000 F600.000
G2 X67.000 Y83.052 Z-8.000 I-0.000 J13.000 K0.000 F600.000
G1 X67.000 Y262.949 Z-8.000 F600.000
G2 X89.192 Y272.191 Z-8.000 I13.000 J0.049 K0.000 F600.000
G1 X89.192 Y272.191 Z-10.000 F60.000
G2 X93.000 Y262.949 Z-10.000 I-9.192 J-9.192 K0.000 F600.000
G1 X93.000 Y83.052 Z-10.000 F600.000
G2 X80.000 Y70.002 Z-10.000 I-13.000 J-0.050 K0.000 F600.000
G2 X67.000 Y83.052 Z-10.000 I-0.000 J13.000 K0.000 F600.000
G1 X67.000 Y262.949 Z-10.000 F600.000
G2 X89.192 Y272.191 Z-10.000 I13.000 J0.049 K0.000 F600.000
G1 X89.192 Y272.191 Z-12.000 F60.000
G2 X93.000 Y262.949 Z-12.000 I-9.192 J-9.192 K0.000 F600.000
G1 X93.000 Y83.052 Z-12.000 F600.000
G2 X80.000 Y70.002 Z-12.000 I-13.000 J-0.050 K0.000 F600.000
G2 X67.000 Y83.052 Z-12.000 I-0.000 J13.000 K0.000 F600.000
G1 X67.000 Y262.949 Z-12.000 F600.000
G2 X89.192 Y272.191 Z-12.000 I13.000 J0.049 K0.000 F600.000
G1 X89.192 Y272.191 Z-14.000 F60.000
G2 X93.000 Y262.949 Z-14.000 I-9.192 J-9.192 K0.000 F600.000
G1 X93.000 Y83.052 Z-14.000 F600.000
G2 X80.000 Y70.002 Z-14.000 I-13.000 J-0.050 K0.000 F600.000
G2 X67.000 Y83.052 Z-14.000 I-0.000 J13.000 K0.000 F600.000
G1 X67.000 Y262.949 Z-14.000 F600.000
G2 X89.192 Y272.191 Z-14.000 I13.000 J0.049 K0.000 F600.000
G1 X89.192 Y272.191 Z-16.000 F60.000
G2 X93.000 Y262.949 Z-16.000 I-9.192 J-9.192 K0.000 F600.000
G1 X93.000 Y176.441 Z-16.000 F600.000
G1 X93.000 Y174.441 Z-14.000 F330.000
G1 X93.000 Y171.561 Z-14.000 F600.000
G1 X93.000 Y169.561 Z-16.000 F330.000
G1 X93.000 Y83.052 Z-16.000 F600.000
G2 X80.000 Y70.002 Z-16.000 I-13.000 J-0.050 K0.000 F600.000
G2 X67.000 Y83.052 Z-16.000 I-0.000 J13.000 K0.000 F600.000
G1 X67.000 Y169.561 Z-16.000 F600.000
G1 X67.000 Y171.561 Z-14.000 F330.000
G1 X67.000 Y174.441 Z-14.000 F600.000
G1 X67.000 Y176.441 Z-16.000 F330.000
G1 X67.000 Y262.949 Z-16.000 F600.000
G2 X89.192 Y272.191 Z-16.000 I13.000 J0.049 K0.000 F600.000
G1 X89.192 Y272.191 Z-18.000 F60.000
G2 X93.000 Y262.949 Z-18.000 I-9.192 J-9.192 K0.000 F600.000
G1 X93.000 Y178.441 Z-18.000 F600.000
G1 X93.000 Y174.441 Z-14.000 F330.000
G1 X93.000 Y171.561 Z-14.000 F600.000
G1 X93.000 Y167.561 Z-18.000 F330.000
G1 X93.000 Y83.052 Z-18.000 F600.000
G2 X80.000 Y70.002 Z-18.000 I-13.000 J-0.050 K0.000 F600.000
G2 X67.000 Y83.052 Z-18.000 I-0.000 J13.000 K0.000 F600.000
G1 X67.000 Y167.561 Z-18.000 F600.000
G1 X67.000 Y171.561 Z-14.000 F330.000
G1 X67.000 Y174.441 Z-14.000 F600.000
G1 X67.000 Y178.441 Z-18.000 F330.000
G1 X67.000 Y262.949 Z-18.000 F600.000
G2 X89.192 Y272.191 Z-18.000 I13.000 J0.049 K0.000 F600.000
G1 X89.192 Y272.191 Z-20.000 F60.000
G2 X93.000 Y262.949 Z-20.000 I-9.192 J-9.192 K0.000 F600.000
G1 X93.000 Y180.441 Z-20.000 F600.000
G1 X93.000 Y174.441 Z-14.000 F330.000
G1 X93.000 Y171.561 Z-14.000 F600.000
G1 X93.000 Y165.561 Z-20.000 F330.000
G1 X93.000 Y83.052 Z-20.000 F600.000
G2 X80.000 Y70.002 Z-20.000 I-13.000 J-0.050 K0.000 F600.000
G2 X67.000 Y83.052 Z-20.000 I-0.000 J13.000 K0.000 F600.000
G1 X67.000 Y165.561 Z-20.000 F600.000
G1 X67.000 Y171.561 Z-14.000 F330.000
G1 X67.000 Y174.441 Z-14.000 F600.000
G1 X67.000 Y180.441 Z-20.000 F330.000
G1 X67.000 Y262.949 Z-20.000 F600.000
G2 X89.192 Y272.191 Z-20.000 I13.000 J0.049 K0.000 F600.000
G0 X89.192 Y272.191 Z5.000
(Begin operation: slot_2)
G0 Z5.000
G0 X226.859 Y272.191 Z5.000
G0 X226.859 Y272.191 Z3.000
G1 X226.859 Y272.191 Z-2.000 F60.000
G2 X230.667 Y262.948 Z-2.000 I-9.192 J-9.192 K0.000 F600.000
G1 X230.667 Y83.052 Z-2.000 F600.000
G2 X217.667 Y70.002 Z-2.000 I-13.000 J-0.050 K0.000 F600.000
G2 X204.667 Y83.052 Z-2.000 I-0.000 J13.000 K0.000 F600.000
G1 X204.667 Y262.948 Z-2.000 F600.000
G2 X226.859 Y272.191 Z-2.000 I13.000 J0.050 K0.000 F600.000
G1 X226.859 Y272.191 Z-4.000 F60.000
G2 X230.667 Y262.948 Z-4.000 I-9.192 J-9.192 K0.000 F600.000
G1 X230.667 Y83.052 Z-4.000 F600.000
G2 X217.667 Y70.002 Z-4.000 I-13.000 J-0.050 K0.000 F600.000
G2 X204.667 Y83.052 Z-4.000 I-0.000 J13.000 K0.000 F600.000
G1 X204.667 Y262.948 Z-4.000 F600.000
G2 X226.859 Y272.191 Z-4.000 I13.000 J0.050 K0.000 F600.000
G1 X226.859 Y272.191 Z-6.000 F60.000
G2 X230.667 Y262.948 Z-6.000 I-9.192 J-9.192 K0.000 F600.000
G1 X230.667 Y83.052 Z-6.000 F600.000
G2 X217.667 Y70.002 Z-6.000 I-13.000 J-0.050 K0.000 F600.000
G2 X204.667 Y83.052 Z-6.000 I-0.000 J13.000 K0.000 F600.000
G1 X204.667 Y262.948 Z-6.000 F600.000
G2 X226.859 Y272.191 Z-6.000 I13.000 J0.050 K0.000 F600.000
G1 X226.859 Y272.191 Z-8.000 F60.000
G2 X230.667 Y262.948 Z-8.000 I-9.192 J-9.192 K0.000 F600.000
G1 X230.667 Y83.052 Z-8.000 F600.000
G2 X217.667 Y70.002 Z-8.000 I-13.000 J-0.050 K0.000 F600.000
G2 X204.667 Y83.052 Z-8.000 I-0.000 J13.000 K0.000 F600.000
G1 X204.667 Y262.948 Z-8.000 F600.000
G2 X226.859 Y272.191 Z-8.000 I13.000 J0.050 K0.000 F600.000
G1 X226.859 Y272.191 Z-10.000 F60.000
G2 X230.667 Y262.948 Z-10.000 I-9.192 J-9.192 K0.000 F600.000
G1 X230.667 Y83.052 Z-10.000 F600.000
G2 X217.667 Y70.002 Z-10.000 I-13.000 J-0.050 K0.000 F600.000
G2 X204.667 Y83.052 Z-10.000 I-0.000 J13.000 K0.000 F600.000
G1 X204.667 Y262.948 Z-10.000 F600.000
G2 X226.859 Y272.191 Z-10.000 I13.000 J0.050 K0.000 F600.000
G1 X226.859 Y272.191 Z-12.000 F60.000
G2 X230.667 Y262.948 Z-12.000 I-9.192 J-9.192 K0.000 F600.000
G1 X230.667 Y83.052 Z-12.000 F600.000
G2 X217.667 Y70.002 Z-12.000 I-13.000 J-0.050 K0.000 F600.000
G2 X204.667 Y83.052 Z-12.000 I-0.000 J13.000 K0.000 F600.000
G1 X204.667 Y262.948 Z-12.000 F600.000
G2 X226.859 Y272.191 Z-12.000 I13.000 J0.050 K0.000 F600.000
G1 X226.859 Y272.191 Z-14.000 F60.000
G2 X230.667 Y262.948 Z-14.000 I-9.192 J-9.192 K0.000 F600.000
G1 X230.667 Y83.052 Z-14.000 F600.000
G2 X217.667 Y70.002 Z-14.000 I-13.000 J-0.050 K0.000 F600.000
G2 X204.667 Y83.052 Z-14.000 I-0.000 J13.000 K0.000 F600.000
G1 X204.667 Y262.948 Z-14.000 F600.000
G2 X226.859 Y272.191 Z-14.000 I13.000 J0.050 K0.000 F600.000
G1 X226.859 Y272.191 Z-16.000 F60.000
G2 X230.667 Y262.948 Z-16.000 I-9.192 J-9.192 K0.000 F600.000
G1 X230.667 Y176.440 Z-16.000 F600.000
G1 X230.667 Y174.440 Z-14.000 F330.000
G1 X230.667 Y171.560 Z-14.000 F600.000
G1 X230.667 Y169.560 Z-16.000 F330.000
G1 X230.667 Y83.052 Z-16.000 F600.000
G2 X217.667 Y70.002 Z-16.000 I-13.000 J-0.050 K0.000 F600.000
G2 X204.667 Y83.052 Z-16.000 I-0.000 J13.000 K0.000 F600.000
G1 X204.667 Y169.560 Z-16.000 F600.000
G1 X204.667 Y171.560 Z-14.000 F330.000
G1 X204.667 Y174.440 Z-14.000 F600.000
G1 X204.667 Y176.440 Z-16.000 F330.000
G1 X204.667 Y262.948 Z-16.000 F600.000
G2 X226.859 Y272.191 Z-16.000 I13.000 J0.050 K0.000 F600.000
G1 X226.859 Y272.191 Z-18.000 F60.000
G2 X230.667 Y262.948 Z-18.000 I-9.192 J-9.192 K0.000 F600.000
G1 X230.667 Y178.440 Z-18.000 F600.000
G1 X230.667 Y174.440 Z-14.000 F330.000
G1 X230.667 Y171.560 Z-14.000 F600.000
G1 X230.667 Y167.560 Z-18.000 F330.000
G1 X230.667 Y83.052 Z-18.000 F600.000
G2 X217.667 Y70.002 Z-18.000 I-13.000 J-0.050 K0.000 F600.000
G2 X204.667 Y83.052 Z-18.000 I-0.000 J13.000 K0.000 F600.000
G1 X204.667 Y167.560 Z-18.000 F600.000
G1 X204.667 Y171.560 Z-14.000 F330.000
G1 X204.667 Y174.440 Z-14.000 F600.000
G1 X204.667 Y178.440 Z-18.000 F330.000
G1 X204.667 Y262.948 Z-18.000 F600.000
G2 X226.859 Y272.191 Z-18.000 I13.000 J0.050 K0.000 F600.000
G1 X226.859 Y272.191 Z-20.000 F60.000
G2 X230.667 Y262.948 Z-20.000 I-9.192 J-9.192 K0.000 F600.000
G1 X230.667 Y180.440 Z-20.000 F600.000
G1 X230.667 Y174.440 Z-14.000 F330.000
G1 X230.667 Y171.560 Z-14.000 F600.000
G1 X230.667 Y165.560 Z-20.000 F330.000
G1 X230.667 Y83.052 Z-20.000 F600.000
G2 X217.667 Y70.002 Z-20.000 I-13.000 J-0.050 K0.000 F600.000
G2 X204.667 Y83.052 Z-20.000 I-0.000 J13.000 K0.000 F600.000
G1 X204.667 Y165.560 Z-20.000 F600.000
G1 X204.667 Y171.560 Z-14.000 F330.000
G1 X204.667 Y174.440 Z-14.000 F600.000
G1 X204.667 Y180.440 Z-20.000 F330.000
G1 X204.667 Y262.948 Z-20.000 F600.000
G2 X226.859 Y272.191 Z-20.000 I13.000 J0.050 K0.000 F600.000
G0 X226.859 Y272.191 Z5.000
(Begin operation: slot_3)
G0 Z5.000
G0 X531.526 Y272.191 Z5.000
G0 X531.526 Y272.191 Z3.000
G1 X531.526 Y272.191 Z-2.000 F60.000
G2 X535.333 Y262.949 Z-2.000 I-9.192 J-9.192 K0.000 F600.000
G1 X535.333 Y83.052 Z-2.000 F600.000
G2 X522.333 Y70.002 Z-2.000 I-13.000 J-0.050 K0.000 F600.000
G2 X509.333 Y83.052 Z-2.000 I-0.000 J13.000 K0.000 F600.000
G1 X509.333 Y262.949 Z-2.000 F600.000
G2 X531.526 Y272.191 Z-2.000 I13.000 J0.049 K0.000 F600.000
G1 X531.526 Y272.191 Z-4.000 F60.000
G2 X535.333 Y262.949 Z-4.000 I-9.192 J-9.192 K0.000 F600.000
G1 X535.333 Y83.052 Z-4.000 F600.000
G2 X522.333 Y70.002 Z-4.000 I-13.000 J-0.050 K0.000 F600.000
G2 X509.333 Y83.052 Z-4.000 I-0.000 J13.000 K0.000 F600.000
G1 X509.333 Y262.949 Z-4.000 F600.000
G2 X531.526 Y272.191 Z-4.000 I13.000 J0.049 K0.000 F600.000
G1 X531.526 Y272.191 Z-6.000 F60.000
G2 X535.333 Y262.949 Z-6.000 I-9.192 J-9.192 K0.000 F600.000
G1 X535.333 Y83.052 Z-6.000 F600.000
G2 X522.333 Y70.002 Z-6.000 I-13.000 J-0.050 K0.000 F600.000
G2 X509.333 Y83.052 Z-6.000 I-0.000 J13.000 K0.000 F600.000
G1 X509.333 Y262.949 Z-6.000 F600.000
G2 X531.526 Y272.191 Z-6.000 I13.000 J0.049 K0.000 F600.000
G1 X531.526 Y272.191 Z-8.000 F60.000
G2 X535.333 Y262.949 Z-8.000 I-9.192 J-9.192 K0.000 F600.000
G1 X535.333 Y83.052 Z-8.000 F600.000
G2 X522.333 Y70.002 Z-8.000 I-13.000 J-0.050 K0.000 F600.000
G2 X509.333 Y83.052 Z-8.000 I-0.000 J13.000 K0.000 F600.000
G1 X509.333 Y262.949 Z-8.000 F600.000
G2 X531.526 Y272.191 Z-8.000 I13.000 J0.049 K0.000 F600.000
G1 X531.526 Y272.191 Z-10.000 F60.000
G2 X535.333 Y262.949 Z-10.000 I-9.192 J-9.192 K0.000 F600.000
G1 X535.333 Y83.052 Z-10.000 F600.000
G2 X522.333 Y70.002 Z-10.000 I-13.000 J-0.050 K0.000 F600.000
G2 X509.333 Y83.052 Z-10.000 I-0.000 J13.000 K0.000 F600.000
G1 X509.333 Y262.949 Z-10.000 F600.000
G2 X531.526 Y272.191 Z-10.000 I13.000 J0.049 K0.000 F600.000
G1 X531.526 Y272.191 Z-12.000 F60.000
G2 X535.333 Y262.949 Z-12.000 I-9.192 J-9.192 K0.000 F600.000
G1 X535.333 Y83.052 Z-12.000 F600.000
G2 X522.333 Y70.002 Z-12.000 I-13.000 J-0.050 K0.000 F600.000
G2 X509.333 Y83.052 Z-12.000 I-0.000 J13.000 K0.000 F600.000
G1 X509.333 Y262.949 Z-12.000 F600.000
G2 X531.526 Y272.191 Z-12.000 I13.000 J0.049 K0.000 F600.000
G1 X531.526 Y272.191 Z-14.000 F60.000
G2 X535.333 Y262.949 Z-14.000 I-9.192 J-9.192 K0.000 F600.000
G1 X535.333 Y83.052 Z-14.000 F600.000
G2 X522.333 Y70.002 Z-14.000 I-13.000 J-0.050 K0.000 F600.000
G2 X509.333 Y83.052 Z-14.000 I-0.000 J13.000 K0.000 F600.000
G1 X509.333 Y262.949 Z-14.000 F600.000
G2 X531.526 Y272.191 Z-14.000 I13.000 J0.049 K0.000 F600.000
G1 X531.526 Y272.191 Z-16.000 F60.000
G2 X535.333 Y262.949 Z-16.000 I-9.192 J-9.192 K0.000 F600.000
G1 X535.333 Y176.440 Z-16.000 F600.000
G1 X535.333 Y174.440 Z-14.000 F330.000
G1 X535.333 Y171.560 Z-14.000 F600.000
G1 X535.333 Y169.560 Z-16.000 F330.000
G1 X535.333 Y83.052 Z-16.000 F600.000
G2 X522.333 Y70.002 Z-16.000 I-13.000 J-0.050 K0.000 F600.000
G2 X509.333 Y83.052 Z-16.000 I-0.000 J13.000 K0.000 F600.000
G1 X509.333 Y169.560 Z-16.000 F600.000
G1 X509.333 Y171.560 Z-14.000 F330.000
G1 X509.333 Y174.440 Z-14.000 F600.000
G1 X509.333 Y176.440 Z-16.000 F330.000
G1 X509.333 Y262.949 Z-16.000 F600.000
G2 X531.526 Y272.191 Z-16.000 I13.000 J0.049 K0.000 F600.000
G1 X531.526 Y272.191 Z-18.000 F60.000
G2 X535.333 Y262.949 Z-18.000 I-9.192 J-9.192 K0.000 F600.000
G1 X535.333 Y178.440 Z-18.000 F600.000
G1 X535.333 Y174.440 Z-14.000 F330.000
G1 X535.333 Y171.560 Z-14.000 F600.000
G1 X535.333 Y167.560 Z-18.000 F330.000
G1 X535.333 Y83.052 Z-18.000 F600.000
G2 X522.333 Y70.002 Z-18.000 I-13.000 J-0.050 K0.000 F600.000
G2 X509.333 Y83.052 Z-18.000 I-0.000 J13.000 K0.000 F600.000
G1 X509.333 Y167.560 Z-18.000 F600.000
G1 X509.333 Y171.560 Z-14.000 F330.000
G1 X509.333 Y174.440 Z-14.000 F600.000
G1 X509.333 Y178.440 Z-18.000 F330.000
G1 X509.333 Y262.949 Z-18.000 F600.000
G2 X531.526 Y272.191 Z-18.000 I13.000 J0.049 K0.000 F600.000
G1 X531.526 Y272.191 Z-20.000 F60.000
G2 X535.333 Y262.949 Z-20.000 I-9.192 J-9.192 K0.000 F600.000
G1 X535.333 Y180.440 Z-20.000 F600.000
G1 X535.333 Y174.440 Z-14.000 F330.000
G1 X535.333 Y171.560 Z-14.000 F600.000
G1 X535.333 Y165.560 Z-20.000 F330.000
G1 X535.333 Y83.052 Z-20.000 F600.000
G2 X522.333 Y70.002 Z-20.000 I-13.000 J-0.050 K0.000 F600.000
G2 X509.333 Y83.052 Z-20.000 I-0.000 J13.000 K0.000 F600.000
G1 X509.333 Y165.560 Z-20.000 F600.000
G1 X509.333 Y171.560 Z-14.000 F330.000
G1 X509.333 Y174.440 Z-14.000 F600.000
G1 X509.333 Y180.440 Z-20.000 F330.000
G1 X509.333 Y262.949 Z-20.000 F600.000
G2 X531.526 Y272.191 Z-20.000 I13.000 J0.049 K0.000 F600.000
G0 X531.526 Y272.191 Z5.000
(Begin operation: slot_4)
G0 Z5.000
G0 X669.192 Y272.191 Z5.000
G0 X669.192 Y272.191 Z3.000
G1 X669.192 Y272.191 Z-2.000 F60.000
G2 X673.000 Y262.949 Z-2.000 I-9.192 J-9.192 K0.000 F600.000
G1 X673.000 Y83.052 Z-2.000 F600.000
G2 X662.257 Y70.199 Z-2.000 I-13.002 J-0.049 K0.000 F600.000
G2 X647.000 Y83.052 Z-2.000 I-2.256 J12.803 K0.000 F600.000
G1 X647.000 Y262.949 Z-2.000 F600.000
G2 X669.192 Y272.191 Z-2.000 I13.000 J0.049 K0.000 F600.000
G1 X669.192 Y272.191 Z-4.000 F60.000
G2 X673.000 Y262.949 Z-4.000 I-9.192 J-9.192 K0.000 F600.000
G1 X673.000 Y83.052 Z-4.000 F600.000
G2 X662.257 Y70.199 Z-4.000 I-13.002 J-0.049 K0.000 F600.000
G2 X647.000 Y83.052 Z-4.000 I-2.256 J12.803 K0.000 F600.000
G1 X647.000 Y262.949 Z-4.000 F600.000
G2 X669.192 Y272.191 Z-4.000 I13.000 J0.049 K0.000 F600.000
G1 X669.192 Y272.191 Z-6.000 F60.000
G2 X673.000 Y262.949 Z-6.000 I-9.192 J-9.192 K0.000 F600.000
G1 X673.000 Y83.052 Z-6.000 F600.000
G2 X662.257 Y70.199 Z-6.000 I-13.002 J-0.049 K0.000 F600.000
G2 X647.000 Y83.052 Z-6.000 I-2.256 J12.803 K0.000 F600.000
G1 X647.000 Y262.949 Z-6.000 F600.000
G2 X669.192 Y272.191 Z-6.000 I13.000 J0.049 K0.000 F600.000
G1 X669.192 Y272.191 Z-8.000 F60.000
G2 X673.000 Y262.949 Z-8.000 I-9.192 J-9.192 K0.000 F600.000
G1 X673.000 Y83.052 Z-8.000 F600.000
G2 X662.257 Y70.199 Z-8.000 I-13.002 J-0.049 K0.000 F600.000
G2 X647.000 Y83.052 Z-8.000 I-2.256 J12.803 K0.000 F600.000
G1 X647.000 Y262.949 Z-8.000 F600.000
G2 X669.192 Y272.191 Z-8.000 I13.000 J0.049 K0.000 F600.000
G1 X669.192 Y272.191 Z-10.000 F60.000
G2 X673.000 Y262.949 Z-10.000 I-9.192 J-9.192 K0.000 F600.000
G1 X673.000 Y83.052 Z-10.000 F600.000
G2 X662.257 Y70.199 Z-10.000 I-13.002 J-0.049 K0.000 F600.000
G2 X647.000 Y83.052 Z-10.000 I-2.256 J12.803 K0.000 F600.000
G1 X647.000 Y262.949 Z-10.000 F600.000
G2 X669.192 Y272.191 Z-10.000 I13.000 J0.049 K0.000 F600.000
G1 X669.192 Y272.191 Z-12.000 F60.000
G2 X673.000 Y262.949 Z-12.000 I-9.192 J-9.192 K0.000 F600.000
G1 X673.000 Y83.052 Z-12.000 F600.000
G2 X662.257 Y70.199 Z-12.000 I-13.002 J-0.049 K0.000 F600.000
G2 X647.000 Y83.052 Z-12.000 I-2.256 J12.803 K0.000 F600.000
G1 X647.000 Y262.949 Z-12.000 F600.000
G2 X669.192 Y272.191 Z-12.000 I13.000 J0.049 K0.000 F600.000
G1 X669.192 Y272.191 Z-14.000 F60.000
G2 X673.000 Y262.949 Z-14.000 I-9.192 J-9.192 K0.000 F600.000
G1 X673.000 Y83.052 Z-14.000 F600.000
G2 X662.257 Y70.199 Z-14.000 I-13.002 J-0.049 K0.000 F600.000
G2 X647.000 Y83.052 Z-14.000 I-2.256 J12.803 K0.000 F600.000
G1 X647.000 Y262.949 Z-14.000 F600.000
G2 X669.192 Y272.191 Z-14.000 I13.000 J0.049 K0.000 F600.000
G1 X669.192 Y272.191 Z-16.000 F60.000
G2 X673.000 Y262.949 Z-16.000 I-9.192 J-9.192 K0.000 F600.000
G1 X673.000 Y176.441 Z-16.000 F600.000
G1 X673.000 Y174.441 Z-14.000 F330.000
G1 X673.000 Y171.561 Z-14.000 F600.000
G1 X673.000 Y169.561 Z-16.000 F330.000
G1 X673.000 Y83.052 Z-16.000 F600.000
G2 X662.257 Y70.199 Z-16.000 I-13.002 J-0.049 K0.000 F600.000
G2 X647.000 Y83.052 Z-16.000 I-2.256 J12.803 K0.000 F600.000
G1 X647.000 Y169.561 Z-16.000 F600.000
G1 X647.000 Y171.561 Z-14.000 F330.000
G1 X647.000 Y174.441 Z-14.000 F600.000
G1 X647.000 Y176.441 Z-16.000 F330.000
G1 X647.000 Y262.949 Z-16.000 F600.000
G2 X669.192 Y272.191 Z-16.000 I13.000 J0.049 K0.000 F600.000
G1 X669.192 Y272.191 Z-18.000 F60.000
G2 X673.000 Y262.949 Z-18.000 I-9.192 J-9.192 K0.000 F600.000
G1 X673.000 Y178.441 Z-18.000 F600.000
G1 X673.000 Y174.441 Z-14.000 F330.000
G1 X673.000 Y171.561 Z-14.000 F600.000
G1 X673.000 Y167.561 Z-18.000 F330.000
G1 X673.000 Y83.052 Z-18.000 F600.000
G2 X662.257 Y70.199 Z-18.000 I-13.002 J-0.049 K0.000 F600.000
G2 X647.000 Y83.052 Z-18.000 I-2.256 J12.803 K0.000 F600.000
G1 X647.000 Y167.561 Z-18.000 F600.000
G1 X647.000 Y171.561 Z-14.000 F330.000
G1 X647.000 Y174.441 Z-14.000 F600.000
G1 X647.000 Y178.441 Z-18.000 F330.000
G1 X647.000 Y262.949 Z-18.000 F600.000
G2 X669.192 Y272.191 Z-18.000 I13.000 J0.049 K0.000 F600.000
G1 X669.192 Y272.191 Z-20.000 F60.000
G2 X673.000 Y262.949 Z-20.000 I-9.192 J-9.192 K0.000 F600.000
G1 X673.000 Y180.441 Z-20.000 F600.000
G1 X673.000 Y174.441 Z-14.000 F330.000
G1 X673.000 Y171.561 Z-14.000 F600.000
G1 X673.000 Y165.561 Z-20.000 F330.000
G1 X673.000 Y83.052 Z-20.000 F600.000
G2 X662.257 Y70.199 Z-20.000 I-13.002 J-0.049 K0.000 F600.000
G2 X647.000 Y83.052 Z-20.000 I-2.256 J12.803 K0.000 F600.000
G1 X647.000 Y165.561 Z-20.000 F600.000
G1 X647.000 Y171.561 Z-14.000 F330.000
G1 X647.000 Y174.441 Z-14.000 F600.000
G1 X647.000 Y180.441 Z-20.000 F330.000
G1 X647.000 Y262.949 Z-20.000 F600.000
G2 X669.192 Y272.191 Z-20.000 I13.000 J0.049 K0.000 F600.000
G0 X669.192 Y272.191 Z5.000
(Begin operation: obrys001)
G0 Z5.000
G0 X732.121 Y432.121 Z5.000
G0 X732.121 Y432.121 Z3.000
G1 X732.121 Y432.121 Z-2.000 F60.000
G2 X733.000 Y430.000 Z-2.000 I-2.121 J-2.121 K0.000 F600.000
G1 X733.000 Y46.000 Z-2.000 F600.000
G2 X694.069 Y7.001 Z-2.000 I-39.001 J0.001 K0.000 F600.000
G1 X46.000 Y7.000 Z-2.000 F600.000
G2 X7.001 Y45.931 Z-2.000 I0.001 J39.001 K0.000 F600.000
G1 X7.000 Y430.000 Z-2.000 F600.000
G2 X10.000 Y433.000 Z-2.000 I3.000 J-0.000 K0.000 F600.000
G1 X730.000 Y433.000 Z-2.000 F600.000
G2 X732.121 Y432.121 Z-2.000 I-0.000 J-3.000 K0.000 F600.000
G1 X732.121 Y432.121 Z-4.000 F60.000
G2 X733.000 Y430.000 Z-4.000 I-2.121 J-2.121 K0.000 F600.000
G1 X733.000 Y46.000 Z-4.000 F600.000
G2 X694.069 Y7.001 Z-4.000 I-39.001 J0.001 K0.000 F600.000
G1 X46.000 Y7.000 Z-4.000 F600.000
G2 X7.001 Y45.931 Z-4.000 I0.001 J39.001 K0.000 F600.000
G1 X7.000 Y430.000 Z-4.000 F600.000
G2 X10.000 Y433.000 Z-4.000 I3.000 J-0.000 K0.000 F600.000
G1 X730.000 Y433.000 Z-4.000 F600.000
G2 X732.121 Y432.121 Z-4.000 I-0.000 J-3.000 K0.000 F600.000
G1 X732.121 Y432.121 Z-6.000 F60.000
G2 X733.000 Y430.000 Z-6.000 I-2.121 J-2.121 K0.000 F600.000
G1 X733.000 Y46.000 Z-6.000 F600.000
G2 X694.069 Y7.001 Z-6.000 I-39.001 J0.001 K0.000 F600.000
G1 X46.000 Y7.000 Z-6.000 F600.000
G2 X7.001 Y45.931 Z-6.000 I0.001 J39.001 K0.000 F600.000
G1 X7.000 Y430.000 Z-6.000 F600.000
G2 X10.000 Y433.000 Z-6.000 I3.000 J-0.000 K0.000 F600.000
G1 X730.000 Y433.000 Z-6.000 F600.000
G2 X732.121 Y432.121 Z-6.000 I-0.000 J-3.000 K0.000 F600.000
G1 X732.121 Y432.121 Z-8.000 F60.000
G2 X733.000 Y430.000 Z-8.000 I-2.121 J-2.121 K0.000 F600.000
G1 X733.000 Y46.000 Z-8.000 F600.000
G2 X694.069 Y7.001 Z-8.000 I-39.001 J0.001 K0.000 F600.000
G1 X46.000 Y7.000 Z-8.000 F600.000
G2 X7.001 Y45.931 Z-8.000 I0.001 J39.001 K0.000 F600.000
G1 X7.000 Y430.000 Z-8.000 F600.000
G2 X10.000 Y433.000 Z-8.000 I3.000 J-0.000 K0.000 F600.000
G1 X730.000 Y433.000 Z-8.000 F600.000
G2 X732.121 Y432.121 Z-8.000 I-0.000 J-3.000 K0.000 F600.000
G1 X732.121 Y432.121 Z-10.000 F60.000
G2 X733.000 Y430.000 Z-10.000 I-2.121 J-2.121 K0.000 F600.000
G1 X733.000 Y46.000 Z-10.000 F600.000
G2 X694.069 Y7.001 Z-10.000 I-39.001 J0.001 K0.000 F600.000
G1 X46.000 Y7.000 Z-10.000 F600.000
G2 X7.001 Y45.931 Z-10.000 I0.001 J39.001 K0.000 F600.000
G1 X7.000 Y430.000 Z-10.000 F600.000
G2 X10.000 Y433.000 Z-10.000 I3.000 J-0.000 K0.000 F600.000
G1 X730.000 Y433.000 Z-10.000 F600.000
G2 X732.121 Y432.121 Z-10.000 I-0.000 J-3.000 K0.000 F600.000
G1 X732.121 Y432.121 Z-12.000 F60.000
G2 X733.000 Y430.000 Z-12.000 I-2.121 J-2.121 K0.000 F600.000
G1 X733.000 Y46.000 Z-12.000 F600.000
G2 X694.069 Y7.001 Z-12.000 I-39.001 J0.001 K0.000 F600.000
G1 X46.000 Y7.000 Z-12.000 F600.000
G2 X7.001 Y45.931 Z-12.000 I0.001 J39.001 K0.000 F600.000
G1 X7.000 Y430.000 Z-12.000 F600.000
G2 X10.000 Y433.000 Z-12.000 I3.000 J-0.000 K0.000 F600.000
G1 X730.000 Y433.000 Z-12.000 F600.000
G2 X732.121 Y432.121 Z-12.000 I-0.000 J-3.000 K0.000 F600.000
G1 X732.121 Y432.121 Z-14.000 F60.000
G2 X733.000 Y430.000 Z-14.000 I-2.121 J-2.121 K0.000 F600.000
G1 X733.000 Y240.920 Z-14.000 F600.000
G1 X733.000 Y238.920 Z-12.000 F330.000
G1 X733.000 Y237.080 Z-12.000 F600.000
G1 X733.000 Y235.080 Z-14.000 F330.000
G1 X733.000 Y46.000 Z-14.000 F600.000
G2 X694.069 Y7.001 Z-14.000 I-39.001 J0.001 K0.000 F600.000
G1 X534.972 Y7.001 Z-14.000 F600.000
G1 X532.972 Y7.001 Z-12.000 F330.000
G1 X531.132 Y7.001 Z-12.000 F600.000
G1 X529.132 Y7.001 Z-14.000 F330.000
G1 X210.937 Y7.000 Z-14.000 F600.000
G1 X208.937 Y7.000 Z-12.000 F330.000
G1 X207.097 Y7.000 Z-12.000 F600.000
G1 X205.097 Y7.000 Z-14.000 F330.000
G1 X46.000 Y7.000 Z-14.000 F600.000
G2 X7.001 Y45.931 Z-14.000 I0.001 J39.001 K0.000 F600.000
G1 X7.000 Y235.045 Z-14.000 F600.000
G1 X7.000 Y237.045 Z-12.000 F330.000
G1 X7.000 Y238.885 Z-12.000 F600.000
G1 X7.000 Y240.885 Z-14.000 F330.000
G1 X7.000 Y430.000 Z-14.000 F600.000
G2 X10.000 Y433.000 Z-14.000 I3.000 J-0.000 K0.000 F600.000
G1 X187.080 Y433.000 Z-14.000 F600.000
G1 X189.080 Y433.000 Z-12.000 F330.000
G1 X190.920 Y433.000 Z-12.000 F600.000
G1 X192.920 Y433.000 Z-14.000 F330.000
G1 X547.080 Y433.000 Z-14.000 F600.000
G1 X549.080 Y433.000 Z-12.000 F330.000
G1 X550.920 Y433.000 Z-12.000 F600.000
G1 X552.920 Y433.000 Z-14.000 F330.000
G1 X730.000 Y433.000 Z-14.000 F600.000
G2 X732.121 Y432.121 Z-14.000 I-0.000 J-3.000 K0.000 F600.000
G1 X732.121 Y432.121 Z-16.000 F60.000
G2 X733.000 Y430.000 Z-16.000 I-2.121 J-2.121 K0.000 F600.000
G1 X733.000 Y242.920 Z-16.000 F600.000
G1 X733.000 Y238.920 Z-12.000 F330.000
G1 X733.000 Y237.080 Z-12.000 F600.000
G1 X733.000 Y233.080 Z-16.000 F330.000
G1 X733.000 Y46.000 Z-16.000 F600.000
G2 X694.069 Y7.001 Z-16.000 I-39.001 J0.001 K0.000 F600.000
G1 X536.972 Y7.001 Z-16.000 F600.000
G1 X532.972 Y7.001 Z-12.000 F330.000
G1 X531.132 Y7.001 Z-12.000 F600.000
G1 X527.132 Y7.001 Z-16.000 F330.000
G1 X212.937 Y7.000 Z-16.000 F600.000
G1 X208.937 Y7.000 Z-12.000 F330.000
G1 X207.097 Y7.000 Z-12.000 F600.000
G1 X203.097 Y7.000 Z-16.000 F330.000
G1 X46.000 Y7.000 Z-16.000 F600.000
G2 X7.001 Y45.931 Z-16.000 I0.001 J39.001 K0.000 F600.000
G1 X7.000 Y233.045 Z-16.000 F600.000
G1 X7.000 Y237.045 Z-12.000 F330.000
G1 X7.000 Y238.885 Z-12.000 F600.000
G1 X7.000 Y242.885 Z-16.000 F330.000
G1 X7.000 Y430.000 Z-16.000 F600.000
G2 X10.000 Y433.000 Z-16.000 I3.000 J-0.000 K0.000 F600.000
G1 X185.080 Y433.000 Z-16.000 F600.000
G1 X189.080 Y433.000 Z-12.000 F330.000
G1 X190.920 Y433.000 Z-12.000 F600.000
G1 X194.920 Y433.000 Z-16.000 F330.000
G1 X545.080 Y433.000 Z-16.000 F600.000
G1 X549.080 Y433.000 Z-12.000 F330.000
G1 X550.920 Y433.000 Z-12.000 F600.000
G1 X554.920 Y433.000 Z-16.000 F330.000
G1 X730.000 Y433.000 Z-16.000 F600.000
G2 X732.121 Y432.121 Z-16.000 I-0.000 J-3.000 K0.000 F600.000
G1 X732.121 Y432.121 Z-18.000 F60.000
G2 X733.000 Y430.000 Z-18.000 I-2.121 J-2.121 K0.000 F600.000
G1 X733.000 Y244.920 Z-18.000 F600.000
G1 X733.000 Y238.920 Z-12.000 F330.000
G1 X733.000 Y237.080 Z-12.000 F600.000
G1 X733.000 Y231.080 Z-18.000 F330.000
G1 X733.000 Y46.000 Z-18.000 F600.000
G2 X694.069 Y7.001 Z-18.000 I-39.001 J0.001 K0.000 F600.000
G1 X538.972 Y7.001 Z-18.000 F600.000
G1 X532.972 Y7.001 Z-12.000 F330.000
G1 X531.132 Y7.001 Z-12.000 F600.000
G1 X525.132 Y7.001 Z-18.000 F330.000
G1 X214.937 Y7.000 Z-18.000 F600.000
G1 X208.937 Y7.000 Z-12.000 F330.000
G1 X207.097 Y7.000 Z-12.000 F600.000
G1 X201.097 Y7.000 Z-18.000 F330.000
G1 X46.000 Y7.000 Z-18.000 F600.000
G2 X7.001 Y45.931 Z-18.000 I0.001 J39.001 K0.000 F600.000
G1 X7.000 Y231.045 Z-18.000 F600.000
G1 X7.000 Y237.045 Z-12.000 F330.000
G1 X7.000 Y238.885 Z-12.000 F600.000
G1 X7.000 Y244.885 Z-18.000 F330.000
G1 X7.000 Y430.000 Z-18.000 F600.000
G2 X10.000 Y433.000 Z-18.000 I3.000 J-0.000 K0.000 F600.000
G1 X183.080 Y433.000 Z-18.000 F600.000
G1 X189.080 Y433.000 Z-12.000 F330.000
G1 X190.920 Y433.000 Z-12.000 F600.000
G1 X196.920 Y433.000 Z-18.000 F330.000
G1 X543.080 Y433.000 Z-18.000 F600.000
G1 X549.080 Y433.000 Z-12.000 F330.000
G1 X550.920 Y433.000 Z-12.000 F600.000
G1 X556.920 Y433.000 Z-18.000 F330.000
G1 X730.000 Y433.000 Z-18.000 F600.000
G2 X732.121 Y432.121 Z-18.000 I-0.000 J-3.000 K0.000 F600.000
G1 X732.121 Y432.121 Z-20.000 F60.000
G2 X733.000 Y430.000 Z-20.000 I-2.121 J-2.121 K0.000 F600.000
G1 X733.000 Y246.920 Z-20.000 F600.000
G1 X733.000 Y238.920 Z-12.000 F330.000
G1 X733.000 Y237.080 Z-12.000 F600.000
G1 X733.000 Y229.080 Z-20.000 F330.000
G1 X733.000 Y46.000 Z-20.000 F600.000
G2 X694.069 Y7.001 Z-20.000 I-39.001 J0.001 K0.000 F600.000
G1 X540.972 Y7.001 Z-20.000 F600.000
G1 X532.972 Y7.001 Z-12.000 F330.000
G1 X531.132 Y7.001 Z-12.000 F600.000
G1 X523.132 Y7.001 Z-20.000 F330.000
G1 X216.937 Y7.000 Z-20.000 F600.000
G1 X208.937 Y7.000 Z-12.000 F330.000
G1 X207.097 Y7.000 Z-12.000 F600.000
G1 X199.097 Y7.000 Z-20.000 F330.000
G1 X46.000 Y7.000 Z-20.000 F600.000
G2 X7.001 Y45.931 Z-20.000 I0.001 J39.001 K0.000 F600.000
G1 X7.000 Y229.045 Z-20.000 F600.000
G1 X7.000 Y237.045 Z-12.000 F330.000
G1 X7.000 Y238.885 Z-12.000 F600.000
G1 X7.000 Y246.885 Z-20.000 F330.000
G1 X7.000 Y430.000 Z-20.000 F600.000
G2 X10.000 Y433.000 Z-20.000 I3.000 J-0.000 K0.000 F600.000
G1 X181.080 Y433.000 Z-20.000 F600.000
G1 X189.080 Y433.000 Z-12.000 F330.000
G1 X190.920 Y433.000 Z-12.000 F600.000
G1 X198.920 Y433.000 Z-20.000 F330.000
G1 X541.080 Y433.000 Z-20.000 F600.000
G1 X549.080 Y433.000 Z-12.000 F330.000
G1 X550.920 Y433.000 Z-12.000 F600.000
G1 X558.920 Y433.000 Z-20.000 F330.000
G1 X730.000 Y433.000 Z-20.000 F600.000
G2 X732.121 Y432.121 Z-20.000 I-0.000 J-3.000 K0.000 F600.000
G0 X732.121 Y432.121 Z5.000
(Begin postamble)
M5
